assets/luts/cinematic_warm.cube
# cinematic_warm - 好莱坞暖色（Teal & Orange）
# Generated for video-dedup, size=17
TITLE "cinematic_warm"
LUT_3D_SIZE 17
DOMAIN_MIN 0.0 0.0 0.0
DOMAIN_MAX 1.0 1.0 1.0
0.000000 0.000000 0.100000
0.014386 0.000000 0.096280
0.078807 0.000000 0.092595
0.143263 0.000000 0.088945
0.207754 0.000000 0.085329
0.272280 0.000000 0.081749
0.336841 0.000000 0.078204
0.401437 0.000000 0.074693
0.466068 0.000000 0.071218
0.530733 0.000000 0.067777
0.595434 0.000000 0.064371
0.660169 0.000000 0.061000
0.724939 0.000000 0.057664
0.789745 0.000000 0.054363
0.854585 0.000000 0.051097
0.919460 0.000000 0.047866
0.984370 0.000000 0.044670
0.000000 0.043967 0.092730
0.018191 0.044715 0.089078
0.082681 0.045462 0.085462
0.147205 0.046210 0.081880
0.211765 0.046957 0.078333
0.276359 0.047705 0.074822
0.340989 0.048452 0.071345
0.405653 0.049200 0.067903
0.470352 0.049947 0.064496
0.535086 0.050695 0.061124
0.599855 0.051443 0.057787
0.664659 0.052190 0.054484
0.729498 0.052938 0.051217
0.794372 0.053685 0.047985
0.859281 0.054433 0.044787
0.924224 0.055180 0.041624
0.989203 0.055927 0.038497
0.000000 0.107935 0.085594
0.022130 0.108682 0.082011
0.086688 0.109430 0.078463
0.151281 0.110177 0.074950
0.215910 0.110925 0.071472
0.280573 0.111672 0.068029
0.345271 0.112420 0.064621
0.410003 0.113168 0.061247
0.474771 0.113915 0.057909
0.539574 0.114662 0.054605
0.604412 0.115410 0.051337
0.669284 0.116157 0.048103
0.734192 0.116905 0.044904
0.799134 0.117652 0.041740
0.864111 0.118400 0.038611
0.929123 0.119147 0.035517
0.994171 0.119895 0.032458
0.000000 0.171902 0.078593
0.026204 0.172650 0.075079
0.090831 0.173398 0.071599
0.155492 0.174145 0.068155
0.220189 0.174893 0.064745
0.284921 0.175640 0.061371
0.349687 0.176388 0.058031
0.414489 0.177135 0.054726
0.479325 0.177882 0.051456
0.544196 0.178630 0.048221
0.609102 0.179377 0.045021
0.674043 0.180125 0.041856
0.739019 0.180872 0.038726
0.804030 0.181620 0.035630
0.869076 0.182367 0.032570
0.934157 0.183115 0.029545
0.999273 0.183863 0.026554
0.000000 0.235870 0.071727
0.030412 0.236617 0.068281
0.095108 0.237365 0.064870
0.159838 0.238113 0.061494
0.224603 0.238860 0.058153
0.289403 0.239607 0.054847
0.354238 0.240355 0.051576
0.419108 0.241102 0.048340
0.484013 0.241850 0.045138
0.548953 0.242598 0.041972
0.613928 0.243345 0.038840
0.678937 0.244092 0.035744
0.743982 0.244840 0.032682
0.809062 0.245588 0.029655
0.874176 0.246335 0.026664
0.939325 0.247083 0.023707
1.000000 0.247830 0.020785
0.000000 0.299838 0.064995
0.034755 0.300585 0.061618
0.099519 0.301333 0.058275
0.164318 0.302080 0.054968
0.229152 0.302828 0.051696
0.294020 0.303575 0.048458
0.358924 0.304322 0.045255
0.423863 0.305070 0.042088
0.488836 0.305818 0.038955
0.553845 0.306565 0.035857
0.618888 0.307312 0.032794
0.683966 0.308060 0.029766
0.749079 0.308808 0.026773
0.814227 0.309555 0.023815
0.879410 0.310302 0.020892
0.944628 0.311050 0.018003
1.000000 0.311798 0.015150
0.000000 0.363805 0.058398
0.039233 0.364553 0.055089
0.104065 0.365300 0.051815
0.168933 0.366048 0.048576
0.233835 0.366795 0.045373
0.298772 0.367542 0.042204
0.363745 0.368290 0.039070
0.428752 0.369038 0.035970
0.493794 0.369785 0.032906
0.558871 0.370532 0.029877
0.623982 0.371280 0.026882
0.689129 0.372028 0.023923
0.754311 0.372775 0.020998
0.819528 0.373522 0.018109
0.884779 0.374270 0.015254
0.950066 0.375018 0.012434
1.000000 0.375765 0.009650
0.000000 0.427772 0.051935
0.043845 0.428520 0.048695
0.108746 0.429268 0.045490
0.173682 0.430015 0.042320
0.238653 0.430762 0.039184
0.303659 0.431510 0.036084
0.368699 0.432257 0.033018
0.433775 0.433005 0.029988
0.498886 0.433752 0.026992
0.564031 0.434500 0.024031
0.629212 0.435248 0.021105
0.694427 0.435995 0.018215
0.759677 0.436743 0.015359
0.824963 0.437490 0.012538
0.890283 0.438238 0.009751
0.955638 0.438985 0.007000
1.000000 0.439733 0.004284
0.000000 0.491740 0.045607
0.048592 0.492487 0.042436
0.113561 0.493235 0.039299
0.178566 0.493983 0.036197
0.243605 0.494730 0.033130
0.308680 0.495478 0.030099
0.373789 0.496225 0.027102
0.438933 0.496972 0.024140
0.504112 0.497720 0.021212
0.569327 0.498468 0.018320
0.634576 0.499215 0.015463
0.699859 0.499962 0.012641
0.765178 0.500710 0.009853
0.830532 0.501458 0.007101
0.895921 0.502205 0.004383
0.961344 0.502953 0.001701
1.000000 0.503700 0.000000
0.000000 0.555707 0.039414
0.053473 0.556455 0.036311
0.118511 0.557203 0.033243
0.183584 0.557950 0.030209
0.248692 0.558698 0.027211
0.313835 0.559445 0.024248
0.379013 0.560192 0.021320
0.444226 0.560940 0.018426
0.509474 0.561688 0.015568
0.574756 0.562435 0.012744
0.640074 0.563182 0.009955
0.705426 0.563930 0.007201
0.770814 0.564677 0.004483
0.836236 0.565425 0.001799
0.901693 0.566172 0.000000
0.967186 0.566920 0.000000
1.000000 0.567667 0.000000
0.000000 0.619675 0.033355
0.058489 0.620422 0.030320
0.123596 0.621170 0.027321
0.188738 0.621918 0.024356
0.253914 0.622665 0.021427
0.319126 0.623413 0.018532
0.384372 0.624160 0.015672
0.449653 0.624907 0.012847
0.514970 0.625655 0.010057
0.580321 0.626402 0.007302
0.645707 0.627150 0.004582
0.711128 0.627897 0.001897
0.776584 0.628645 0.000000
0.842075 0.629393 0.000000
0.907601 0.630140 0.000000
0.973161 0.630888 0.000000
1.000000 0.631635 0.000000
0.000000 0.683643 0.027431
0.063640 0.684390 0.024465
0.128815 0.685138 0.021534
0.194025 0.685885 0.018638
0.259270 0.686632 0.015777
0.324550 0.687380 0.012950
0.389865 0.688128 0.010159
0.455215 0.688875 0.007403
0.520600 0.689623 0.004681
0.586020 0.690370 0.001995
0.651475 0.691118 0.000000
0.716964 0.691865 0.000000
0.782489 0.692613 0.000000
0.848048 0.693360 0.000000
0.913642 0.694107 0.000000
0.979272 0.694855 0.000000
1.000000 0.695603 0.000000
0.003716 0.747610 0.021641
0.068925 0.748358 0.018744
0.134169 0.749105 0.015881
0.199448 0.749853 0.013054
0.264761 0.750600 0.010261
0.330110 0.751347 0.007504
0.395493 0.752095 0.004781
0.460912 0.752843 0.002093
0.526365 0.753590 0.000000
0.591854 0.754337 0.000000
0.657377 0.755085 0.000000
0.722935 0.755833 0.000000
0.788528 0.756580 0.000000
0.854156 0.757328 0.000000
0.919819 0.758075 0.000000
0.985517 0.758822 0.000000
1.000000 0.759570 0.000000
0.009067 0.811577 0.015986
0.074345 0.812325 0.013157
0.139657 0.813072 0.010363
0.205004 0.813820 0.007604
0.270387 0.814567 0.004880
0.335804 0.815315 0.002191
0.401256 0.816063 0.000000
0.466743 0.816810 0.000000
0.532265 0.817558 0.000000
0.597822 0.818305 0.000000
0.663414 0.819052 0.000000
0.729040 0.819800 0.000000
0.794702 0.820547 0.000000
0.860399 0.821295 0.000000
0.926130 0.822043 0.000000
0.991896 0.822790 0.000000
1.000000 0.823537 0.000000
0.014553 0.875545 0.010466
0.079899 0.876292 0.007705
0.145280 0.877040 0.004980
0.210696 0.877788 0.002290
0.276147 0.878535 0.000000
0.341632 0.879283 0.000000
0.407153 0.880030 0.000000
0.472709 0.880777 0.000000
0.538299 0.881525 0.000000
0.603925 0.882273 0.000000
0.669585 0.883020 0.000000
0.735280 0.883767 0.000000
0.801010 0.884515 0.000000
0.866776 0.885263 0.000000
0.932576 0.886010 0.000000
0.998411 0.886758 0.000000
1.000000 0.887505 0.000000
0.020173 0.939512 0.005080
0.085588 0.940260 0.002388
0.151038 0.941007 0.000000
0.216522 0.941755 0.000000
0.282041 0.942503 0.000000
0.347596 0.943250 0.000000
0.413185 0.943998 0.000000
0.478809 0.944745 0.000000
0.544468 0.945492 0.000000
0.610162 0.946240 0.000000
0.675891 0.946987 0.000000
0.741655 0.947735 0.000000
0.807454 0.948483 0.000000
0.873287 0.949230 0.000000
0.939156 0.949978 0.000000
1.000000 0.950725 0.000000
1.000000 0.951472 0.000000
0.025928 1.000000 0.000000
0.091412 1.000000 0.000000
0.156930 1.000000 0.000000
0.222483 1.000000 0.000000
0.288071 1.000000 0.000000
0.353694 1.000000 0.000000
0.419351 1.000000 0.000000
0.485044 1.000000 0.000000
0.550772 1.000000 0.000000
0.616534 1.000000 0.000000
0.682332 1.000000 0.000000
0.748164 1.000000 0.000000
0.814031 1.000000 0.000000
0.879934 1.000000 0.000000
0.945871 1.000000 0.000000
1.000000 1.000000 0.000000
1.000000 1.000000 0.000000
0.000000 0.000000 0.161078
0.015115 0.000000 0.157371
0.079549 0.000000 0.153699
0.144018 0.000000 0.150062
0.208523 0.000000 0.146460
0.273062 0.000000 0.142893
0.337636 0.000000 0.139361
0.402245 0.000000 0.135864
0.466889 0.000000 0.132402
0.531568 0.000000 0.128974
0.596282 0.000000 0.125582
0.661031 0.000000 0.122224
0.725814 0.000000 0.118902
0.790633 0.000000 0.115614
0.855486 0.000000 0.112361
0.920375 0.000000 0.109144
0.985298 0.000000 0.105961
0.000000 0.044253 0.153833
0.018945 0.045000 0.150195
0.083448 0.045748 0.146592
0.147986 0.046495 0.143024
0.212559 0.047242 0.139490
0.277167 0.047990 0.135992
0.341810 0.048738 0.132528
0.406487 0.049485 0.129100
0.471200 0.050232 0.125706
0.535947 0.050980 0.122347
0.600730 0.051727 0.119023
0.665547 0.052475 0.115734
0.730399 0.053223 0.112480
0.795286 0.053970 0.109261
0.860208 0.054718 0.106077
0.925165 0.055465 0.102928
0.990157 0.056212 0.099814
0.000000 0.108220 0.146724
0.022911 0.108968 0.143154
0.087482 0.109715 0.139620
0.152089 0.110462 0.136120
0.216730 0.111210 0.132655
0.281406 0.111958 0.129225
0.346118 0.112705 0.125830
0.410864 0.113453 0.122470
0.475645 0.114200 0.119145
0.540461 0.114947 0.115855
0.605312 0.115695 0.112599
0.670198 0.116443 0.109379
0.735119 0.117190 0.106194
0.800074 0.117938 0.103043
0.865065 0.118685 0.099927
0.930091 0.119432 0.096847
0.995151 0.120180 0.093801
0.000000 0.172187 0.139749
0.027011 0.172935 0.136248
0.091651 0.173683 0.132782
0.156326 0.174430 0.129351
0.221036 0.175177 0.125955
0.285781 0.175925 0.122593
0.350560 0.176673 0.119267
0.415375 0.177420 0.115975
0.480225 0.178168 0.112719
0.545109 0.178915 0.109497
0.610029 0.179663 0.106310
0.674983 0.180410 0.103158
0.739973 0.181157 0.100041
0.804997 0.181905 0.096960
0.870056 0.182653 0.093912
0.935150 0.183400 0.090900
1.000000 0.184148 0.087923
0.000000 0.236155 0.132909
0.031245 0.236903 0.129476
0.095954 0.237650 0.126079
0.160697 0.238398 0.122716
0.225476 0.239145 0.119388
0.290289 0.239893 0.116096
0.355138 0.240640 0.112838
0.420021 0.241388 0.109615
0.484939 0.242135 0.106427
0.549892 0.242883 0.103274
0.614881 0.243630 0.100156
0.679904 0.244377 0.097072
0.744961 0.245125 0.094024
0.810054 0.245872 0.091011
0.875182 0.246620 0.088032
0.940345 0.247367 0.085088
1.000000 0.248115 0.082180
0.000000 0.300123 0.126203
0.035614 0.300870 0.122839
0.100392 0.301618 0.119510
0.165204 0.302365 0.116216
0.230051 0.303113 0.112957
0.294933 0.303860 0.109733
0.359850 0.304607 0.106543
0.424802 0.305355 0.103389
0.489788 0.306102 0.100270
0.554810 0.306850 0.097185
0.619867 0.307598 0.094135
0.684958 0.308345 0.091121
0.750085 0.309092 0.088141
0.815246 0.309840 0.085196
0.880442 0.310587 0.082286
0.945674 0.311335 0.079411
1.000000 0.312082 0.076571
0.000000 0.364090 0.119632
0.040118 0.364838 0.116337
0.104964 0.365585 0.113076
0.169845 0.366332 0.109851
0.234760 0.367080 0.106660
0.299711 0.367827 0.103505
0.364696 0.368575 0.100384
0.429717 0.369322 0.097298
0.494772 0.370070 0.094247
0.559862 0.370818 0.091231
0.624987 0.371565 0.088250
0.690148 0.372312 0.085304
0.755343 0.373060 0.082393
0.820573 0.373807 0.079516
0.885837 0.374555 0.076675
0.951137 0.375302 0.073868
1.000000 0.376050 0.071097
0.000000 0.428058 0.113196
0.044756 0.428805 0.109969
0.109671 0.429553 0.106777
0.174620 0.430300 0.103620
0.239604 0.431048 0.100498
0.304623 0.431795 0.097411
0.369677 0.432542 0.094359
0.434766 0.433290 0.091341
0.499890 0.434037 0.088359
0.565049 0.434785 0.085412
0.630243 0.435533 0.082499
0.695472 0.436280 0.079622
0.760735 0.437028 0.076779
0.826034 0.437775 0.073971
0.891367 0.438522 0.071198
0.956735 0.439270 0.068460
1.000000 0.440018 0.065757
0.000000 0.492025 0.106894
0.049529 0.492772 0.103736
0.114512 0.493520 0.100612
0.179530 0.494267 0.097524
0.244583 0.495015 0.094470
0.309671 0.495762 0.091452
0.374793 0.496510 0.088468
0.439951 0.497257 0.085519
0.505143 0.498005 0.082606
0.570371 0.498752 0.079727
0.635633 0.499500 0.076883
0.700930 0.500247 0.074074
0.766262 0.500995 0.071300
0.831629 0.501742 0.068561
0.897031 0.502490 0.065856
0.962468 0.503238 0.063187
1.000000 0.503985 0.060553
0.000000 0.555993 0.100726
0.054437 0.556740 0.097637
0.119488 0.557487 0.094582
0.184575 0.558235 0.091562
0.249696 0.558983 0.088577
0.314852 0.559730 0.085627
0.380043 0.560478 0.082712
0.445270 0.561225 0.079832
0.510531 0.561972 0.076987
0.575827 0.562720 0.074177
0.641157 0.563468 0.071401
0.706523 0.564215 0.068661
0.771924 0.564963 0.065955
0.837360 0.565710 0.063285
0.902830 0.566458 0.060649
0.968336 0.567205 0.058048
1.000000 0.567952 0.055482
0.000000 0.619960 0.094694
0.059479 0.620707 0.091673
0.124599 0.621455 0.088686
0.189754 0.622202 0.085735
0.254944 0.622950 0.082819
0.320169 0.623698 0.079937
0.385428 0.624445 0.077091
0.450723 0.625193 0.074279
0.516053 0.625940 0.071503
0.581417 0.626687 0.068761
0.646817 0.627435 0.066054
0.712251 0.628182 0.063382
0.777720 0.628930 0.060745
0.843224 0.629678 0.058143
0.908763 0.630425 0.055576
0.974337 0.631173 0.053044
1.000000 0.631920 0.050546
0.000000 0.683928 0.088796
0.064656 0.684675 0.085843
0.129844 0.685422 0.082926
0.195068 0.686170 0.080043
0.260326 0.686917 0.077195
0.325620 0.687665 0.074382
0.390948 0.688412 0.071604
0.456311 0.689160 0.068861
0.521709 0.689908 0.066153
0.587142 0.690655 0.063480
0.652610 0.691403 0.060842
0.718113 0.692150 0.058238
0.783651 0.692897 0.055670
0.849224 0.693645 0.053136
0.914831 0.694392 0.050638
0.980474 0.695140 0.048174
1.000000 0.695887 0.045745
0.004745 0.747895 0.083032
0.069967 0.748642 0.080148
0.135224 0.749390 0.077299
0.200516 0.750138 0.074485
0.265843 0.750885 0.071706
0.331205 0.751633 0.068961
0.396602 0.752380 0.066252
0.462034 0.753127 0.063578
0.527500 0.753875 0.060938
0.593002 0.754622 0.058333
0.658539 0.755370 0.055764
0.724110 0.756117 0.053229
0.789717 0.756865 0.050729
0.855358 0.757613 0.048264
0.921034 0.758360 0.045834
0.986745 0.759108 0.043439
1.000000 0.759855 0.041079
0.010122 0.811863 0.077403
0.075413 0.812610 0.074588
0.140739 0.813358 0.071807
0.206099 0.814105 0.069062
0.271495 0.814852 0.066351
0.336925 0.815600 0.063675
0.402391 0.816348 0.061034
0.467891 0.817095 0.058429
0.533426 0.817843 0.055858
0.598997 0.818590 0.053322
0.664602 0.819337 0.050820
0.730242 0.820085 0.048354
0.795917 0.820832 0.045923
0.861626 0.821580 0.043526
0.927371 0.822327 0.041165
0.993151 0.823075 0.038838
1.000000 0.823823 0.036547
0.015634 0.875830 0.071909
0.080993 0.876578 0.069162
0.146388 0.877325 0.066450
0.211817 0.878072 0.063773
0.277281 0.878820 0.061131
0.342780 0.879568 0.058524
0.408314 0.880315 0.055952
0.473883 0.881062 0.053414
0.539487 0.881810 0.050912
0.605125 0.882557 0.048444
0.670799 0.883305 0.046012
0.736508 0.884053 0.043614
0.802251 0.884800 0.041251
0.868030 0.885547 0.038923
0.933843 0.886295 0.036631
0.999691 0.887043 0.034373
1.000000 0.887790 0.032150
0.021281 0.939797 0.066549
0.086709 0.940545 0.063871
0.152171 0.941292 0.061228
0.217669 0.942040 0.058619
0.283202 0.942788 0.056046
0.348769 0.943535 0.053507
0.414372 0.944282 0.051003
0.480009 0.945030 0.048534
0.545682 0.945777 0.046101
0.611389 0.946525 0.043702
0.677131 0.947272 0.041338
0.742908 0.948020 0.039008
0.808721 0.948768 0.036714
0.874568 0.949515 0.034455
0.940449 0.950263 0.032231
1.000000 0.951010 0.030041
1.000000 0.951758 0.027887
0.027062 1.000000 0.061324
0.092558 1.000000 0.058714
0.158090 1.000000 0.056140
0.223656 1.000000 0.053600
0.289257 1.000000 0.051095
0.354893 1.000000 0.048625
0.420564 1.000000 0.046189
0.486270 1.000000 0.043789
0.552011 1.000000 0.041424
0.617787 1.000000 0.039094
0.683598 1.000000 0.036798
0.749444 1.000000 0.034538
0.815324 1.000000 0.032312
0.881240 1.000000 0.030121
0.947190 1.000000 0.027965
1.000000 1.000000 0.025845
1.000000 1.000000 0.023759
0.000000 0.000000 0.222160
0.015848 0.000000 0.218467
0.080296 0.000000 0.214808
0.144778 0.000000 0.211185
0.209296 0.000000 0.207596
0.273849 0.000000 0.204042
0.338436 0.000000 0.200524
0.403058 0.000000 0.197040
0.467716 0.000000 0.193591
0.532408 0.000000 0.190177
0.597135 0.000000 0.186798
0.661897 0.000000 0.183453
0.726694 0.000000 0.180144
0.791526 0.000000 0.176870
0.856393 0.000000 0.173630
0.921295 0.000000 0.170426
0.986231 0.000000 0.167256
0.000000 0.044538 0.214942
0.019705 0.045285 0.211317
0.084221 0.046032 0.207727
0.148772 0.046780 0.204172
0.213359 0.047528 0.200652
0.277980 0.048275 0.197167
0.342636 0.049022 0.193717
0.407327 0.049770 0.190302
0.472053 0.050517 0.186921
0.536813 0.051265 0.183576
0.601609 0.052013 0.180265
0.666440 0.052760 0.176990
0.731305 0.053507 0.173749
0.796206 0.054255 0.170543
0.861141 0.055003 0.167372
0.926111 0.055750 0.164236
0.991117 0.056498 0.161135
0.000000 0.108505 0.207859
0.023696 0.109253 0.204303
0.088281 0.110000 0.200781
0.152901 0.110747 0.197295
0.217556 0.111495 0.193843
0.282245 0.112242 0.190427
0.346970 0.112990 0.187045
0.411729 0.113738 0.183698
0.476524 0.114485 0.180386
0.541353 0.115233 0.177110
0.606218 0.115980 0.173868
0.671117 0.116727 0.170660
0.736051 0.117475 0.167488
0.801020 0.118222 0.164351
0.866024 0.118970 0.161249
0.931063 0.119718 0.158181
0.996136 0.120465 0.155149
0.000000 0.172473 0.200910
0.027822 0.173220 0.197422
0.092476 0.173967 0.193970
0.157164 0.174715 0.190552
0.221888 0.175463 0.187169
0.286646 0.176210 0.183821
0.351439 0.176957 0.180508
0.416267 0.177705 0.177229
0.481130 0.178453 0.173986
0.546028 0.179200 0.170778
0.610961 0.179948 0.167604
0.675928 0.180695 0.164466
0.740931 0.181443 0.161362
0.805969 0.182190 0.158294
0.871041 0.182938 0.155260
0.936149 0.183685 0.152261
1.000000 0.184432 0.149297
0.000000 0.236440 0.194096
0.032083 0.237187 0.190677
0.096805 0.237935 0.187293
0.161562 0.238682 0.183943
0.226354 0.239430 0.180629
0.291181 0.240178 0.177349
0.356042 0.240925 0.174105
0.420939 0.241673 0.170895
0.485871 0.242420 0.167721
0.550837 0.243168 0.164581
0.615838 0.243915 0.161476
0.680875 0.244663 0.158406
0.745946 0.245410 0.155371
0.811052 0.246158 0.152371
0.876193 0.246905 0.149406
0.941369 0.247652 0.146475
1.000000 0.248400 0.143580
0.000000 0.300407 0.187417
0.036478 0.301155 0.184066
0.101269 0.301903 0.180750
0.166094 0.302650 0.177469
0.230955 0.303397 0.174224
0.295850 0.304145 0.171013
0.360780 0.304893 0.167837
0.425746 0.305640 0.164696
0.490746 0.306387 0.161589
0.555781 0.307135 0.158518
0.620851 0.307883 0.155482
0.685956 0.308630 0.152481
0.751095 0.309377 0.149514
0.816270 0.310125 0.146583
0.881480 0.310872 0.143686
0.946724 0.311620 0.140824
1.000000 0.312368 0.137997
0.000000 0.364375 0.180872
0.041008 0.365123 0.177590
0.105867 0.365870 0.174342
0.170761 0.366618 0.171130
0.235690 0.367365 0.167953
0.300654 0.368113 0.164811
0.365653 0.368860 0.161703
0.430687 0.369607 0.158631
0.495756 0.370355 0.155593
0.560859 0.371103 0.152590
0.625998 0.371850 0.149623
0.691171 0.372598 0.146690
0.756379 0.373345 0.143792
0.821623 0.374092 0.140929
0.886901 0.374840 0.138101
0.952214 0.375587 0.135308
1.000000 0.376335 0.132549
0.000000 0.428342 0.174461
0.045673 0.429090 0.171248
0.110600 0.429837 0.168069
0.175563 0.430585 0.164926
0.240561 0.431333 0.161817
0.305593 0.432080 0.158743
0.370660 0.432827 0.155704
0.435763 0.433575 0.152700
0.500900 0.434323 0.149731
0.566072 0.435070 0.146797
0.631279 0.435817 0.143898
0.696521 0.436565 0.141034
0.761798 0.437312 0.138204
0.827110 0.438060 0.135410
0.892457 0.438807 0.132650
0.957838 0.439555 0.129926
1.000000 0.440302 0.127236
0.000000 0.492310 0.168186
0.050472 0.493057 0.165041
0.115468 0.493805 0.161931
0.180499 0.494553 0.158855
0.245565 0.495300 0.155815
0.310666 0.496048 0.152810
0.375802 0.496795 0.149840
0.440973 0.497542 0.146904
0.506179 0.498290 0.144004
0.571420 0.499037 0.141138
0.636695 0.499785 0.138308
0.702006 0.500533 0.135512
0.767351 0.501280 0.132751
0.832732 0.502027 0.130025
0.898147 0.502775 0.127334
0.963597 0.503522 0.124678
1.000000 0.504270 0.122057
0.000000 0.556277 0.162044
0.055405 0.557025 0.158968
0.120470 0.557773 0.155927
0.185570 0.558520 0.152920
0.250705 0.559268 0.149948
0.315874 0.560015 0.147012
0.381079 0.560763 0.144110
0.446318 0.561510 0.141243
0.511592 0.562257 0.138411
0.576902 0.563005 0.135614
0.642246 0.563752 0.132852
0.707625 0.564500 0.130125
0.773039 0.565248 0.127433
0.838488 0.565995 0.124775
0.903972 0.566743 0.122153
0.969491 0.567490 0.119566
1.000000 0.568238 0.117013
0.000000 0.620245 0.156038
0.060474 0.620993 0.153030
0.125607 0.621740 0.150057
0.190775 0.622487 0.147119
0.255979 0.623235 0.144216
0.321217 0.623982 0.141348
0.386490 0.624730 0.138515
0.451798 0.625478 0.135717
0.517141 0.626225 0.132953
0.582518 0.626973 0.130225
0.647931 0.627720 0.127531
0.713379 0.628467 0.124873
0.778861 0.629215 0.122249
0.844379 0.629962 0.119660
0.909931 0.630710 0.117106
0.975519 0.631458 0.114587
1.000000 0.632205 0.112104
0.000510 0.684213 0.150166
0.065677 0.684960 0.147227
0.130879 0.685708 0.144322
0.196115 0.686455 0.141453
0.261387 0.687202 0.138618
0.326694 0.687950 0.135819
0.392035 0.688698 0.133054
0.457412 0.689445 0.130324
0.522823 0.690193 0.127630
0.588270 0.690940 0.124970
0.653751 0.691687 0.122345
0.719267 0.692435 0.119755
0.784818 0.693183 0.117200
0.850405 0.693930 0.114680
0.916026 0.694678 0.112194
0.981681 0.695425 0.109744
1.000000 0.696172 0.107329
0.005779 0.748180 0.144429
0.071014 0.748927 0.141558
0.136285 0.749675 0.138722
0.201590 0.750422 0.135921
0.266930 0.751170 0.133155
0.332306 0.751918 0.130424
0.397716 0.752665 0.127728
0.463161 0.753413 0.125067
0.528641 0.754160 0.122441
0.594156 0.754907 0.119849
0.659706 0.755655 0.117293
0.725290 0.756402 0.114772
0.790910 0.757150 0.112285
0.856565 0.757898 0.109833
0.922254 0.758645 0.107417
0.987979 0.759392 0.105035
1.000000 0.760140 0.102688
0.011182 0.812148 0.138826
0.076486 0.812895 0.136024
0.141825 0.813642 0.133256
0.207199 0.814390 0.130524
0.272608 0.815137 0.127827
0.338052 0.815885 0.125164
0.403531 0.816632 0.122537
0.469044 0.817380 0.119944
0.534593 0.818128 0.117387
0.600176 0.818875 0.114864
0.665795 0.819622 0.112376
0.731448 0.820370 0.109923
0.797136 0.821118 0.107505
0.862859 0.821865 0.105122
0.928618 0.822613 0.102774
0.994411 0.823360 0.100461
1.000000 0.824107 0.098182
0.016720 0.876115 0.133358
0.082093 0.876863 0.130624
0.147500 0.877610 0.127925
0.212943 0.878357 0.125262
0.278420 0.879105 0.122633
0.343933 0.879852 0.120039
0.409480 0.880600 0.117480
0.475062 0.881348 0.114956
0.540679 0.882095 0.112467
0.606331 0.882842 0.110013
0.672018 0.883590 0.107593
0.737740 0.884337 0.105209
0.803497 0.885085 0.102860
0.869289 0.885833 0.100545
0.935116 0.886580 0.098266
1.000000 0.887327 0.096021
1.000000 0.888075 0.093811
0.022393 0.940082 0.128024
0.087834 0.940830 0.125359
0.153310 0.941577 0.122729
0.218821 0.942325 0.120134
0.284367 0.943072 0.117574
0.349948 0.943820 0.115048
0.415564 0.944567 0.112558
0.481215 0.945315 0.110102
0.546901 0.946063 0.107682
0.612621 0.946810 0.105296
0.678377 0.947558 0.102945
0.744167 0.948305 0.100630
0.809993 0.949052 0.098349
0.875853 0.949800 0.096103
0.941748 0.950547 0.093892
1.000000 0.951295 0.091716
1.000000 0.952043 0.089575
0.028200 1.000000 0.122825
0.093710 1.000000 0.120229
0.159255 1.000000 0.117667
0.224834 1.000000 0.115140
0.290449 1.000000 0.112649
0.356098 1.000000 0.110192
0.421783 1.000000 0.107770
0.487502 1.000000 0.105383
0.553256 1.000000 0.103031
0.619045 1.000000 0.100714
0.684870 1.000000 0.098432
0.750729 1.000000 0.096185
0.816623 1.000000 0.093973
0.882551 1.000000 0.091795
0.948515 1.000000 0.089653
1.000000 1.000000 0.087545
1.000000 1.000000 0.085473
0.000000 0.000000 0.283248
0.016587 0.000000 0.279568
0.081048 0.000000 0.275923
0.145544 0.000000 0.272312
0.210075 0.000000 0.268737
0.274640 0.000000 0.265197
0.339241 0.000000 0.261691
0.403877 0.000000 0.258221
0.468547 0.000000 0.254785
0.533253 0.000000 0.251384
0.597993 0.000000 0.248018
0.662769 0.000000 0.244688
0.727579 0.000000 0.241392
0.792424 0.000000 0.238131
0.857304 0.000000 0.234904
