assets/luts/cinematic_cool.cube
# cinematic_cool - 冷色电影感
# Generated for video-dedup, size=17
TITLE "cinematic_cool"
LUT_3D_SIZE 9
DOMAIN_MIN 0.0 0.0 0.0
DOMAIN_MAX 1.0 1.0 1.0
0.000000 0.018000 0.050000
0.080750 0.018000 0.050000
0.178500 0.018000 0.050000
0.276250 0.018000 0.050000
0.374000 0.018000 0.050000
0.471750 0.018000 0.050000
0.569500 0.018000 0.050000
0.667250 0.018000 0.050000
0.765000 0.018000 0.050000
0.000000 0.128250 0.050000
0.080750 0.128250 0.050000
0.178500 0.128250 0.050000
0.276250 0.128250 0.050000
0.374000 0.128250 0.050000
0.471750 0.128250 0.050000
0.569500 0.128250 0.050000
0.785000 0.142500 0.050000
0.900000 0.142500 0.050000
0.000000 0.238500 0.050000
0.080750 0.238500 0.050000
0.178500 0.238500 0.050000
0.276250 0.238500 0.050000
0.374000 0.238500 0.050000
0.555000 0.265000 0.050000
0.670000 0.265000 0.050000
0.785000 0.265000 0.050000
0.900000 0.265000 0.050000
0.000000 0.348750 0.050000
0.080750 0.348750 0.050000
0.178500 0.348750 0.050000
0.325000 0.387500 0.050000
0.440000 0.387500 0.050000
0.555000 0.387500 0.050000
0.670000 0.387500 0.050000
0.785000 0.387500 0.050000
0.900000 0.387500 0.050000
0.000000 0.459000 0.050000
0.095000 0.510000 0.050000
0.210000 0.510000 0.050000
0.325000 0.510000 0.050000
0.440000 0.510000 0.050000
0.555000 0.510000 0.050000
0.670000 0.510000 0.050000
0.785000 0.510000 0.050000
0.900000 0.510000 0.050000
0.000000 0.632500 0.050000
0.095000 0.632500 0.050000
0.210000 0.632500 0.050000
0.325000 0.632500 0.050000
0.440000 0.632500 0.050000
0.555000 0.632500 0.050000
0.670000 0.632500 0.050000
0.785000 0.632500 0.050000
0.900000 0.632500 0.050000
0.000000 0.755000 0.050000
0.095000 0.755000 0.050000
0.210000 0.755000 0.050000
0.325000 0.755000 0.050000
0.440000 0.755000 0.050000
0.555000 0.755000 0.050000
0.670000 0.755000 0.050000
0.785000 0.755000 0.050000
0.900000 0.755000 0.050000
0.000000 0.877500 0.050000
0.095000 0.877500 0.050000
0.210000 0.877500 0.050000
0.325000 0.877500 0.050000
0.440000 0.877500 0.050000
0.555000 0.877500 0.050000
0.670000 0.877500 0.050000
0.785000 0.877500 0.050000
0.900000 0.877500 0.050000
0.000000 1.000000 0.050000
0.095000 1.000000 0.050000
0.210000 1.000000 0.050000
0.325000 1.000000 0.050000
0.440000 1.000000 0.050000
0.555000 1.000000 0.050000
0.670000 1.000000 0.050000
0.785000 1.000000 0.050000
0.900000 1.000000 0.050000
0.000000 0.018000 0.181250
0.080750 0.018000 0.181250
0.178500 0.018000 0.181250
0.276250 0.018000 0.181250
0.374000 0.018000 0.181250
0.471750 0.018000 0.181250
0.569500 0.018000 0.181250
0.667250 0.018000 0.181250
0.900000 0.020000 0.181250
0.000000 0.128250 0.181250
0.080750 0.128250 0.181250
0.178500 0.128250 0.181250
0.276250 0.128250 0.181250
0.374000 0.128250 0.181250
0.471750 0.128250 0.181250
0.670000 0.142500 0.181250
0.785000 0.142500 0.181250
0.900000 0.142500 0.181250
0.000000 0.238500 0.181250
0.080750 0.238500 0.181250
0.178500 0.238500 0.181250
0.276250 0.238500 0.181250
0.440000 0.265000 0.181250
0.555000 0.265000 0.181250
0.670000 0.265000 0.181250
0.785000 0.265000 0.181250
0.900000 0.265000 0.181250
0.000000 0.348750 0.181250
0.080750 0.348750 0.181250
0.210000 0.387500 0.181250
0.325000 0.387500 0.181250
0.440000 0.387500 0.181250
0.555000 0.387500 0.181250
0.670000 0.387500 0.181250
0.785000 0.387500 0.181250
0.900000 0.387500 0.181250
0.000000 0.510000 0.181250
0.095000 0.510000 0.181250
0.210000 0.510000 0.181250
0.325000 0.510000 0.181250
0.440000 0.510000 0.181250
0.555000 0.510000 0.181250
0.670000 0.510000 0.181250
0.785000 0.510000 0.181250
0.900000 0.510000 0.181250
0.000000 0.632500 0.181250
0.095000 0.632500 0.181250
0.210000 0.632500 0.181250
0.325000 0.632500 0.181250
0.440000 0.632500 0.181250
0.555000 0.632500 0.181250
0.670000 0.632500 0.181250
0.785000 0.632500 0.181250
0.900000 0.632500 0.181250
0.000000 0.755000 0.181250
0.095000 0.755000 0.181250
0.210000 0.755000 0.181250
0.325000 0.755000 0.181250
0.440000 0.755000 0.181250
0.555000 0.755000 0.181250
0.670000 0.755000 0.181250
0.785000 0.755000 0.181250
0.900000 0.755000 0.181250
0.000000 0.877500 0.181250
0.095000 0.877500 0.181250
0.210000 0.877500 0.181250
0.325000 0.877500 0.181250
0.440000 0.877500 0.181250
0.555000 0.877500 0.181250
0.670000 0.877500 0.181250
0.785000 0.877500 0.181250
0.900000 0.877500 0.181250
0.000000 1.000000 0.181250
0.095000 1.000000 0.181250
0.210000 1.000000 0.181250
0.325000 1.000000 0.181250
0.440000 1.000000 0.181250
0.555000 1.000000 0.181250
0.670000 1.000000 0.181250
0.785000 1.000000 0.181250
0.900000 1.000000 0.181250
0.000000 0.018000 0.312500
0.080750 0.018000 0.312500
0.178500 0.018000 0.312500
0.276250 0.018000 0.312500
0.374000 0.018000 0.312500
0.471750 0.018000 0.312500
0.569500 0.018000 0.312500
0.667250 0.018000 0.312500
0.900000 0.020000 0.312500
0.000000 0.128250 0.312500
0.080750 0.128250 0.312500
0.178500 0.128250 0.312500
0.276250 0.128250 0.312500
0.374000 0.128250 0.312500
0.471750 0.128250 0.312500
0.670000 0.142500 0.312500
0.785000 0.142500 0.312500
0.900000 0.142500 0.312500
0.000000 0.238500 0.312500
0.080750 0.238500 0.312500
0.178500 0.238500 0.312500
0.276250 0.238500 0.312500
0.440000 0.265000 0.312500
0.555000 0.265000 0.312500
0.670000 0.265000 0.312500
0.785000 0.265000 0.312500
0.900000 0.265000 0.312500
0.000000 0.348750 0.312500
0.080750 0.348750 0.312500
0.210000 0.387500 0.312500
0.325000 0.387500 0.312500
0.440000 0.387500 0.312500
0.555000 0.387500 0.312500
0.670000 0.387500 0.312500
0.785000 0.387500 0.312500
0.900000 0.387500 0.312500
0.000000 0.510000 0.312500
0.095000 0.510000 0.312500
0.210000 0.510000 0.312500
0.325000 0.510000 0.312500
0.440000 0.510000 0.312500
0.555000 0.510000 0.312500
0.670000 0.510000 0.312500
0.785000 0.510000 0.312500
0.900000 0.510000 0.312500
0.000000 0.632500 0.312500
0.095000 0.632500 0.312500
0.210000 0.632500 0.312500
0.325000 0.632500 0.312500
0.440000 0.632500 0.312500
0.555000 0.632500 0.312500
0.670000 0.632500 0.312500
0.785000 0.632500 0.312500
0.900000 0.632500 0.312500
0.000000 0.755000 0.312500
0.095000 0.755000 0.312500
0.210000 0.755000 0.312500
0.325000 0.755000 0.312500
0.440000 0.755000 0.312500
0.555000 0.755000 0.312500
0.670000 0.755000 0.312500
0.785000 0.755000 0.312500
0.900000 0.755000 0.312500
0.000000 0.877500 0.312500
0.095000 0.877500 0.312500
0.210000 0.877500 0.312500
0.325000 0.877500 0.312500
0.440000 0.877500 0.312500
0.555000 0.877500 0.312500
0.670000 0.877500 0.312500
0.785000 0.877500 0.312500
0.900000 0.877500 0.312500
0.000000 1.000000 0.312500
0.095000 1.000000 0.312500
0.210000 1.000000 0.312500
0.325000 1.000000 0.312500
0.440000 1.000000 0.312500
0.555000 1.000000 0.312500
0.670000 1.000000 0.312500
0.785000 1.000000 0.312500
0.900000 1.000000 0.312500
0.000000 0.018000 0.443750
0.080750 0.018000 0.443750
0.178500 0.018000 0.443750
0.276250 0.018000 0.443750
0.374000 0.018000 0.443750
0.471750 0.018000 0.443750
0.569500 0.018000 0.443750
0.785000 0.020000 0.443750
0.900000 0.020000 0.443750
0.000000 0.128250 0.443750
0.080750 0.128250 0.443750
0.178500 0.128250 0.443750
0.276250 0.128250 0.443750
0.374000 0.128250 0.443750
0.555000 0.142500 0.443750
0.670000 0.142500 0.443750
0.785000 0.142500 0.443750
0.900000 0.142500 0.443750
0.000000 0.238500 0.443750
0.080750 0.238500 0.443750
0.178500 0.238500 0.443750
0.325000 0.265000 0.443750
0.440000 0.265000 0.443750
0.555000 0.265000 0.443750
0.670000 0.265000 0.443750
0.785000 0.265000 0.443750
0.900000 0.265000 0.443750
0.000000 0.348750 0.443750
0.095000 0.387500 0.443750
0.210000 0.387500 0.443750
0.325000 0.387500 0.443750
0.440000 0.387500 0.443750
0.555000 0.387500 0.443750
0.670000 0.387500 0.443750
0.785000 0.387500 0.443750
0.900000 0.387500 0.443750
0.000000 0.510000 0.443750
0.095000 0.510000 0.443750
0.210000 0.510000 0.443750
0.325000 0.510000 0.443750
0.440000 0.510000 0.443750
0.555000 0.510000 0.443750
0.670000 0.510000 0.443750
0.785000 0.510000 0.443750
0.900000 0.510000 0.443750
0.000000 0.632500 0.443750
0.095000 0.632500 0.443750
0.210000 0.632500 0.443750
0.325000 0.632500 0.443750
0.440000 0.632500 0.443750
0.555000 0.632500 0.443750
0.670000 0.632500 0.443750
0.785000 0.632500 0.443750
0.900000 0.632500 0.443750
0.000000 0.755000 0.443750
0.095000 0.755000 0.443750
0.210000 0.755000 0.443750
0.325000 0.755000 0.443750
0.440000 0.755000 0.443750
0.555000 0.755000 0.443750
0.670000 0.755000 0.443750
0.785000 0.755000 0.443750
0.900000 0.755000 0.443750
0.000000 0.877500 0.443750
0.095000 0.877500 0.443750
0.210000 0.877500 0.443750
0.325000 0.877500 0.443750
0.440000 0.877500 0.443750
0.555000 0.877500 0.443750
0.670000 0.877500 0.443750
0.785000 0.877500 0.443750
0.900000 0.877500 0.443750
0.000000 1.000000 0.443750
0.095000 1.000000 0.443750
0.210000 1.000000 0.443750
0.325000 1.000000 0.443750
0.440000 1.000000 0.443750
0.555000 1.000000 0.443750
0.670000 1.000000 0.443750
0.785000 1.000000 0.443750
0.900000 1.000000 0.443750
0.000000 0.018000 0.575000
0.080750 0.018000 0.575000
0.178500 0.018000 0.575000
0.276250 0.018000 0.575000
0.374000 0.018000 0.575000
0.471750 0.018000 0.575000
0.569500 0.018000 0.575000
0.785000 0.020000 0.575000
0.900000 0.020000 0.575000
0.000000 0.128250 0.575000
0.080750 0.128250 0.575000
0.178500 0.128250 0.575000
0.276250 0.128250 0.575000
0.374000 0.128250 0.575000
0.555000 0.142500 0.575000
0.670000 0.142500 0.575000
0.785000 0.142500 0.575000
0.900000 0.142500 0.575000
0.000000 0.238500 0.575000
0.080750 0.238500 0.575000
0.178500 0.238500 0.575000
0.325000 0.265000 0.575000
0.440000 0.265000 0.575000
0.555000 0.265000 0.575000
0.670000 0.265000 0.575000
0.785000 0.265000 0.575000
0.900000 0.265000 0.575000
0.000000 0.348750 0.575000
0.095000 0.387500 0.575000
0.210000 0.387500 0.575000
0.325000 0.387500 0.575000
0.440000 0.387500 0.575000
0.555000 0.387500 0.575000
0.670000 0.387500 0.575000
0.785000 0.387500 0.575000
0.900000 0.387500 0.575000
0.000000 0.510000 0.575000
0.095000 0.510000 0.575000
0.210000 0.510000 0.575000
0.325000 0.510000 0.575000
0.440000 0.510000 0.575000
0.555000 0.510000 0.575000
0.670000 0.510000 0.575000
0.785000 0.510000 0.575000
0.900000 0.510000 0.575000
0.000000 0.632500 0.575000
0.095000 0.632500 0.575000
0.210000 0.632500 0.575000
0.325000 0.632500 0.575000
0.440000 0.632500 0.575000
0.555000 0.632500 0.575000
0.670000 0.632500 0.575000
0.785000 0.632500 0.575000
0.900000 0.632500 0.575000
0.000000 0.755000 0.575000
0.095000 0.755000 0.575000
0.210000 0.755000 0.575000
0.325000 0.755000 0.575000
0.440000 0.755000 0.575000
0.555000 0.755000 0.575000
0.670000 0.755000 0.575000
0.785000 0.755000 0.575000
0.900000 0.755000 0.575000
0.000000 0.877500 0.575000
0.095000 0.877500 0.575000
0.210000 0.877500 0.575000
0.325000 0.877500 0.575000
0.440000 0.877500 0.575000
0.555000 0.877500 0.575000
0.670000 0.877500 0.575000
0.785000 0.877500 0.575000
0.900000 0.877500 0.575000
0.000000 1.000000 0.575000
0.095000 1.000000 0.575000
0.210000 1.000000 0.575000
0.325000 1.000000 0.575000
0.440000 1.000000 0.575000
0.555000 1.000000 0.575000
0.670000 1.000000 0.575000
0.785000 1.000000 0.575000
0.900000 1.000000 0.575000
0.000000 0.018000 0.706250
0.080750 0.018000 0.706250
0.178500 0.018000 0.706250
0.276250 0.018000 0.706250
0.374000 0.018000 0.706250
0.471750 0.018000 0.706250
0.569500 0.018000 0.706250
0.785000 0.020000 0.706250
0.900000 0.020000 0.706250
0.000000 0.128250 0.706250
0.080750 0.128250 0.706250
0.178500 0.128250 0.706250
0.276250 0.128250 0.706250
0.374000 0.128250 0.706250
0.555000 0.142500 0.706250
0.670000 0.142500 0.706250
0.785000 0.142500 0.706250
0.900000 0.142500 0.706250
0.000000 0.238500 0.706250
0.080750 0.238500 0.706250
0.178500 0.238500 0.706250
0.325000 0.265000 0.706250
0.440000 0.265000 0.706250
0.555000 0.265000 0.706250
0.670000 0.265000 0.706250
0.785000 0.265000 0.706250
0.900000 0.265000 0.706250
0.000000 0.348750 0.706250
0.095000 0.387500 0.706250
0.210000 0.387500 0.706250
0.325000 0.387500 0.706250
0.440000 0.387500 0.706250
0.555000 0.387500 0.706250
0.670000 0.387500 0.706250
0.785000 0.387500 0.706250
0.900000 0.387500 0.706250
0.000000 0.510000 0.706250
0.095000 0.510000 0.706250
0.210000 0.510000 0.706250
0.325000 0.510000 0.706250
0.440000 0.510000 0.706250
0.555000 0.510000 0.706250
0.670000 0.510000 0.706250
0.785000 0.510000 0.706250
0.900000 0.510000 0.706250
0.000000 0.632500 0.706250
0.095000 0.632500 0.706250
0.210000 0.632500 0.706250
0.325000 0.632500 0.706250
0.440000 0.632500 0.706250
0.555000 0.632500 0.706250
0.670000 0.632500 0.706250
0.785000 0.632500 0.706250
0.900000 0.632500 0.706250
0.000000 0.755000 0.706250
0.095000 0.755000 0.706250
0.210000 0.755000 0.706250
0.325000 0.755000 0.706250
0.440000 0.755000 0.706250
0.555000 0.755000 0.706250
0.670000 0.755000 0.706250
0.785000 0.755000 0.706250
0.900000 0.755000 0.706250
0.000000 0.877500 0.706250
0.095000 0.877500 0.706250
0.210000 0.877500 0.706250
0.325000 0.877500 0.706250
0.440000 0.877500 0.706250
0.555000 0.877500 0.706250
0.670000 0.877500 0.706250
0.785000 0.877500 0.706250
0.900000 0.877500 0.706250
0.000000 1.000000 0.706250
0.095000 1.000000 0.706250
0.210000 1.000000 0.706250
0.325000 1.000000 0.706250
0.440000 1.000000 0.706250
0.555000 1.000000 0.706250
0.670000 1.000000 0.706250
0.785000 1.000000 0.706250
0.900000 1.000000 0.706250
0.000000 0.018000 0.837500
0.080750 0.018000 0.837500
0.178500 0.018000 0.837500
0.276250 0.018000 0.837500
0.374000 0.018000 0.837500
0.471750 0.018000 0.837500
0.670000 0.020000 0.837500
0.785000 0.020000 0.837500
0.900000 0.020000 0.837500
0.000000 0.128250 0.837500
0.080750 0.128250 0.837500
0.178500 0.128250 0.837500
0.276250 0.128250 0.837500
0.440000 0.142500 0.837500
0.555000 0.142500 0.837500
0.670000 0.142500 0.837500
0.785000 0.142500 0.837500
0.900000 0.142500 0.837500
0.000000 0.238500 0.837500
0.080750 0.238500 0.837500
0.210000 0.265000 0.837500
0.325000 0.265000 0.837500
0.440000 0.265000 0.837500
0.555000 0.265000 0.837500
0.670000 0.265000 0.837500
0.785000 0.265000 0.837500
0.900000 0.265000 0.837500
0.000000 0.387500 0.837500
0.095000 0.387500 0.837500
0.210000 0.387500 0.837500
0.325000 0.387500 0.837500
0.440000 0.387500 0.837500
0.555000 0.387500 0.837500
0.670000 0.387500 0.837500
0.785000 0.387500 0.837500
0.900000 0.387500 0.837500
0.000000 0.510000 0.837500
0.095000 0.510000 0.837500
0.210000 0.510000 0.837500
0.325000 0.510000 0.837500
0.440000 0.510000 0.837500
0.555000 0.510000 0.837500
0.670000 0.510000 0.837500
0.785000 0.510000 0.837500
0.900000 0.510000 0.837500
0.000000 0.632500 0.837500
0.095000 0.632500 0.837500
0.210000 0.632500 0.837500
0.325000 0.632500 0.837500
0.440000 0.632500 0.837500
0.555000 0.632500 0.837500
0.670000 0.632500 0.837500
0.785000 0.632500 0.837500
0.900000 0.632500 0.837500
0.000000 0.755000 0.837500
0.095000 0.755000 0.837500
0.210000 0.755000 0.837500
0.325000 0.755000 0.837500
0.440000 0.755000 0.837500
0.555000 0.755000 0.837500
0.670000 0.755000 0.837500
0.785000 0.755000 0.837500
0.900000 0.755000 0.837500
0.000000 0.877500 0.837500
0.095000 0.877500 0.837500
0.210000 0.877500 0.837500
0.325000 0.877500 0.837500
0.440000 0.877500 0.837500
0.555000 0.877500 0.837500
0.670000 0.877500 0.837500
0.785000 0.877500 0.837500
0.900000 0.877500 0.837500
0.000000 1.000000 0.837500
0.095000 1.000000 0.837500
0.210000 1.000000 0.837500
0.325000 1.000000 0.837500
0.440000 1.000000 0.837500
0.555000 1.000000 0.837500
0.670000 1.000000 0.837500
0.785000 1.000000 0.837500
0.900000 1.000000 0.837500
0.000000 0.018000 0.968750
0.080750 0.018000 0.968750
0.178500 0.018000 0.968750
0.276250 0.018000 0.968750
0.374000 0.018000 0.968750
0.471750 0.018000 0.968750
0.670000 0.020000 0.968750
0.785000 0.020000 0.968750
0.900000 0.020000 0.968750
0.000000 0.128250 0.968750
0.080750 0.128250 0.968750
0.178500 0.128250 0.968750
0.276250 0.128250 0.968750
0.440000 0.142500 0.968750
0.555000 0.142500 0.968750
0.670000 0.142500 0.968750
0.785000 0.142500 0.968750
0.900000 0.142500 0.968750
0.000000 0.238500 0.968750
0.080750 0.238500 0.968750
0.210000 0.265000 0.968750
0.325000 0.265000 0.968750
0.440000 0.265000 0.968750
0.555000 0.265000 0.968750
0.670000 0.265000 0.968750
0.785000 0.265000 0.968750
0.900000 0.265000 0.968750
0.000000 0.387500 0.968750
0.095000 0.387500 0.968750
0.210000 0.387500 0.968750
0.325000 0.387500 0.968750
0.440000 0.387500 0.968750
0.555000 0.387500 0.968750
0.670000 0.387500 0.968750
0.785000 0.387500 0.968750
0.900000 0.387500 0.968750
0.000000 0.510000 0.968750
0.095000 0.510000 0.968750
0.210000 0.510000 0.968750
0.325000 0.510000 0.968750
0.440000 0.510000 0.968750
0.555000 0.510000 0.968750
0.670000 0.510000 0.968750
0.785000 0.510000 0.968750
0.900000 0.510000 0.968750
0.000000 0.632500 0.968750
0.095000 0.632500 0.968750
0.210000 0.632500 0.968750
0.325000 0.632500 0.968750
0.440000 0.632500 0.968750
0.555000 0.632500 0.968750
0.670000 0.632500 0.968750
0.785000 0.632500 0.968750
0.900000 0.632500 0.968750
0.000000 0.755000 0.968750
0.095000 0.755000 0.968750
0.210000 0.755000 0.968750
0.325000 0.755000 0.968750
0.440000 0.755000 0.968750
0.555000 0.755000 0.968750
0.670000 0.755000 0.968750
0.785000 0.755000 0.968750
0.900000 0.755000 0.968750
0.000000 0.877500 0.968750
0.095000 0.877500 0.968750
0.210000 0.877500 0.968750
0.325000 0.877500 0.968750
0.440000 0.877500 0.968750
0.555000 0.877500 0.968750
0.670000 0.877500 0.968750
0.785000 0.877500 0.968750
0.900000 0.877500 0.968750
0.000000 1.000000 0.968750
0.095000 1.000000 0.968750
0.210000 1.000000 0.968750
0.325000 1.000000 0.968750
0.440000 1.000000 0.968750
0.555000 1.000000 0.968750
0.670000 1.000000 0.968750
0.785000 1.000000 0.968750
0.900000 1.000000 0.968750
0.000000 0.018000 1.000000
0.080750 0.018000 1.000000
0.178500 0.018000 1.000000
0.276250 0.018000 1.000000
0.374000 0.018000 1.000000
0.555000 0.020000 1.000000
0.670000 0.020000 1.000000
0.785000 0.020000 1.000000
0.900000 0.020000 1.000000
0.000000 0.128250 1.000000
0.080750 0.128250 1.000000
0.178500 0.128250 1.000000
0.276250 0.128250 1.000000
0.440000 0.142500 1.000000
0.555000 0.142500 1.000000
0.670000 0.142500 1.000000
0.785000 0.142500 1.000000
0.900000 0.142500 1.000000
0.000000 0.238500 1.000000
0.080750 0.238500 1.000000
0.210000 0.265000 1.000000
0.325000 0.265000 1.000000
0.440000 0.265000 1.000000
0.555000 0.265000 1.000000
0.670000 0.265000 1.000000
0.785000 0.265000 1.000000
0.900000 0.265000 1.000000
0.000000 0.387500 1.000000
0.095000 0.387500 1.000000
0.210000 0.387500 1.000000
0.325000 0.387500 1.000000
0.440000 0.387500 1.000000
0.555000 0.387500 1.000000
0.670000 0.387500 1.000000
0.785000 0.387500 1.000000
0.900000 0.387500 1.000000
0.000000 0.510000 1.000000
0.095000 0.510000 1.000000
0.210000 0.510000 1.000000
0.325000 0.510000 1.000000
0.440000 0.510000 1.000000
0.555000 0.510000 1.000000
0.670000 0.510000 1.000000
0.785000 0.510000 1.000000
0.900000 0.510000 1.000000
0.000000 0.632500 1.000000
0.095000 0.632500 1.000000
0.210000 0.632500 1.000000
0.325000 0.632500 1.000000
0.440000 0.632500 1.000000
0.555000 0.632500 1.000000
0.670000 0.632500 1.000000
0.785000 0.632500 1.000000
0.900000 0.632500 1.000000
0.000000 0.755000 1.000000
0.095000 0.755000 1.000000
0.210000 0.755000 1.000000
0.325000 0.755000 1.000000
0.440000 0.755000 1.000000
0.555000 0.755000 1.000000
0.670000 0.755000 1.000000
0.785000 0.755000 1.000000
0.900000 0.755000 1.000000
0.000000 0.877500 1.000000
0.095000 0.877500 1.000000
0.210000 0.877500 1.000000
0.325000 0.877500 1.000000
0.440000 0.877500 1.000000
0.555000 0.877500 1.000000
0.670000 0.877500 1.000000
0.785000 0.877500 1.000000
0.900000 0.877500 1.000000
0.000000 1.000000 1.000000
0.095000 1.000000 1.000000
0.210000 1.000000 1.000000
0.325000 1.000000 1.000000
0.440000 1.000000 1.000000
0.555000 1.000000 1.000000
0.670000 1.000000 1.000000
0.785000 1.000000 1.000000
0.900000 1.000000 1.000000
