assets/luts/cinematic_warm.cube
# cinematic_warm - 好莱坞暖色（Teal & Orange）
# Generated for video-dedup, size=17
TITLE "cinematic_warm"
LUT_3D_SIZE 9
DOMAIN_MIN 0.0 0.0 0.0
DOMAIN_MAX 1.0 1.0 1.0
0.000000 0.000000 0.100000
0.078807 0.000000 0.092595
0.207754 0.000000 0.085329
0.336841 0.000000 0.078204
0.466068 0.000000 0.071218
0.595434 0.000000 0.064371
0.724939 0.000000 0.057664
0.854585 0.000000 0.051097
0.984370 0.000000 0.044670
0.000000 0.107935 0.085594
0.086688 0.109430 0.078463
0.215910 0.110925 0.071472
0.345271 0.112420 0.064621
0.474771 0.113915 0.057909
0.604412 0.115410 0.051337
0.734192 0.116905 0.044904
0.864111 0.118400 0.038611
0.994171 0.119895 0.032458
0.000000 0.235870 0.071727
0.095108 0.237365 0.064870
0.224603 0.238860 0.058153
0.354238 0.240355 0.051576
0.484013 0.241850 0.045138
0.613928 0.243345 0.038840
0.743982 0.244840 0.032682
0.874176 0.246335 0.026664
1.000000 0.247830 0.020785
0.000000 0.363805 0.058398
0.104065 0.365300 0.051815
0.233835 0.366795 0.045373
0.363745 0.368290 0.039070
0.493794 0.369785 0.032906
0.623982 0.371280 0.026882
0.754311 0.372775 0.020998
0.884779 0.374270 0.015254
1.000000 0.375765 0.009650
0.000000 0.491740 0.045607
0.113561 0.493235 0.039299
0.243605 0.494730 0.033130
0.373789 0.496225 0.027102
0.504112 0.497720 0.021212
0.634576 0.499215 0.015463
0.765178 0.500710 0.009853
0.895921 0.502205 0.004383
1.000000 0.503700 0.000000
0.000000 0.619675 0.033355
0.123596 0.621170 0.027321
0.253914 0.622665 0.021427
0.384372 0.624160 0.015672
0.514970 0.625655 0.010057
0.645707 0.627150 0.004582
0.776584 0.628645 0.000000
0.907601 0.630140 0.000000
1.000000 0.631635 0.000000
0.003716 0.747610 0.021641
0.134169 0.749105 0.015881
0.264761 0.750600 0.010261
0.395493 0.752095 0.004781
0.526365 0.753590 0.000000
0.657377 0.755085 0.000000
0.788528 0.756580 0.000000
0.919819 0.758075 0.000000
1.000000 0.759570 0.000000
0.014553 0.875545 0.010466
0.145280 0.877040 0.004980
0.276147 0.878535 0.000000
0.407153 0.880030 0.000000
0.538299 0.881525 0.000000
0.669585 0.883020 0.000000
0.801010 0.884515 0.000000
0.932576 0.886010 0.000000
1.000000 0.887505 0.000000
0.025928 1.000000 0.000000
0.156930 1.000000 0.000000
0.288071 1.000000 0.000000
0.419351 1.000000 0.000000
0.550772 1.000000 0.000000
0.682332 1.000000 0.000000
0.814031 1.000000 0.000000
0.945871 1.000000 0.000000
1.000000 1.000000 0.000000
0.000000 0.000000 0.222160
0.080296 0.000000 0.214808
0.209296 0.000000 0.207596
0.338436 0.000000 0.200524
0.467716 0.000000 0.193591
0.597135 0.000000 0.186798
0.726694 0.000000 0.180144
0.856393 0.000000 0.173630
0.986231 0.000000 0.167256
0.000000 0.108505 0.207859
0.088281 0.110000 0.200781
0.217556 0.111495 0.193843
0.346970 0.112990 0.187045
0.476524 0.114485 0.180386
0.606218 0.115980 0.173868
0.736051 0.117475 0.167488
0.866024 0.118970 0.161249
0.996136 0.120465 0.155149
0.000000 0.236440 0.194096
0.096805 0.237935 0.187293
0.226354 0.239430 0.180629
0.356042 0.240925 0.174105
0.485871 0.242420 0.167721
0.615838 0.243915 0.161476
0.745946 0.245410 0.155371
0.876193 0.246905 0.149406
1.000000 0.248400 0.143580
0.000000 0.364375 0.180872
0.105867 0.365870 0.174342
0.235690 0.367365 0.167953
0.365653 0.368860 0.161703
0.495756 0.370355 0.155593
0.625998 0.371850 0.149623
0.756379 0.373345 0.143792
0.886901 0.374840 0.138101
1.000000 0.376335 0.132549
0.000000 0.492310 0.168186
0.115468 0.493805 0.161931
0.245565 0.495300 0.155815
0.375802 0.496795 0.149840
0.506179 0.498290 0.144004
0.636695 0.499785 0.138308
0.767351 0.501280 0.132751
0.898147 0.502775 0.127334
1.000000 0.504270 0.122057
0.000000 0.620245 0.156038
0.125607 0.621740 0.150057
0.255979 0.623235 0.144216
0.386490 0.624730 0.138515
0.517141 0.626225 0.132953
0.647931 0.627720 0.127531
0.778861 0.629215 0.122249
0.909931 0.630710 0.117106
1.000000 0.632205 0.112104
0.005779 0.748180 0.144429
0.136285 0.749675 0.138722
0.266930 0.751170 0.133155
0.397716 0.752665 0.127728
0.528641 0.754160 0.122441
0.659706 0.755655 0.117293
0.790910 0.757150 0.112285
0.922254 0.758645 0.107417
1.000000 0.760140 0.102688
0.016720 0.876115 0.133358
0.147500 0.877610 0.127925
0.278420 0.879105 0.122633
0.409480 0.880600 0.117480
0.540679 0.882095 0.112467
0.672018 0.883590 0.107593
0.803497 0.885085 0.102860
0.935116 0.886580 0.098266
1.000000 0.888075 0.093811
0.028200 1.000000 0.122825
0.159255 1.000000 0.117667
0.290449 1.000000 0.112649
0.421783 1.000000 0.107770
0.553256 1.000000 0.103031
0.684870 1.000000 0.098432
0.816623 1.000000 0.093973
0.948515 1.000000 0.089653
1.000000 1.000000 0.085473
0.000000 0.000000 0.344341
0.081804 0.000000 0.337042
0.210858 0.000000 0.329883
0.340051 0.000000 0.322864
0.469384 0.000000 0.315984
0.598857 0.000000 0.309244
0.728469 0.000000 0.302644
0.858221 0.000000 0.296184
0.988113 0.000000 0.289863
0.000000 0.109075 0.330144
0.089895 0.110570 0.323120
0.219222 0.112065 0.316235
0.348690 0.113560 0.309490
0.478297 0.115055 0.302884
0.608044 0.116550 0.296419
0.737930 0.118045 0.290093
0.867957 0.119540 0.283907
0.998123 0.121035 0.277860
0.000000 0.237010 0.316486
0.098523 0.238505 0.309735
0.228125 0.240000 0.303125
0.357867 0.241495 0.296654
0.487748 0.242990 0.290323
0.617769 0.244485 0.284132
0.747930 0.245980 0.278080
0.878230 0.247475 0.272168
1.000000 0.248970 0.266396
0.000000 0.364945 0.303366
0.107690 0.366440 0.296890
0.237566 0.367935 0.290554
0.367582 0.369430 0.284357
0.497738 0.370925 0.278300
0.628033 0.372420 0.272383
0.758468 0.373915 0.266606
0.889043 0.375410 0.260968
1.000000 0.376905 0.255470
0.000000 0.492880 0.290784
0.117395 0.494375 0.284583
0.247546 0.495870 0.278521
0.377836 0.497365 0.272598
0.508266 0.498860 0.266816
0.638835 0.500355 0.261173
0.769544 0.501850 0.255669
0.900393 0.503345 0.250306
1.000000 0.504840 0.245082
0.000000 0.620815 0.278741
0.127639 0.622310 0.272814
0.258063 0.623805 0.267026
0.388628 0.625300 0.261378
0.519332 0.626795 0.255869
0.650176 0.628290 0.250501
0.781159 0.629785 0.245272
0.912282 0.631280 0.240182
1.000000 0.632775 0.235233
0.007861 0.748750 0.267236
0.138421 0.750245 0.261583
0.269120 0.751740 0.256070
0.399958 0.753235 0.250696
0.530937 0.754730 0.245462
0.662055 0.756225 0.240367
0.793312 0.757720 0.235412
0.924710 0.759215 0.230597
1.000000 0.760710 0.225922
0.018907 0.876685 0.256270
0.149741 0.878180 0.250891
0.280714 0.879675 0.245652
0.411827 0.881170 0.240552
0.543080 0.882665 0.235592
0.674472 0.884160 0.230772
0.806004 0.885655 0.226092
0.937676 0.887150 0.221551
1.000000 0.888645 0.217150
0.030492 1.000000 0.245842
0.161600 1.000000 0.240737
0.292847 1.000000 0.235772
0.424234 1.000000 0.230947
0.555761 1.000000 0.226261
0.687428 1.000000 0.221715
0.819234 1.000000 0.217309
0.951180 1.000000 0.213042
1.000000 1.000000 0.208916
0.000000 0.000000 0.466541
0.083334 0.000000 0.459296
0.212440 0.000000 0.452190
0.341687 0.000000 0.445224
0.471073 0.000000 0.438398
0.600599 0.000000 0.431711
0.730264 0.000000 0.425164
0.860070 0.000000 0.418757
0.990015 0.000000 0.412490
0.000000 0.109645 0.452449
0.091528 0.111140 0.445478
0.220909 0.112635 0.438647
0.350430 0.114130 0.431955
0.480090 0.115625 0.425403
0.609890 0.117120 0.418990
0.739830 0.118615 0.412718
0.869910 0.120110 0.406585
1.000000 0.121605 0.400591
0.000000 0.237580 0.438896
0.100261 0.239075 0.432199
0.229916 0.240570 0.425641
0.359711 0.242065 0.419224
0.489646 0.243560 0.412946
0.619720 0.245055 0.406808
0.749934 0.246550 0.400809
0.880288 0.248045 0.394951
1.000000 0.249540 0.389232
0.000000 0.365515 0.425880
0.109533 0.367010 0.419458
0.239462 0.368505 0.413175
0.369531 0.370000 0.407031
0.499740 0.371495 0.401028
0.630089 0.372990 0.395164
0.760577 0.374485 0.389440
0.891205 0.375980 0.383855
1.000000 0.377475 0.378410
0.000000 0.493450 0.413403
0.119342 0.494945 0.407255
0.249546 0.496440 0.401246
0.379890 0.497935 0.395377
0.510373 0.499430 0.389648
0.640995 0.500925 0.384058
0.771758 0.502420 0.378608
0.902660 0.503915 0.373298
1.000000 0.505410 0.368127
0.000000 0.621385 0.401465
0.129690 0.622880 0.395590
0.260168 0.624375 0.389856
0.390786 0.625870 0.384261
0.521544 0.627365 0.378806
0.652441 0.628860 0.373491
0.783477 0.630355 0.368315
0.914654 0.631850 0.363279
1.000000 0.633345 0.358382
0.009964 0.749320 0.390064
0.140577 0.750815 0.384465
0.271329 0.752310 0.379004
0.402221 0.753805 0.373684
0.533253 0.755300 0.368503
0.664424 0.756795 0.363462
0.795735 0.758290 0.358560
0.927186 0.759785 0.353798
1.000000 0.761280 0.349176
0.021115 0.877255 0.379203
0.152002 0.878750 0.373877
0.283028 0.880245 0.368691
0.414195 0.881740 0.363645
0.545500 0.883235 0.358738
0.676946 0.884730 0.353971
0.808531 0.886225 0.349344
0.940256 0.887720 0.344856
1.000000 0.889215 0.340508
0.032804 1.000000 0.368879
0.163965 1.000000 0.363828
0.295266 1.000000 0.358916
0.426706 1.000000 0.354144
0.558287 1.000000 0.349512
0.690006 1.000000 0.345019
0.821866 1.000000 0.340666
0.953865 1.000000 0.336452
1.000000 1.000000 0.332379
0.000000 0.000000 0.588762
0.084883 0.000000 0.581570
0.214043 0.000000 0.574518
0.343343 0.000000 0.567605
0.472782 0.000000 0.560832
0.602361 0.000000 0.554199
0.732080 0.000000 0.547705
0.861939 0.000000 0.541351
0.991937 0.000000 0.535137
0.000000 0.110215 0.574775
0.093182 0.111710 0.567857
0.222616 0.113205 0.561079
0.352190 0.114700 0.554440
0.481904 0.116195 0.547942
0.611757 0.117690 0.541582
0.741750 0.119185 0.535363
0.871883 0.120680 0.529283
1.000000 0.122175 0.523343
0.000000 0.238150 0.561326
0.102020 0.239645 0.554682
0.231728 0.241140 0.548178
0.361576 0.242635 0.541814
0.491564 0.244130 0.535589
0.621692 0.245625 0.529504
0.751959 0.247120 0.523559
0.882366 0.248615 0.517754
1.000000 0.250110 0.512088
0.000000 0.366085 0.548415
0.111396 0.367580 0.542046
0.241378 0.369075 0.535816
0.371501 0.370570 0.529726
0.501763 0.372065 0.523775
0.632165 0.373560 0.517965
0.762706 0.375055 0.512294
0.893388 0.376550 0.506763
1.000000 0.378045 0.501371
0.000000 0.494020 0.536043
0.121310 0.495515 0.529947
0.251567 0.497010 0.523992
0.381964 0.498505 0.518176
0.512500 0.500000 0.512500
0.643176 0.501495 0.506964
0.773992 0.502990 0.501567
0.904947 0.504485 0.496310
1.000000 0.505980 0.491193
0.001371 0.621955 0.524209
0.131763 0.623450 0.518388
0.262294 0.624945 0.512706
0.392965 0.626440 0.507165
0.523775 0.627935 0.501763
0.654726 0.629430 0.496501
0.785816 0.630925 0.491378
0.917046 0.632420 0.486396
1.000000 0.633915 0.481552
0.012088 0.749890 0.512913
0.142754 0.751385 0.507366
0.273559 0.752880 0.501959
0.404504 0.754375 0.496692
0.535589 0.755870 0.491564
0.666814 0.757365 0.486576
0.798178 0.758860 0.481728
0.929682 0.760355 0.477020
1.000000 0.761850 0.472451
0.023343 0.877825 0.502156
0.154283 0.879320 0.496883
0.285363 0.880815 0.491750
0.416582 0.882310 0.486757
0.547942 0.883805 0.481904
0.679440 0.885300 0.477190
0.811079 0.886795 0.472616
0.942857 0.888290 0.468182
1.000000 0.889785 0.463887
0.035137 1.000000 0.491937
0.166351 1.000000 0.486939
0.297705 1.000000 0.482080
0.429199 1.000000 0.477361
0.560832 1.000000 0.472782
0.692605 1.000000 0.468343
0.824518 1.000000 0.464043
0.956570 1.000000 0.459883
1.000000 1.000000 0.455862
0.000000 0.000000 0.711004
0.086452 0.000000 0.703865
0.215666 0.000000 0.696866
0.345019 0.000000 0.690006
0.474512 0.000000 0.683287
0.604144 0.000000 0.676706
0.733916 0.000000 0.670266
0.863828 0.000000 0.663965
0.993879 0.000000 0.657804
0.000000 0.110785 0.697121
0.094856 0.112280 0.690256
0.224344 0.113775 0.683531
0.353971 0.115270 0.676946
0.483738 0.116765 0.670500
0.613645 0.118260 0.664195
0.743691 0.119755 0.658028
0.873877 0.121250 0.652002
1.000000 0.122745 0.646115
0.000000 0.238720 0.683776
0.103798 0.240215 0.677186
0.233560 0.241710 0.670735
0.363462 0.243205 0.664424
0.493503 0.244700 0.658253
0.623684 0.246195 0.652221
0.754004 0.247690 0.646329
0.884465 0.249185 0.640577
1.000000 0.250680 0.634964
0.000000 0.366655 0.670970
0.113279 0.368150 0.664654
0.243315 0.369645 0.658477
0.373491 0.371140 0.652441
0.503806 0.372635 0.646544
0.634261 0.374130 0.640786
0.764856 0.375625 0.635168
0.895590 0.377120 0.629690
1.000000 0.378615 0.624352
0.000000 0.494590 0.658702
0.123298 0.496085 0.652660
0.253608 0.497580 0.646758
0.384058 0.499075 0.640995
0.514648 0.500570 0.635373
0.645377 0.502065 0.629890
0.776246 0.503560 0.624546
0.907255 0.505055 0.619342
1.000000 0.506550 0.614278
0.003410 0.622525 0.646973
0.133855 0.624020 0.641205
0.264440 0.625515 0.635577
0.395164 0.627010 0.630089
0.526028 0.628505 0.624740
0.657031 0.630000 0.619531
0.788175 0.631495 0.614462
0.919458 0.632990 0.609533
1.000000 0.634485 0.604743
0.014232 0.750460 0.635782
0.144951 0.751955 0.630288
0.275809 0.753450 0.624934
0.406808 0.754945 0.619720
0.537946 0.756440 0.614646
0.669224 0.757935 0.609711
0.800641 0.759430 0.604916
0.932199 0.760925 0.600261
1.000000 0.762420 0.595746
0.025591 0.878395 0.625129
0.156585 0.879890 0.619910
0.287718 0.881385 0.614830
0.418990 0.882880 0.609890
0.550403 0.884375 0.605090
0.681955 0.885870 0.600430
0.813647 0.887365 0.595909
0.945478 0.888860 0.591528
1.000000 0.890355 0.587287
0.037490 1.000000 0.615015
0.168757 1.000000 0.610070
0.300164 1.000000 0.605264
0.431711 1.000000 0.600599
0.563398 1.000000 0.596073
0.695224 1.000000 0.591687
0.827190 1.000000 0.587440
0.959296 1.000000 0.583334
1.000000 1.000000 0.579366
0.000000 0.000000 0.833266
0.088042 0.000000 0.826180
0.217309 0.000000 0.819234
0.346715 0.000000 0.812428
0.476261 0.000000 0.805761
0.605947 0.000000 0.799234
0.735772 0.000000 0.792847
0.865737 0.000000 0.786600
0.995842 0.000000 0.780492
0.000000 0.111355 0.819487
0.096551 0.112850 0.812676
0.226092 0.114345 0.806004
0.355772 0.115840 0.799472
0.485592 0.117335 0.793080
0.615552 0.118830 0.786827
0.745652 0.120325 0.780714
0.875891 0.121820 0.774741
1.000000 0.123315 0.768907
0.000000 0.239290 0.806247
0.105597 0.240785 0.799710
0.235412 0.242280 0.793312
0.365367 0.243775 0.787055
0.495462 0.245270 0.780937
0.625696 0.246765 0.774958
0.756070 0.248260 0.769120
0.886583 0.249755 0.763421
1.000000 0.251250 0.757861
0.000000 0.367225 0.793545
0.115182 0.368720 0.787282
0.245272 0.370215 0.781159
0.375501 0.371710 0.775176
0.505869 0.373205 0.769332
0.636378 0.374700 0.763628
0.767026 0.376195 0.758063
0.897814 0.377690 0.752639
1.000000 0.379185 0.747354
0.000000 0.495160 0.781382
0.125306 0.496655 0.775393
0.255669 0.498150 0.769544
0.386173 0.499645 0.763835
0.516816 0.501140 0.758266
0.647598 0.502635 0.752836
0.778521 0.504130 0.747546
0.909583 0.505625 0.742395
1.000000 0.507120 0.737384
0.005470 0.623095 0.769757
0.135968 0.624590 0.764043
0.266606 0.626085 0.758468
0.397383 0.627580 0.753033
0.528300 0.629075 0.747738
0.659357 0.630570 0.742582
0.790554 0.632065 0.737566
0.921890 0.633560 0.732690
1.000000 0.635055 0.727953
0.016396 0.751030 0.758671
0.147168 0.752525 0.753230
0.278080 0.754020 0.747930
0.409132 0.755515 0.742769
0.540323 0.757010 0.737748
0.671654 0.758505 0.732867
0.803125 0.760000 0.728125
0.934735 0.761495 0.723523
1.000000 0.762990 0.719061
0.027860 0.878965 0.748123
0.158907 0.880460 0.742957
0.290093 0.881955 0.737930
0.421419 0.883450 0.733044
0.552884 0.884945 0.728297
0.684490 0.886440 0.723690
0.816235 0.887935 0.719222
0.948120 0.889430 0.714895
1.000000 0.890925 0.710706
0.039863 1.000000 0.738113
0.171184 1.000000 0.733221
0.302644 1.000000 0.728469
0.434244 1.000000 0.723857
0.565984 1.000000 0.719384
0.697864 1.000000 0.715051
0.829883 1.000000 0.710858
0.962042 1.000000 0.706804
1.000000 1.000000 0.702891
0.000000 0.000000 0.955548
0.089653 0.000000 0.948515
0.218973 0.000000 0.941623
0.348432 0.000000 0.934870
0.478031 0.000000 0.928256
0.607770 0.000000 0.921783
0.737649 0.000000 0.915449
0.867667 0.000000 0.909255
0.997825 0.000000 0.903200
0.000000 0.111925 0.941874
0.098266 0.113420 0.935116
0.227860 0.114915 0.928497
0.357593 0.116410 0.922018
0.487467 0.117905 0.915679
0.617480 0.119400 0.909480
0.747633 0.120895 0.903420
0.877925 0.122390 0.897500
1.000000 0.123885 0.891720
0.000000 0.239860 0.928738
0.107417 0.241355 0.922254
0.237285 0.242850 0.915910
0.367293 0.244345 0.909706
0.497441 0.245840 0.903641
0.627728 0.247335 0.897716
0.758155 0.248830 0.891930
0.888722 0.250325 0.886285
1.000000 0.251820 0.880779
0.000000 0.367795 0.916141
0.117106 0.369290 0.909931
0.247249 0.370785 0.903861
0.377531 0.372280 0.897931
0.507953 0.373775 0.892141
0.638515 0.375270 0.886490
0.769216 0.376765 0.880979
0.900057 0.378260 0.875607
1.000000 0.379755 0.870375
0.000000 0.495730 0.904082
0.127334 0.497225 0.898147
0.257751 0.498720 0.892351
0.388308 0.500215 0.886695
0.519004 0.501710 0.881179
0.649840 0.503205 0.875802
0.780815 0.504700 0.870565
0.911931 0.506195 0.865468
1.000000 0.507690 0.860511
0.007549 0.623665 0.892562
0.138101 0.625160 0.886901
0.268792 0.626655 0.881379
0.399623 0.628150 0.875998
0.530593 0.629645 0.870756
0.661703 0.631140 0.865653
0.792953 0.632635 0.860690
0.924342 0.634130 0.855867
1.000000 0.635625 0.851184
0.018580 0.751600 0.881580
0.149406 0.753095 0.876193
0.280371 0.754590 0.870946
0.411476 0.756085 0.865838
0.542721 0.757580 0.860871
0.674105 0.759075 0.856042
0.805629 0.760570 0.851354
0.937293 0.762065 0.846805
1.000000 0.763560 0.842396
0.030149 0.879535 0.871136
0.161249 0.881030 0.866024
0.292488 0.882525 0.861051
0.423868 0.884020 0.856218
0.555386 0.885515 0.851524
0.687045 0.887010 0.846970
0.818843 0.888505 0.842556
0.950781 0.890000 0.838281
1.000000 0.891495 0.834146
0.042256 1.000000 0.861231
0.173630 1.000000 0.856393
0.305144 1.000000 0.851694
0.436798 1.000000 0.847135
0.568591 1.000000 0.842716
0.700524 1.000000 0.838436
0.832596 1.000000 0.834296
0.964808 1.000000 0.830296
1.000000 1.000000 0.826435
0.000000 0.000000 1.000000
0.091283 0.000000 1.000000
0.220656 0.000000 1.000000
0.350169 0.000000 1.000000
0.479822 0.000000 1.000000
0.609614 0.000000 1.000000
0.739546 0.000000 1.000000
0.869617 0.000000 1.000000
0.999828 0.000000 1.000000
0.000000 0.112495 1.000000
0.100001 0.113990 1.000000
0.229648 0.115485 1.000000
0.359435 0.116980 1.000000
0.489362 0.118475 1.000000
0.619428 0.119970 1.000000
0.749634 0.121465 1.000000
0.879980 0.122960 1.000000
1.000000 0.124455 1.000000
0.000000 0.240430 1.000000
0.109256 0.241925 1.000000
0.239178 0.243420 1.000000
0.369239 0.244915 1.000000
0.499440 0.246410 1.000000
0.629781 0.247905 1.000000
0.760261 0.249400 1.000000
0.890881 0.250895 1.000000
1.000000 0.252390 1.000000
0.000000 0.368365 1.000000
0.119051 0.369860 1.000000
0.249246 0.371355 1.000000
0.379582 0.372850 1.000000
0.510057 0.374345 1.000000
0.640672 0.375840 1.000000
0.771427 0.377335 1.000000
0.902321 0.378830 0.998596
1.000000 0.380325 0.993417
0.000000 0.496300 1.000000
0.129383 0.497795 1.000000
0.259853 0.499290 1.000000
0.390463 0.500785 1.000000
0.521212 0.502280 1.000000
0.652102 0.503775 0.998789
0.783130 0.505270 0.993605
0.914299 0.506765 0.988561
1.000000 0.508260 0.983657
0.009650 0.624235 1.000000
0.140254 0.625730 1.000000
0.270998 0.627225 1.000000
0.401882 0.628720 0.998982
0.532906 0.630215 0.993794
0.664070 0.631710 0.988745
0.795373 0.633205 0.983835
0.926815 0.634700 0.979065
1.000000 0.636195 0.974435
0.020785 0.752170 1.000000
0.151664 0.753665 0.999176
0.282682 0.755160 0.993982
0.413840 0.756655 0.988928
0.545138 0.758150 0.984013
0.676576 0.759645 0.979238
0.808153 0.761140 0.974603
0.939870 0.762635 0.970108
1.000000 0.764130 0.965752
0.032458 0.880105 0.994171
0.163611 0.881600 0.989111
0.294904 0.883095 0.984192
0.426337 0.884590 0.979412
0.557909 0.886085 0.974771
0.689621 0.887580 0.970271
0.821472 0.889075 0.965910
0.953463 0.890570 0.961688
1.000000 0.892065 0.957607
0.044670 1.000000 0.984370
0.176097 1.000000 0.979585
0.307664 1.000000 0.974939
0.439371 1.000000 0.970434
0.571218 1.000000 0.966068
0.703204 1.000000 0.961841
0.835329 1.000000 0.957754
0.967595 1.000000 0.953807
1.000000 1.000000 0.950000
