assets/luts/cinematic_warm.cube
# cinematic_warm - 好莱坞暖色（Teal & Orange）
# Generated for video-dedup, size=17
TITLE "cinematic_warm"
LUT_3D_SIZE 5
DOMAIN_MIN 0.0 0.0 0.0
DOMAIN_MAX 1.0 1.0 1.0
0.000000 0.000000 0.100000
0.207754 0.000000 0.085329
0.466068 0.000000 0.071218
0.724939 0.000000 0.057664
0.984370 0.000000 0.044670
0.000000 0.235870 0.071727
0.224603 0.238860 0.058153
0.484013 0.241850 0.045138
0.743982 0.244840 0.032682
1.000000 0.247830 0.020785
0.000000 0.491740 0.045607
0.243605 0.494730 0.033130
0.504112 0.497720 0.021212
0.765178 0.500710 0.009853
1.000000 0.503700 0.000000
0.003716 0.747610 0.021641
0.264761 0.750600 0.010261
0.526365 0.753590 0.000000
0.788528 0.756580 0.000000
1.000000 0.759570 0.000000
0.025928 1.000000 0.000000
0.288071 1.000000 0.000000
0.550772 1.000000 0.000000
0.814031 1.000000 0.000000
1.000000 1.000000 0.000000
0.000000 0.000000 0.344341
0.210858 0.000000 0.329883
0.469384 0.000000 0.315984
0.728469 0.000000 0.302644
0.988113 0.000000 0.289863
0.000000 0.237010 0.316486
0.228125 0.240000 0.303125
0.487748 0.242990 0.290323
0.747930 0.245980 0.278080
1.000000 0.248970 0.266396
0.000000 0.492880 0.290784
0.247546 0.495870 0.278521
0.508266 0.498860 0.266816
0.769544 0.501850 0.255669
1.000000 0.504840 0.245082
0.007861 0.748750 0.267236
0.269120 0.751740 0.256070
0.530937 0.754730 0.245462
0.793312 0.757720 0.235412
1.000000 0.760710 0.225922
0.030492 1.000000 0.245842
0.292847 1.000000 0.235772
0.555761 1.000000 0.226261
0.819234 1.000000 0.217309
1.000000 1.000000 0.208916
0.000000 0.000000 0.588762
0.214043 0.000000 0.574518
0.472782 0.000000 0.560832
0.732080 0.000000 0.547705
0.991937 0.000000 0.535137
0.000000 0.238150 0.561326
0.231728 0.241140 0.548178
0.491564 0.244130 0.535589
0.751959 0.247120 0.523559
1.000000 0.250110 0.512088
0.000000 0.494020 0.536043
0.251567 0.497010 0.523992
0.512500 0.500000 0.512500
0.773992 0.502990 0.501567
1.000000 0.505980 0.491193
0.012088 0.749890 0.512913
0.273559 0.752880 0.501959
0.535589 0.755870 0.491564
0.798178 0.758860 0.481728
1.000000 0.761850 0.472451
0.035137 1.000000 0.491937
0.297705 1.000000 0.482080
0.560832 1.000000 0.472782
0.824518 1.000000 0.464043
1.000000 1.000000 0.455862
0.000000 0.000000 0.833266
0.217309 0.000000 0.819234
0.476261 0.000000 0.805761
0.735772 0.000000 0.792847
0.995842 0.000000 0.780492
0.000000 0.239290 0.806247
0.235412 0.242280 0.793312
0.495462 0.245270 0.780937
0.756070 0.248260 0.769120
1.000000 0.251250 0.757861
0.000000 0.495160 0.781382
0.255669 0.498150 0.769544
0.516816 0.501140 0.758266
0.778521 0.504130 0.747546
1.000000 0.507120 0.737384
0.016396 0.751030 0.758671
0.278080 0.754020 0.747930
0.540323 0.757010 0.737748
0.803125 0.760000 0.728125
1.000000 0.762990 0.719061
0.039863 1.000000 0.738113
0.302644 1.000000 0.728469
0.565984 1.000000 0.719384
0.829883 1.000000 0.710858
1.000000 1.000000 0.702891
0.000000 0.000000 1.000000
0.220656 0.000000 1.000000
0.479822 0.000000 1.000000
0.739546 0.000000 1.000000
0.999828 0.000000 1.000000
0.000000 0.240430 1.000000
0.239178 0.243420 1.000000
0.499440 0.246410 1.000000
0.760261 0.249400 1.000000
1.000000 0.252390 1.000000
0.000000 0.496300 1.000000
0.259853 0.499290 1.000000
0.521212 0.502280 1.000000
0.783130 0.505270 0.993605
1.000000 0.508260 0.983657
0.020785 0.752170 1.000000
0.282682 0.755160 0.993982
0.545138 0.758150 0.984013
0.808153 0.761140 0.974603
1.000000 0.764130 0.965752
0.044670 1.000000 0.984370
0.307664 1.000000 0.974939
0.571218 1.000000 0.966068
0.835329 1.000000 0.957754
1.000000 1.000000 0.950000
