assets/luts/cinematic_cool.cube
# cinematic_cool - 冷色电影感
# Generated for video-dedup, size=17
TITLE "cinematic_cool"
LUT_3D_SIZE 5
DOMAIN_MIN 0.0 0.0 0.0
DOMAIN_MAX 1.0 1.0 1.0
0.000000 0.018000 0.050000
0.178500 0.018000 0.050000
0.374000 0.018000 0.050000
0.569500 0.018000 0.050000
0.765000 0.018000 0.050000
0.000000 0.238500 0.050000
0.178500 0.238500 0.050000
0.374000 0.238500 0.050000
0.670000 0.265000 0.050000
0.900000 0.265000 0.050000
0.000000 0.459000 0.050000
0.210000 0.510000 0.050000
0.440000 0.510000 0.050000
0.670000 0.510000 0.050000
0.900000 0.510000 0.050000
0.000000 0.755000 0.050000
0.210000 0.755000 0.050000
0.440000 0.755000 0.050000
0.670000 0.755000 0.050000
0.900000 0.755000 0.050000
0.000000 1.000000 0.050000
0.210000 1.000000 0.050000
0.440000 1.000000 0.050000
0.670000 1.000000 0.050000
0.900000 1.000000 0.050000
0.000000 0.018000 0.312500
0.178500 0.018000 0.312500
0.374000 0.018000 0.312500
0.569500 0.018000 0.312500
0.900000 0.020000 0.312500
0.000000 0.238500 0.312500
0.178500 0.238500 0.312500
0.440000 0.265000 0.312500
0.670000 0.265000 0.312500
0.900000 0.265000 0.312500
0.000000 0.510000 0.312500
0.210000 0.510000 0.312500
0.440000 0.510000 0.312500
0.670000 0.510000 0.312500
0.900000 0.510000 0.312500
0.000000 0.755000 0.312500
0.210000 0.755000 0.312500
0.440000 0.755000 0.312500
0.670000 0.755000 0.312500
0.900000 0.755000 0.312500
0.000000 1.000000 0.312500
0.210000 1.000000 0.312500
0.440000 1.000000 0.312500
0.670000 1.000000 0.312500
0.900000 1.000000 0.312500
0.000000 0.018000 0.575000
0.178500 0.018000 0.575000
0.374000 0.018000 0.575000
0.569500 0.018000 0.575000
0.900000 0.020000 0.575000
0.000000 0.238500 0.575000
0.178500 0.238500 0.575000
0.440000 0.265000 0.575000
0.670000 0.265000 0.575000
0.900000 0.265000 0.575000
0.000000 0.510000 0.575000
0.210000 0.510000 0.575000
0.440000 0.510000 0.575000
0.670000 0.510000 0.575000
0.900000 0.510000 0.575000
0.000000 0.755000 0.575000
0.210000 0.755000 0.575000
0.440000 0.755000 0.575000
0.670000 0.755000 0.575000
0.900000 0.755000 0.575000
0.000000 1.000000 0.575000
0.210000 1.000000 0.575000
0.440000 1.000000 0.575000
0.670000 1.000000 0.575000
0.900000 1.000000 0.575000
0.000000 0.018000 0.837500
0.178500 0.018000 0.837500
0.374000 0.018000 0.837500
0.670000 0.020000 0.837500
0.900000 0.020000 0.837500
0.000000 0.238500 0.837500
0.210000 0.265000 0.837500
0.440000 0.265000 0.837500
0.670000 0.265000 0.837500
0.900000 0.265000 0.837500
0.000000 0.510000 0.837500
0.210000 0.510000 0.837500
0.440000 0.510000 0.837500
0.670000 0.510000 0.837500
0.900000 0.510000 0.837500
0.000000 0.755000 0.837500
0.210000 0.755000 0.837500
0.440000 0.755000 0.837500
0.670000 0.755000 0.837500
0.900000 0.755000 0.837500
0.000000 1.000000 0.837500
0.210000 1.000000 0.837500
0.440000 1.000000 0.837500
0.670000 1.000000 0.837500
0.900000 1.000000 0.837500
0.000000 0.018000 1.000000
0.178500 0.018000 1.000000
0.374000 0.018000 1.000000
0.670000 0.020000 1.000000
0.900000 0.020000 1.000000
0.000000 0.238500 1.000000
0.210000 0.265000 1.000000
0.440000 0.265000 1.000000
0.670000 0.265000 1.000000
0.900000 0.265000 1.000000
0.000000 0.510000 1.000000
0.210000 0.510000 1.000000
0.440000 0.510000 1.000000
0.670000 0.510000 1.000000
0.900000 0.510000 1.000000
0.000000 0.755000 1.000000
0.210000 0.755000 1.000000
0.440000 0.755000 1.000000
0.670000 0.755000 1.000000
0.900000 0.755000 1.000000
0.000000 1.000000 1.000000
0.210000 1.000000 1.000000
0.440000 1.000000 1.000000
0.670000 1.000000 1.000000
0.900000 1.000000 1.000000
