assets/luts/cinematic_cool.cube
# cinematic_cool - 冷色电影感
# Generated for video-dedup, size=17
TITLE "cinematic_cool"
LUT_3D_SIZE 17
DOMAIN_MIN 0.0 0.0 0.0
DOMAIN_MAX 1.0 1.0 1.0
0.000000 0.018000 0.050000
0.031875 0.018000 0.050000
0.080750 0.018000 0.050000
0.129625 0.018000 0.050000
0.178500 0.018000 0.050000
0.227375 0.018000 0.050000
0.276250 0.018000 0.050000
0.325125 0.018000 0.050000
0.374000 0.018000 0.050000
0.422875 0.018000 0.050000
0.471750 0.018000 0.050000
0.520625 0.018000 0.050000
0.569500 0.018000 0.050000
0.618375 0.018000 0.050000
0.667250 0.018000 0.050000
0.716125 0.018000 0.050000
0.765000 0.018000 0.050000
0.000000 0.073125 0.050000
0.031875 0.073125 0.050000
0.080750 0.073125 0.050000
0.129625 0.073125 0.050000
0.178500 0.073125 0.050000
0.227375 0.073125 0.050000
0.276250 0.073125 0.050000
0.325125 0.073125 0.050000
0.374000 0.073125 0.050000
0.422875 0.073125 0.050000
0.471750 0.073125 0.050000
0.520625 0.073125 0.050000
0.569500 0.073125 0.050000
0.618375 0.073125 0.050000
0.667250 0.073125 0.050000
0.842500 0.081250 0.050000
0.900000 0.081250 0.050000
0.000000 0.128250 0.050000
0.031875 0.128250 0.050000
0.080750 0.128250 0.050000
0.129625 0.128250 0.050000
0.178500 0.128250 0.050000
0.227375 0.128250 0.050000
0.276250 0.128250 0.050000
0.325125 0.128250 0.050000
0.374000 0.128250 0.050000
0.422875 0.128250 0.050000
0.471750 0.128250 0.050000
0.520625 0.128250 0.050000
0.569500 0.128250 0.050000
0.727500 0.142500 0.050000
0.785000 0.142500 0.050000
0.842500 0.142500 0.050000
0.900000 0.142500 0.050000
0.000000 0.183375 0.050000
0.031875 0.183375 0.050000
0.080750 0.183375 0.050000
0.129625 0.183375 0.050000
0.178500 0.183375 0.050000
0.227375 0.183375 0.050000
0.276250 0.183375 0.050000
0.325125 0.183375 0.050000
0.374000 0.183375 0.050000
0.422875 0.183375 0.050000
0.471750 0.183375 0.050000
0.612500 0.203750 0.050000
0.670000 0.203750 0.050000
0.727500 0.203750 0.050000
0.785000 0.203750 0.050000
0.842500 0.203750 0.050000
0.900000 0.203750 0.050000
0.000000 0.238500 0.050000
0.031875 0.238500 0.050000
0.080750 0.238500 0.050000
0.129625 0.238500 0.050000
0.178500 0.238500 0.050000
0.227375 0.238500 0.050000
0.276250 0.238500 0.050000
0.325125 0.238500 0.050000
0.374000 0.238500 0.050000
0.497500 0.265000 0.050000
0.555000 0.265000 0.050000
0.612500 0.265000 0.050000
0.670000 0.265000 0.050000
0.727500 0.265000 0.050000
0.785000 0.265000 0.050000
0.842500 0.265000 0.050000
0.900000 0.265000 0.050000
0.000000 0.293625 0.050000
0.031875 0.293625 0.050000
0.080750 0.293625 0.050000
0.129625 0.293625 0.050000
0.178500 0.293625 0.050000
0.227375 0.293625 0.050000
0.276250 0.293625 0.050000
0.382500 0.326250 0.050000
0.440000 0.326250 0.050000
0.497500 0.326250 0.050000
0.555000 0.326250 0.050000
0.612500 0.326250 0.050000
0.670000 0.326250 0.050000
0.727500 0.326250 0.050000
0.785000 0.326250 0.050000
0.842500 0.326250 0.050000
0.900000 0.326250 0.050000
0.000000 0.348750 0.050000
0.031875 0.348750 0.050000
0.080750 0.348750 0.050000
0.129625 0.348750 0.050000
0.178500 0.348750 0.050000
0.267500 0.387500 0.050000
0.325000 0.387500 0.050000
0.382500 0.387500 0.050000
0.440000 0.387500 0.050000
0.497500 0.387500 0.050000
0.555000 0.387500 0.050000
0.612500 0.387500 0.050000
0.670000 0.387500 0.050000
0.727500 0.387500 0.050000
0.785000 0.387500 0.050000
0.842500 0.387500 0.050000
0.900000 0.387500 0.050000
0.000000 0.403875 0.050000
0.031875 0.403875 0.050000
0.080750 0.403875 0.050000
0.152500 0.448750 0.050000
0.210000 0.448750 0.050000
0.267500 0.448750 0.050000
0.325000 0.448750 0.050000
0.382500 0.448750 0.050000
0.440000 0.448750 0.050000
0.497500 0.448750 0.050000
0.555000 0.448750 0.050000
0.612500 0.448750 0.050000
0.670000 0.448750 0.050000
0.727500 0.448750 0.050000
0.785000 0.448750 0.050000
0.842500 0.448750 0.050000
0.900000 0.448750 0.050000
0.000000 0.459000 0.050000
0.037500 0.510000 0.050000
0.095000 0.510000 0.050000
0.152500 0.510000 0.050000
0.210000 0.510000 0.050000
0.267500 0.510000 0.050000
0.325000 0.510000 0.050000
0.382500 0.510000 0.050000
0.440000 0.510000 0.050000
0.497500 0.510000 0.050000
0.555000 0.510000 0.050000
0.612500 0.510000 0.050000
0.670000 0.510000 0.050000
0.727500 0.510000 0.050000
0.785000 0.510000 0.050000
0.842500 0.510000 0.050000
0.900000 0.510000 0.050000
0.000000 0.571250 0.050000
0.037500 0.571250 0.050000
0.095000 0.571250 0.050000
0.152500 0.571250 0.050000
0.210000 0.571250 0.050000
0.267500 0.571250 0.050000
0.325000 0.571250 0.050000
0.382500 0.571250 0.050000
0.440000 0.571250 0.050000
0.497500 0.571250 0.050000
0.555000 0.571250 0.050000
0.612500 0.571250 0.050000
0.670000 0.571250 0.050000
0.727500 0.571250 0.050000
0.785000 0.571250 0.050000
0.842500 0.571250 0.050000
0.900000 0.571250 0.050000
0.000000 0.632500 0.050000
0.037500 0.632500 0.050000
0.095000 0.632500 0.050000
0.152500 0.632500 0.050000
0.210000 0.632500 0.050000
0.267500 0.632500 0.050000
0.325000 0.632500 0.050000
0.382500 0.632500 0.050000
0.440000 0.632500 0.050000
0.497500 0.632500 0.050000
0.555000 0.632500 0.050000
0.612500 0.632500 0.050000
0.670000 0.632500 0.050000
0.727500 0.632500 0.050000
0.785000 0.632500 0.050000
0.842500 0.632500 0.050000
0.900000 0.632500 0.050000
0.000000 0.693750 0.050000
0.037500 0.693750 0.050000
0.095000 0.693750 0.050000
0.152500 0.693750 0.050000
0.210000 0.693750 0.050000
0.267500 0.693750 0.050000
0.325000 0.693750 0.050000
0.382500 0.693750 0.050000
0.440000 0.693750 0.050000
0.497500 0.693750 0.050000
0.555000 0.693750 0.050000
0.612500 0.693750 0.050000
0.670000 0.693750 0.050000
0.727500 0.693750 0.050000
0.785000 0.693750 0.050000
0.842500 0.693750 0.050000
0.900000 0.693750 0.050000
0.000000 0.755000 0.050000
0.037500 0.755000 0.050000
0.095000 0.755000 0.050000
0.152500 0.755000 0.050000
0.210000 0.755000 0.050000
0.267500 0.755000 0.050000
0.325000 0.755000 0.050000
0.382500 0.755000 0.050000
0.440000 0.755000 0.050000
0.497500 0.755000 0.050000
0.555000 0.755000 0.050000
0.612500 0.755000 0.050000
0.670000 0.755000 0.050000
0.727500 0.755000 0.050000
0.785000 0.755000 0.050000
0.842500 0.755000 0.050000
0.900000 0.755000 0.050000
0.000000 0.816250 0.050000
0.037500 0.816250 0.050000
0.095000 0.816250 0.050000
0.152500 0.816250 0.050000
0.210000 0.816250 0.050000
0.267500 0.816250 0.050000
0.325000 0.816250 0.050000
0.382500 0.816250 0.050000
0.440000 0.816250 0.050000
0.497500 0.816250 0.050000
0.555000 0.816250 0.050000
0.612500 0.816250 0.050000
0.670000 0.816250 0.050000
0.727500 0.816250 0.050000
0.785000 0.816250 0.050000
0.842500 0.816250 0.050000
0.900000 0.816250 0.050000
0.000000 0.877500 0.050000
0.037500 0.877500 0.050000
0.095000 0.877500 0.050000
0.152500 0.877500 0.050000
0.210000 0.877500 0.050000
0.267500 0.877500 0.050000
0.325000 0.877500 0.050000
0.382500 0.877500 0.050000
0.440000 0.877500 0.050000
0.497500 0.877500 0.050000
0.555000 0.877500 0.050000
0.612500 0.877500 0.050000
0.670000 0.877500 0.050000
0.727500 0.877500 0.050000
0.785000 0.877500 0.050000
0.842500 0.877500 0.050000
0.900000 0.877500 0.050000
0.000000 0.938750 0.050000
0.037500 0.938750 0.050000
0.095000 0.938750 0.050000
0.152500 0.938750 0.050000
0.210000 0.938750 0.050000
0.267500 0.938750 0.050000
0.325000 0.938750 0.050000
0.382500 0.938750 0.050000
0.440000 0.938750 0.050000
0.497500 0.938750 0.050000
0.555000 0.938750 0.050000
0.612500 0.938750 0.050000
0.670000 0.938750 0.050000
0.727500 0.938750 0.050000
0.785000 0.938750 0.050000
0.842500 0.938750 0.050000
0.900000 0.938750 0.050000
0.000000 1.000000 0.050000
0.037500 1.000000 0.050000
0.095000 1.000000 0.050000
0.152500 1.000000 0.050000
0.210000 1.000000 0.050000
0.267500 1.000000 0.050000
0.325000 1.000000 0.050000
0.382500 1.000000 0.050000
0.440000 1.000000 0.050000
0.497500 1.000000 0.050000
0.555000 1.000000 0.050000
0.612500 1.000000 0.050000
0.670000 1.000000 0.050000
0.727500 1.000000 0.050000
0.785000 1.000000 0.050000
0.842500 1.000000 0.050000
0.900000 1.000000 0.050000
0.000000 0.018000 0.115625
0.031875 0.018000 0.115625
0.080750 0.018000 0.115625
0.129625 0.018000 0.115625
0.178500 0.018000 0.115625
0.227375 0.018000 0.115625
0.276250 0.018000 0.115625
0.325125 0.018000 0.115625
0.374000 0.018000 0.115625
0.422875 0.018000 0.115625
0.471750 0.018000 0.115625
0.520625 0.018000 0.115625
0.569500 0.018000 0.115625
0.618375 0.018000 0.115625
0.667250 0.018000 0.115625
0.716125 0.018000 0.115625
0.900000 0.020000 0.115625
0.000000 0.073125 0.115625
0.031875 0.073125 0.115625
0.080750 0.073125 0.115625
0.129625 0.073125 0.115625
0.178500 0.073125 0.115625
0.227375 0.073125 0.115625
0.276250 0.073125 0.115625
0.325125 0.073125 0.115625
0.374000 0.073125 0.115625
0.422875 0.073125 0.115625
0.471750 0.073125 0.115625
0.520625 0.073125 0.115625
0.569500 0.073125 0.115625
0.618375 0.073125 0.115625
0.785000 0.081250 0.115625
0.842500 0.081250 0.115625
0.900000 0.081250 0.115625
0.000000 0.128250 0.115625
0.031875 0.128250 0.115625
0.080750 0.128250 0.115625
0.129625 0.128250 0.115625
0.178500 0.128250 0.115625
0.227375 0.128250 0.115625
0.276250 0.128250 0.115625
0.325125 0.128250 0.115625
0.374000 0.128250 0.115625
0.422875 0.128250 0.115625
0.471750 0.128250 0.115625
0.520625 0.128250 0.115625
0.670000 0.142500 0.115625
0.727500 0.142500 0.115625
0.785000 0.142500 0.115625
0.842500 0.142500 0.115625
0.900000 0.142500 0.115625
0.000000 0.183375 0.115625
0.031875 0.183375 0.115625
0.080750 0.183375 0.115625
0.129625 0.183375 0.115625
0.178500 0.183375 0.115625
0.227375 0.183375 0.115625
0.276250 0.183375 0.115625
0.325125 0.183375 0.115625
0.374000 0.183375 0.115625
0.422875 0.183375 0.115625
0.555000 0.203750 0.115625
0.612500 0.203750 0.115625
0.670000 0.203750 0.115625
0.727500 0.203750 0.115625
0.785000 0.203750 0.115625
0.842500 0.203750 0.115625
0.900000 0.203750 0.115625
0.000000 0.238500 0.115625
0.031875 0.238500 0.115625
0.080750 0.238500 0.115625
0.129625 0.238500 0.115625
0.178500 0.238500 0.115625
0.227375 0.238500 0.115625
0.276250 0.238500 0.115625
0.325125 0.238500 0.115625
0.440000 0.265000 0.115625
0.497500 0.265000 0.115625
0.555000 0.265000 0.115625
0.612500 0.265000 0.115625
0.670000 0.265000 0.115625
0.727500 0.265000 0.115625
0.785000 0.265000 0.115625
0.842500 0.265000 0.115625
0.900000 0.265000 0.115625
0.000000 0.293625 0.115625
0.031875 0.293625 0.115625
0.080750 0.293625 0.115625
0.129625 0.293625 0.115625
0.178500 0.293625 0.115625
0.227375 0.293625 0.115625
0.325000 0.326250 0.115625
0.382500 0.326250 0.115625
0.440000 0.326250 0.115625
0.497500 0.326250 0.115625
0.555000 0.326250 0.115625
0.612500 0.326250 0.115625
0.670000 0.326250 0.115625
0.727500 0.326250 0.115625
0.785000 0.326250 0.115625
0.842500 0.326250 0.115625
0.900000 0.326250 0.115625
0.000000 0.348750 0.115625
0.031875 0.348750 0.115625
0.080750 0.348750 0.115625
0.129625 0.348750 0.115625
0.210000 0.387500 0.115625
0.267500 0.387500 0.115625
0.325000 0.387500 0.115625
0.382500 0.387500 0.115625
0.440000 0.387500 0.115625
0.497500 0.387500 0.115625
0.555000 0.387500 0.115625
0.612500 0.387500 0.115625
0.670000 0.387500 0.115625
0.727500 0.387500 0.115625
0.785000 0.387500 0.115625
0.842500 0.387500 0.115625
0.900000 0.387500 0.115625
0.000000 0.403875 0.115625
0.031875 0.403875 0.115625
0.095000 0.448750 0.115625
0.152500 0.448750 0.115625
0.210000 0.448750 0.115625
0.267500 0.448750 0.115625
0.325000 0.448750 0.115625
0.382500 0.448750 0.115625
0.440000 0.448750 0.115625
0.497500 0.448750 0.115625
0.555000 0.448750 0.115625
0.612500 0.448750 0.115625
0.670000 0.448750 0.115625
0.727500 0.448750 0.115625
0.785000 0.448750 0.115625
0.842500 0.448750 0.115625
0.900000 0.448750 0.115625
0.000000 0.510000 0.115625
0.037500 0.510000 0.115625
0.095000 0.510000 0.115625
0.152500 0.510000 0.115625
0.210000 0.510000 0.115625
0.267500 0.510000 0.115625
0.325000 0.510000 0.115625
0.382500 0.510000 0.115625
0.440000 0.510000 0.115625
0.497500 0.510000 0.115625
0.555000 0.510000 0.115625
0.612500 0.510000 0.115625
0.670000 0.510000 0.115625
0.727500 0.510000 0.115625
0.785000 0.510000 0.115625
0.842500 0.510000 0.115625
0.900000 0.510000 0.115625
0.000000 0.571250 0.115625
0.037500 0.571250 0.115625
0.095000 0.571250 0.115625
0.152500 0.571250 0.115625
0.210000 0.571250 0.115625
0.267500 0.571250 0.115625
0.325000 0.571250 0.115625
0.382500 0.571250 0.115625
0.440000 0.571250 0.115625
0.497500 0.571250 0.115625
0.555000 0.571250 0.115625
0.612500 0.571250 0.115625
0.670000 0.571250 0.115625
0.727500 0.571250 0.115625
0.785000 0.571250 0.115625
0.842500 0.571250 0.115625
0.900000 0.571250 0.115625
0.000000 0.632500 0.115625
0.037500 0.632500 0.115625
0.095000 0.632500 0.115625
0.152500 0.632500 0.115625
0.210000 0.632500 0.115625
0.267500 0.632500 0.115625
0.325000 0.632500 0.115625
0.382500 0.632500 0.115625
0.440000 0.632500 0.115625
0.497500 0.632500 0.115625
0.555000 0.632500 0.115625
0.612500 0.632500 0.115625
0.670000 0.632500 0.115625
0.727500 0.632500 0.115625
0.785000 0.632500 0.115625
0.842500 0.632500 0.115625
0.900000 0.632500 0.115625
0.000000 0.693750 0.115625
0.037500 0.693750 0.115625
0.095000 0.693750 0.115625
0.152500 0.693750 0.115625
0.210000 0.693750 0.115625
0.267500 0.693750 0.115625
0.325000 0.693750 0.115625
0.382500 0.693750 0.115625
0.440000 0.693750 0.115625
0.497500 0.693750 0.115625
0.555000 0.693750 0.115625
0.612500 0.693750 0.115625
0.670000 0.693750 0.115625
0.727500 0.693750 0.115625
0.785000 0.693750 0.115625
0.842500 0.693750 0.115625
0.900000 0.693750 0.115625
0.000000 0.755000 0.115625
0.037500 0.755000 0.115625
0.095000 0.755000 0.115625
0.152500 0.755000 0.115625
0.210000 0.755000 0.115625
0.267500 0.755000 0.115625
0.325000 0.755000 0.115625
0.382500 0.755000 0.115625
0.440000 0.755000 0.115625
0.497500 0.755000 0.115625
0.555000 0.755000 0.115625
0.612500 0.755000 0.115625
0.670000 0.755000 0.115625
0.727500 0.755000 0.115625
0.785000 0.755000 0.115625
0.842500 0.755000 0.115625
0.900000 0.755000 0.115625
0.000000 0.816250 0.115625
0.037500 0.816250 0.115625
0.095000 0.816250 0.115625
0.152500 0.816250 0.115625
0.210000 0.816250 0.115625
0.267500 0.816250 0.115625
0.325000 0.816250 0.115625
0.382500 0.816250 0.115625
0.440000 0.816250 0.115625
0.497500 0.816250 0.115625
0.555000 0.816250 0.115625
0.612500 0.816250 0.115625
0.670000 0.816250 0.115625
0.727500 0.816250 0.115625
0.785000 0.816250 0.115625
0.842500 0.816250 0.115625
0.900000 0.816250 0.115625
0.000000 0.877500 0.115625
0.037500 0.877500 0.115625
0.095000 0.877500 0.115625
0.152500 0.877500 0.115625
0.210000 0.877500 0.115625
0.267500 0.877500 0.115625
0.325000 0.877500 0.115625
0.382500 0.877500 0.115625
0.440000 0.877500 0.115625
0.497500 0.877500 0.115625
0.555000 0.877500 0.115625
0.612500 0.877500 0.115625
0.670000 0.877500 0.115625
0.727500 0.877500 0.115625
0.785000 0.877500 0.115625
0.842500 0.877500 0.115625
0.900000 0.877500 0.115625
0.000000 0.938750 0.115625
0.037500 0.938750 0.115625
0.095000 0.938750 0.115625
0.152500 0.938750 0.115625
0.210000 0.938750 0.115625
0.267500 0.938750 0.115625
0.325000 0.938750 0.115625
0.382500 0.938750 0.115625
0.440000 0.938750 0.115625
0.497500 0.938750 0.115625
0.555000 0.938750 0.115625
0.612500 0.938750 0.115625
0.670000 0.938750 0.115625
0.727500 0.938750 0.115625
0.785000 0.938750 0.115625
0.842500 0.938750 0.115625
0.900000 0.938750 0.115625
0.000000 1.000000 0.115625
0.037500 1.000000 0.115625
0.095000 1.000000 0.115625
0.152500 1.000000 0.115625
0.210000 1.000000 0.115625
0.267500 1.000000 0.115625
0.325000 1.000000 0.115625
0.382500 1.000000 0.115625
0.440000 1.000000 0.115625
0.497500 1.000000 0.115625
0.555000 1.000000 0.115625
0.612500 1.000000 0.115625
0.670000 1.000000 0.115625
0.727500 1.000000 0.115625
0.785000 1.000000 0.115625
0.842500 1.000000 0.115625
0.900000 1.000000 0.115625
0.000000 0.018000 0.181250
0.031875 0.018000 0.181250
0.080750 0.018000 0.181250
0.129625 0.018000 0.181250
0.178500 0.018000 0.181250
0.227375 0.018000 0.181250
0.276250 0.018000 0.181250
0.325125 0.018000 0.181250
0.374000 0.018000 0.181250
0.422875 0.018000 0.181250
0.471750 0.018000 0.181250
0.520625 0.018000 0.181250
0.569500 0.018000 0.181250
0.618375 0.018000 0.181250
0.667250 0.018000 0.181250
0.716125 0.018000 0.181250
0.900000 0.020000 0.181250
0.000000 0.073125 0.181250
0.031875 0.073125 0.181250
0.080750 0.073125 0.181250
0.129625 0.073125 0.181250
0.178500 0.073125 0.181250
0.227375 0.073125 0.181250
0.276250 0.073125 0.181250
0.325125 0.073125 0.181250
0.374000 0.073125 0.181250
0.422875 0.073125 0.181250
0.471750 0.073125 0.181250
0.520625 0.073125 0.181250
0.569500 0.073125 0.181250
0.618375 0.073125 0.181250
0.785000 0.081250 0.181250
0.842500 0.081250 0.181250
0.900000 0.081250 0.181250
0.000000 0.128250 0.181250
0.031875 0.128250 0.181250
0.080750 0.128250 0.181250
0.129625 0.128250 0.181250
0.178500 0.128250 0.181250
0.227375 0.128250 0.181250
0.276250 0.128250 0.181250
0.325125 0.128250 0.181250
0.374000 0.128250 0.181250
0.422875 0.128250 0.181250
0.471750 0.128250 0.181250
0.520625 0.128250 0.181250
0.670000 0.142500 0.181250
0.727500 0.142500 0.181250
0.785000 0.142500 0.181250
0.842500 0.142500 0.181250
0.900000 0.142500 0.181250
0.000000 0.183375 0.181250
0.031875 0.183375 0.181250
0.080750 0.183375 0.181250
0.129625 0.183375 0.181250
0.178500 0.183375 0.181250
0.227375 0.183375 0.181250
0.276250 0.183375 0.181250
0.325125 0.183375 0.181250
0.374000 0.183375 0.181250
0.422875 0.183375 0.181250
0.555000 0.203750 0.181250
0.612500 0.203750 0.181250
0.670000 0.203750 0.181250
0.727500 0.203750 0.181250
0.785000 0.203750 0.181250
0.842500 0.203750 0.181250
0.900000 0.203750 0.181250
0.000000 0.238500 0.181250
0.031875 0.238500 0.181250
0.080750 0.238500 0.181250
0.129625 0.238500 0.181250
0.178500 0.238500 0.181250
0.227375 0.238500 0.181250
0.276250 0.238500 0.181250
0.325125 0.238500 0.181250
0.440000 0.265000 0.181250
0.497500 0.265000 0.181250
0.555000 0.265000 0.181250
0.612500 0.265000 0.181250
0.670000 0.265000 0.181250
0.727500 0.265000 0.181250
0.785000 0.265000 0.181250
0.842500 0.265000 0.181250
0.900000 0.265000 0.181250
0.000000 0.293625 0.181250
0.031875 0.293625 0.181250
0.080750 0.293625 0.181250
0.129625 0.293625 0.181250
0.178500 0.293625 0.181250
0.227375 0.293625 0.181250
0.325000 0.326250 0.181250
0.382500 0.326250 0.181250
0.440000 0.326250 0.181250
0.497500 0.326250 0.181250
0.555000 0.326250 0.181250
0.612500 0.326250 0.181250
0.670000 0.326250 0.181250
0.727500 0.326250 0.181250
0.785000 0.326250 0.181250
0.842500 0.326250 0.181250
0.900000 0.326250 0.181250
0.000000 0.348750 0.181250
0.031875 0.348750 0.181250
0.080750 0.348750 0.181250
0.129625 0.348750 0.181250
0.210000 0.387500 0.181250
0.267500 0.387500 0.181250
0.325000 0.387500 0.181250
0.382500 0.387500 0.181250
0.440000 0.387500 0.181250
0.497500 0.387500 0.181250
0.555000 0.387500 0.181250
0.612500 0.387500 0.181250
0.670000 0.387500 0.181250
0.727500 0.387500 0.181250
0.785000 0.387500 0.181250
0.842500 0.387500 0.181250
0.900000 0.387500 0.181250
0.000000 0.403875 0.181250
0.031875 0.403875 0.181250
0.095000 0.448750 0.181250
0.152500 0.448750 0.181250
0.210000 0.448750 0.181250
0.267500 0.448750 0.181250
0.325000 0.448750 0.181250
0.382500 0.448750 0.181250
0.440000 0.448750 0.181250
0.497500 0.448750 0.181250
0.555000 0.448750 0.181250
0.612500 0.448750 0.181250
0.670000 0.448750 0.181250
0.727500 0.448750 0.181250
0.785000 0.448750 0.181250
0.842500 0.448750 0.181250
0.900000 0.448750 0.181250
0.000000 0.510000 0.181250
0.037500 0.510000 0.181250
0.095000 0.510000 0.181250
0.152500 0.510000 0.181250
0.210000 0.510000 0.181250
0.267500 0.510000 0.181250
0.325000 0.510000 0.181250
0.382500 0.510000 0.181250
0.440000 0.510000 0.181250
0.497500 0.510000 0.181250
0.555000 0.510000 0.181250
0.612500 0.510000 0.181250
0.670000 0.510000 0.181250
0.727500 0.510000 0.181250
0.785000 0.510000 0.181250
0.842500 0.510000 0.181250
0.900000 0.510000 0.181250
0.000000 0.571250 0.181250
0.037500 0.571250 0.181250
0.095000 0.571250 0.181250
0.152500 0.571250 0.181250
0.210000 0.571250 0.181250
0.267500 0.571250 0.181250
0.325000 0.571250 0.181250
0.382500 0.571250 0.181250
0.440000 0.571250 0.181250
0.497500 0.571250 0.181250
0.555000 0.571250 0.181250
0.612500 0.571250 0.181250
0.670000 0.571250 0.181250
0.727500 0.571250 0.181250
0.785000 0.571250 0.181250
0.842500 0.571250 0.181250
0.900000 0.571250 0.181250
0.000000 0.632500 0.181250
0.037500 0.632500 0.181250
0.095000 0.632500 0.181250
0.152500 0.632500 0.181250
0.210000 0.632500 0.181250
0.267500 0.632500 0.181250
0.325000 0.632500 0.181250
0.382500 0.632500 0.181250
0.440000 0.632500 0.181250
0.497500 0.632500 0.181250
0.555000 0.632500 0.181250
0.612500 0.632500 0.181250
0.670000 0.632500 0.181250
0.727500 0.632500 0.181250
0.785000 0.632500 0.181250
0.842500 0.632500 0.181250
0.900000 0.632500 0.181250
0.000000 0.693750 0.181250
0.037500 0.693750 0.181250
0.095000 0.693750 0.181250
0.152500 0.693750 0.181250
0.210000 0.693750 0.181250
0.267500 0.693750 0.181250
0.325000 0.693750 0.181250
0.382500 0.693750 0.181250
0.440000 0.693750 0.181250
0.497500 0.693750 0.181250
0.555000 0.693750 0.181250
0.612500 0.693750 0.181250
0.670000 0.693750 0.181250
0.727500 0.693750 0.181250
0.785000 0.693750 0.181250
0.842500 0.693750 0.181250
0.900000 0.693750 0.181250
0.000000 0.755000 0.181250
0.037500 0.755000 0.181250
0.095000 0.755000 0.181250
0.152500 0.755000 0.181250
0.210000 0.755000 0.181250
0.267500 0.755000 0.181250
0.325000 0.755000 0.181250
0.382500 0.755000 0.181250
0.440000 0.755000 0.181250
0.497500 0.755000 0.181250
0.555000 0.755000 0.181250
0.612500 0.755000 0.181250
0.670000 0.755000 0.181250
0.727500 0.755000 0.181250
0.785000 0.755000 0.181250
0.842500 0.755000 0.181250
0.900000 0.755000 0.181250
0.000000 0.816250 0.181250
0.037500 0.816250 0.181250
0.095000 0.816250 0.181250
0.152500 0.816250 0.181250
0.210000 0.816250 0.181250
0.267500 0.816250 0.181250
0.325000 0.816250 0.181250
0.382500 0.816250 0.181250
0.440000 0.816250 0.181250
0.497500 0.816250 0.181250
0.555000 0.816250 0.181250
0.612500 0.816250 0.181250
0.670000 0.816250 0.181250
0.727500 0.816250 0.181250
0.785000 0.816250 0.181250
0.842500 0.816250 0.181250
0.900000 0.816250 0.181250
0.000000 0.877500 0.181250
0.037500 0.877500 0.181250
0.095000 0.877500 0.181250
0.152500 0.877500 0.181250
0.210000 0.877500 0.181250
0.267500 0.877500 0.181250
0.325000 0.877500 0.181250
0.382500 0.877500 0.181250
0.440000 0.877500 0.181250
0.497500 0.877500 0.181250
0.555000 0.877500 0.181250
0.612500 0.877500 0.181250
0.670000 0.877500 0.181250
0.727500 0.877500 0.181250
0.785000 0.877500 0.181250
0.842500 0.877500 0.181250
0.900000 0.877500 0.181250
0.000000 0.938750 0.181250
0.037500 0.938750 0.181250
0.095000 0.938750 0.181250
0.152500 0.938750 0.181250
0.210000 0.938750 0.181250
0.267500 0.938750 0.181250
0.325000 0.938750 0.181250
0.382500 0.938750 0.181250
0.440000 0.938750 0.181250
0.497500 0.938750 0.181250
0.555000 0.938750 0.181250
0.612500 0.938750 0.181250
0.670000 0.938750 0.181250
0.727500 0.938750 0.181250
0.785000 0.938750 0.181250
0.842500 0.938750 0.181250
0.900000 0.938750 0.181250
0.000000 1.000000 0.181250
0.037500 1.000000 0.181250
0.095000 1.000000 0.181250
0.152500 1.000000 0.181250
0.210000 1.000000 0.181250
0.267500 1.000000 0.181250
0.325000 1.000000 0.181250
0.382500 1.000000 0.181250
0.440000 1.000000 0.181250
0.497500 1.000000 0.181250
0.555000 1.000000 0.181250
0.612500 1.000000 0.181250
0.670000 1.000000 0.181250
0.727500 1.000000 0.181250
0.785000 1.000000 0.181250
0.842500 1.000000 0.181250
0.900000 1.000000 0.181250
0.000000 0.018000 0.246875
0.031875 0.018000 0.246875
0.080750 0.018000 0.246875
0.129625 0.018000 0.246875
0.178500 0.018000 0.246875
0.227375 0.018000 0.246875
0.276250 0.018000 0.246875
0.325125 0.018000 0.246875
0.374000 0.018000 0.246875
0.422875 0.018000 0.246875
0.471750 0.018000 0.246875
0.520625 0.018000 0.246875
0.569500 0.018000 0.246875
0.618375 0.018000 0.246875
0.667250 0.018000 0.246875
0.842500 0.020000 0.246875
