assets/luts/cross_process.cube
# cross_process - 反差冲印（高对比鲜艳）
# Generated for video-dedup, size=17
TITLE "cross_process"
LUT_3D_SIZE 5
DOMAIN_MIN 0.0 0.0 0.0
DOMAIN_MAX 1.0 1.0 1.0
0.052168 0.000000 0.049797
0.200668 0.000000 0.049797
0.550000 0.000000 0.049797
0.899332 0.000000 0.049797
1.000000 0.000000 0.049797
0.052168 0.132426 0.049797
0.200668 0.132426 0.049797
0.550000 0.132426 0.049797
0.899332 0.132426 0.049797
1.000000 0.132426 0.049797
0.052168 0.450000 0.049797
0.200668 0.450000 0.049797
0.550000 0.450000 0.049797
0.899332 0.450000 0.049797
1.000000 0.450000 0.049797
0.052168 0.767574 0.049797
0.200668 0.767574 0.049797
0.550000 0.767574 0.049797
0.899332 0.767574 0.049797
1.000000 0.767574 0.049797
0.052168 0.902574 0.049797
0.200668 0.902574 0.049797
0.550000 0.902574 0.049797
0.899332 0.902574 0.049797
1.000000 0.902574 0.049797
0.052168 0.000000 0.191547
0.200668 0.000000 0.191547
0.550000 0.000000 0.191547
0.899332 0.000000 0.191547
1.000000 0.000000 0.191547
0.052168 0.132426 0.191547
0.200668 0.132426 0.191547
0.550000 0.132426 0.191547
0.899332 0.132426 0.191547
1.000000 0.132426 0.191547
0.052168 0.450000 0.191547
0.200668 0.450000 0.191547
0.550000 0.450000 0.191547
0.899332 0.450000 0.191547
1.000000 0.450000 0.191547
0.052168 0.767574 0.191547
0.200668 0.767574 0.191547
0.550000 0.767574 0.191547
0.899332 0.767574 0.191547
1.000000 0.767574 0.191547
0.052168 0.902574 0.191547
0.200668 0.902574 0.191547
0.550000 0.902574 0.191547
0.899332 0.902574 0.191547
1.000000 0.902574 0.191547
0.052168 0.000000 0.525000
0.200668 0.000000 0.525000
0.550000 0.000000 0.525000
0.899332 0.000000 0.525000
1.000000 0.000000 0.525000
0.052168 0.132426 0.525000
0.200668 0.132426 0.525000
0.550000 0.132426 0.525000
0.899332 0.132426 0.525000
1.000000 0.132426 0.525000
0.052168 0.450000 0.525000
0.200668 0.450000 0.525000
0.550000 0.450000 0.525000
0.899332 0.450000 0.525000
1.000000 0.450000 0.525000
0.052168 0.767574 0.525000
0.200668 0.767574 0.525000
0.550000 0.767574 0.525000
0.899332 0.767574 0.525000
1.000000 0.767574 0.525000
0.052168 0.902574 0.525000
0.200668 0.902574 0.525000
0.550000 0.902574 0.525000
0.899332 0.902574 0.525000
1.000000 0.902574 0.525000
0.052168 0.000000 0.858453
0.200668 0.000000 0.858453
0.550000 0.000000 0.858453
0.899332 0.000000 0.858453
1.000000 0.000000 0.858453
0.052168 0.132426 0.858453
0.200668 0.132426 0.858453
0.550000 0.132426 0.858453
0.899332 0.132426 0.858453
1.000000 0.132426 0.858453
0.052168 0.450000 0.858453
0.200668 0.450000 0.858453
0.550000 0.450000 0.858453
0.899332 0.450000 0.858453
1.000000 0.450000 0.858453
0.052168 0.767574 0.858453
0.200668 0.767574 0.858453
0.550000 0.767574 0.858453
0.899332 0.767574 0.858453
1.000000 0.767574 0.858453
0.052168 0.902574 0.858453
0.200668 0.902574 0.858453
0.550000 0.902574 0.858453
0.899332 0.902574 0.858453
1.000000 0.902574 0.858453
0.052168 0.000000 1.000000
0.200668 0.000000 1.000000
0.550000 0.000000 1.000000
0.899332 0.000000 1.000000
1.000000 0.000000 1.000000
0.052168 0.132426 1.000000
0.200668 0.132426 1.000000
0.550000 0.132426 1.000000
0.899332 0.132426 1.000000
1.000000 0.132426 1.000000
0.052168 0.450000 1.000000
0.200668 0.450000 1.000000
0.550000 0.450000 1.000000
0.899332 0.450000 1.000000
1.000000 0.450000 1.000000
0.052168 0.767574 1.000000
0.200668 0.767574 1.000000
0.550000 0.767574 1.000000
0.899332 0.767574 1.000000
1.000000 0.767574 1.000000
0.052168 0.902574 1.000000
0.200668 0.902574 1.000000
0.550000 0.902574 1.000000
0.899332 0.902574 1.000000
1.000000 0.902574 1.000000
