assets/luts/cross_process.cube
# cross_process - 反差冲印（高对比鲜艳）
# Generated for video-dedup, size=17
TITLE "cross_process"
LUT_3D_SIZE 9
DOMAIN_MIN 0.0 0.0 0.0
DOMAIN_MAX 1.0 1.0 1.0
0.052168 0.000000 0.049797
0.104884 0.000000 0.049797
0.200668 0.000000 0.049797
0.352903 0.000000 0.049797
0.550000 0.000000 0.049797
0.747097 0.000000 0.049797
0.899332 0.000000 0.049797
0.995116 0.000000 0.049797
1.000000 0.000000 0.049797
0.052168 0.045349 0.049797
0.104884 0.045349 0.049797
0.200668 0.045349 0.049797
0.352903 0.045349 0.049797
0.550000 0.045349 0.049797
0.747097 0.045349 0.049797
0.899332 0.045349 0.049797
0.995116 0.045349 0.049797
1.000000 0.045349 0.049797
0.052168 0.132426 0.049797
0.104884 0.132426 0.049797
0.200668 0.132426 0.049797
0.352903 0.132426 0.049797
0.550000 0.132426 0.049797
0.747097 0.132426 0.049797
0.899332 0.132426 0.049797
0.995116 0.132426 0.049797
1.000000 0.132426 0.049797
0.052168 0.270821 0.049797
0.104884 0.270821 0.049797
0.200668 0.270821 0.049797
0.352903 0.270821 0.049797
0.550000 0.270821 0.049797
0.747097 0.270821 0.049797
0.899332 0.270821 0.049797
0.995116 0.270821 0.049797
1.000000 0.270821 0.049797
0.052168 0.450000 0.049797
0.104884 0.450000 0.049797
0.200668 0.450000 0.049797
0.352903 0.450000 0.049797
0.550000 0.450000 0.049797
0.747097 0.450000 0.049797
0.899332 0.450000 0.049797
0.995116 0.450000 0.049797
1.000000 0.450000 0.049797
0.052168 0.629179 0.049797
0.104884 0.629179 0.049797
0.200668 0.629179 0.049797
0.352903 0.629179 0.049797
0.550000 0.629179 0.049797
0.747097 0.629179 0.049797
0.899332 0.629179 0.049797
0.995116 0.629179 0.049797
1.000000 0.629179 0.049797
0.052168 0.767574 0.049797
0.104884 0.767574 0.049797
0.200668 0.767574 0.049797
0.352903 0.767574 0.049797
0.550000 0.767574 0.049797
0.747097 0.767574 0.049797
0.899332 0.767574 0.049797
0.995116 0.767574 0.049797
1.000000 0.767574 0.049797
0.052168 0.854651 0.049797
0.104884 0.854651 0.049797
0.200668 0.854651 0.049797
0.352903 0.854651 0.049797
0.550000 0.854651 0.049797
0.747097 0.854651 0.049797
0.899332 0.854651 0.049797
0.995116 0.854651 0.049797
1.000000 0.854651 0.049797
0.052168 0.902574 0.049797
0.104884 0.902574 0.049797
0.200668 0.902574 0.049797
0.352903 0.902574 0.049797
0.550000 0.902574 0.049797
0.747097 0.902574 0.049797
0.899332 0.902574 0.049797
0.995116 0.902574 0.049797
1.000000 0.902574 0.049797
0.052168 0.000000 0.100117
0.104884 0.000000 0.100117
0.200668 0.000000 0.100117
0.352903 0.000000 0.100117
0.550000 0.000000 0.100117
0.747097 0.000000 0.100117
0.899332 0.000000 0.100117
0.995116 0.000000 0.100117
1.000000 0.000000 0.100117
0.052168 0.045349 0.100117
0.104884 0.045349 0.100117
0.200668 0.045349 0.100117
0.352903 0.045349 0.100117
0.550000 0.045349 0.100117
0.747097 0.045349 0.100117
0.899332 0.045349 0.100117
0.995116 0.045349 0.100117
1.000000 0.045349 0.100117
0.052168 0.132426 0.100117
0.104884 0.132426 0.100117
0.200668 0.132426 0.100117
0.352903 0.132426 0.100117
0.550000 0.132426 0.100117
0.747097 0.132426 0.100117
0.899332 0.132426 0.100117
0.995116 0.132426 0.100117
1.000000 0.132426 0.100117
0.052168 0.270821 0.100117
0.104884 0.270821 0.100117
0.200668 0.270821 0.100117
0.352903 0.270821 0.100117
0.550000 0.270821 0.100117
0.747097 0.270821 0.100117
0.899332 0.270821 0.100117
0.995116 0.270821 0.100117
1.000000 0.270821 0.100117
0.052168 0.450000 0.100117
0.104884 0.450000 0.100117
0.200668 0.450000 0.100117
0.352903 0.450000 0.100117
0.550000 0.450000 0.100117
0.747097 0.450000 0.100117
0.899332 0.450000 0.100117
0.995116 0.450000 0.100117
1.000000 0.450000 0.100117
0.052168 0.629179 0.100117
0.104884 0.629179 0.100117
0.200668 0.629179 0.100117
0.352903 0.629179 0.100117
0.550000 0.629179 0.100117
0.747097 0.629179 0.100117
0.899332 0.629179 0.100117
0.995116 0.629179 0.100117
1.000000 0.629179 0.100117
0.052168 0.767574 0.100117
0.104884 0.767574 0.100117
0.200668 0.767574 0.100117
0.352903 0.767574 0.100117
0.550000 0.767574 0.100117
0.747097 0.767574 0.100117
0.899332 0.767574 0.100117
0.995116 0.767574 0.100117
1.000000 0.767574 0.100117
0.052168 0.854651 0.100117
0.104884 0.854651 0.100117
0.200668 0.854651 0.100117
0.352903 0.854651 0.100117
0.550000 0.854651 0.100117
0.747097 0.854651 0.100117
0.899332 0.854651 0.100117
0.995116 0.854651 0.100117
1.000000 0.854651 0.100117
0.052168 0.902574 0.100117
0.104884 0.902574 0.100117
0.200668 0.902574 0.100117
0.352903 0.902574 0.100117
0.550000 0.902574 0.100117
0.747097 0.902574 0.100117
0.899332 0.902574 0.100117
0.995116 0.902574 0.100117
1.000000 0.902574 0.100117
0.052168 0.000000 0.191547
0.104884 0.000000 0.191547
0.200668 0.000000 0.191547
0.352903 0.000000 0.191547
0.550000 0.000000 0.191547
0.747097 0.000000 0.191547
0.899332 0.000000 0.191547
0.995116 0.000000 0.191547
1.000000 0.000000 0.191547
0.052168 0.045349 0.191547
0.104884 0.045349 0.191547
0.200668 0.045349 0.191547
0.352903 0.045349 0.191547
0.550000 0.045349 0.191547
0.747097 0.045349 0.191547
0.899332 0.045349 0.191547
0.995116 0.045349 0.191547
1.000000 0.045349 0.191547
0.052168 0.132426 0.191547
0.104884 0.132426 0.191547
0.200668 0.132426 0.191547
0.352903 0.132426 0.191547
0.550000 0.132426 0.191547
0.747097 0.132426 0.191547
0.899332 0.132426 0.191547
0.995116 0.132426 0.191547
1.000000 0.132426 0.191547
0.052168 0.270821 0.191547
0.104884 0.270821 0.191547
0.200668 0.270821 0.191547
0.352903 0.270821 0.191547
0.550000 0.270821 0.191547
0.747097 0.270821 0.191547
0.899332 0.270821 0.191547
0.995116 0.270821 0.191547
1.000000 0.270821 0.191547
0.052168 0.450000 0.191547
0.104884 0.450000 0.191547
0.200668 0.450000 0.191547
0.352903 0.450000 0.191547
0.550000 0.450000 0.191547
0.747097 0.450000 0.191547
0.899332 0.450000 0.191547
0.995116 0.450000 0.191547
1.000000 0.450000 0.191547
0.052168 0.629179 0.191547
0.104884 0.629179 0.191547
0.200668 0.629179 0.191547
0.352903 0.629179 0.191547
0.550000 0.629179 0.191547
0.747097 0.629179 0.191547
0.899332 0.629179 0.191547
0.995116 0.629179 0.191547
1.000000 0.629179 0.191547
0.052168 0.767574 0.191547
0.104884 0.767574 0.191547
0.200668 0.767574 0.191547
0.352903 0.767574 0.191547
0.550000 0.767574 0.191547
0.747097 0.767574 0.191547
0.899332 0.767574 0.191547
0.995116 0.767574 0.191547
1.000000 0.767574 0.191547
0.052168 0.854651 0.191547
0.104884 0.854651 0.191547
0.200668 0.854651 0.191547
0.352903 0.854651 0.191547
0.550000 0.854651 0.191547
0.747097 0.854651 0.191547
0.899332 0.854651 0.191547
0.995116 0.854651 0.191547
1.000000 0.854651 0.191547
0.052168 0.902574 0.191547
0.104884 0.902574 0.191547
0.200668 0.902574 0.191547
0.352903 0.902574 0.191547
0.550000 0.902574 0.191547
0.747097 0.902574 0.191547
0.899332 0.902574 0.191547
0.995116 0.902574 0.191547
1.000000 0.902574 0.191547
0.052168 0.000000 0.336862
0.104884 0.000000 0.336862
0.200668 0.000000 0.336862
0.352903 0.000000 0.336862
0.550000 0.000000 0.336862
0.747097 0.000000 0.336862
0.899332 0.000000 0.336862
0.995116 0.000000 0.336862
1.000000 0.000000 0.336862
0.052168 0.045349 0.336862
0.104884 0.045349 0.336862
0.200668 0.045349 0.336862
0.352903 0.045349 0.336862
0.550000 0.045349 0.336862
0.747097 0.045349 0.336862
0.899332 0.045349 0.336862
0.995116 0.045349 0.336862
1.000000 0.045349 0.336862
0.052168 0.132426 0.336862
0.104884 0.132426 0.336862
0.200668 0.132426 0.336862
0.352903 0.132426 0.336862
0.550000 0.132426 0.336862
0.747097 0.132426 0.336862
0.899332 0.132426 0.336862
0.995116 0.132426 0.336862
1.000000 0.132426 0.336862
0.052168 0.270821 0.336862
0.104884 0.270821 0.336862
0.200668 0.270821 0.336862
0.352903 0.270821 0.336862
0.550000 0.270821 0.336862
0.747097 0.270821 0.336862
0.899332 0.270821 0.336862
0.995116 0.270821 0.336862
1.000000 0.270821 0.336862
0.052168 0.450000 0.336862
0.104884 0.450000 0.336862
0.200668 0.450000 0.336862
0.352903 0.450000 0.336862
0.550000 0.450000 0.336862
0.747097 0.450000 0.336862
0.899332 0.450000 0.336862
0.995116 0.450000 0.336862
1.000000 0.450000 0.336862
0.052168 0.629179 0.336862
0.104884 0.629179 0.336862
0.200668 0.629179 0.336862
0.352903 0.629179 0.336862
0.550000 0.629179 0.336862
0.747097 0.629179 0.336862
0.899332 0.629179 0.336862
0.995116 0.629179 0.336862
1.000000 0.629179 0.336862
0.052168 0.767574 0.336862
0.104884 0.767574 0.336862
0.200668 0.767574 0.336862
0.352903 0.767574 0.336862
0.550000 0.767574 0.336862
0.747097 0.767574 0.336862
0.899332 0.767574 0.336862
0.995116 0.767574 0.336862
1.000000 0.767574 0.336862
0.052168 0.854651 0.336862
0.104884 0.854651 0.336862
0.200668 0.854651 0.336862
0.352903 0.854651 0.336862
0.550000 0.854651 0.336862
0.747097 0.854651 0.336862
0.899332 0.854651 0.336862
0.995116 0.854651 0.336862
1.000000 0.854651 0.336862
0.052168 0.902574 0.336862
0.104884 0.902574 0.336862
0.200668 0.902574 0.336862
0.352903 0.902574 0.336862
0.550000 0.902574 0.336862
0.747097 0.902574 0.336862
0.899332 0.902574 0.336862
0.995116 0.902574 0.336862
1.000000 0.902574 0.336862
0.052168 0.000000 0.525000
0.104884 0.000000 0.525000
0.200668 0.000000 0.525000
0.352903 0.000000 0.525000
0.550000 0.000000 0.525000
0.747097 0.000000 0.525000
0.899332 0.000000 0.525000
0.995116 0.000000 0.525000
1.000000 0.000000 0.525000
0.052168 0.045349 0.525000
0.104884 0.045349 0.525000
0.200668 0.045349 0.525000
0.352903 0.045349 0.525000
0.550000 0.045349 0.525000
0.747097 0.045349 0.525000
0.899332 0.045349 0.525000
0.995116 0.045349 0.525000
1.000000 0.045349 0.525000
0.052168 0.132426 0.525000
0.104884 0.132426 0.525000
0.200668 0.132426 0.525000
0.352903 0.132426 0.525000
0.550000 0.132426 0.525000
0.747097 0.132426 0.525000
0.899332 0.132426 0.525000
0.995116 0.132426 0.525000
1.000000 0.132426 0.525000
0.052168 0.270821 0.525000
0.104884 0.270821 0.525000
0.200668 0.270821 0.525000
0.352903 0.270821 0.525000
0.550000 0.270821 0.525000
0.747097 0.270821 0.525000
0.899332 0.270821 0.525000
0.995116 0.270821 0.525000
1.000000 0.270821 0.525000
0.052168 0.450000 0.525000
0.104884 0.450000 0.525000
0.200668 0.450000 0.525000
0.352903 0.450000 0.525000
0.550000 0.450000 0.525000
0.747097 0.450000 0.525000
0.899332 0.450000 0.525000
0.995116 0.450000 0.525000
1.000000 0.450000 0.525000
0.052168 0.629179 0.525000
0.104884 0.629179 0.525000
0.200668 0.629179 0.525000
0.352903 0.629179 0.525000
0.550000 0.629179 0.525000
0.747097 0.629179 0.525000
0.899332 0.629179 0.525000
0.995116 0.629179 0.525000
1.000000 0.629179 0.525000
0.052168 0.767574 0.525000
0.104884 0.767574 0.525000
0.200668 0.767574 0.525000
0.352903 0.767574 0.525000
0.550000 0.767574 0.525000
0.747097 0.767574 0.525000
0.899332 0.767574 0.525000
0.995116 0.767574 0.525000
1.000000 0.767574 0.525000
0.052168 0.854651 0.525000
0.104884 0.854651 0.525000
0.200668 0.854651 0.525000
0.352903 0.854651 0.525000
0.550000 0.854651 0.525000
0.747097 0.854651 0.525000
0.899332 0.854651 0.525000
0.995116 0.854651 0.525000
1.000000 0.854651 0.525000
0.052168 0.902574 0.525000
0.104884 0.902574 0.525000
0.200668 0.902574 0.525000
0.352903 0.902574 0.525000
0.550000 0.902574 0.525000
0.747097 0.902574 0.525000
0.899332 0.902574 0.525000
0.995116 0.902574 0.525000
1.000000 0.902574 0.525000
0.052168 0.000000 0.713138
0.104884 0.000000 0.713138
0.200668 0.000000 0.713138
0.352903 0.000000 0.713138
0.550000 0.000000 0.713138
0.747097 0.000000 0.713138
0.899332 0.000000 0.713138
0.995116 0.000000 0.713138
1.000000 0.000000 0.713138
0.052168 0.045349 0.713138
0.104884 0.045349 0.713138
0.200668 0.045349 0.713138
0.352903 0.045349 0.713138
0.550000 0.045349 0.713138
0.747097 0.045349 0.713138
0.899332 0.045349 0.713138
0.995116 0.045349 0.713138
1.000000 0.045349 0.713138
0.052168 0.132426 0.713138
0.104884 0.132426 0.713138
0.200668 0.132426 0.713138
0.352903 0.132426 0.713138
0.550000 0.132426 0.713138
0.747097 0.132426 0.713138
0.899332 0.132426 0.713138
0.995116 0.132426 0.713138
1.000000 0.132426 0.713138
0.052168 0.270821 0.713138
0.104884 0.270821 0.713138
0.200668 0.270821 0.713138
0.352903 0.270821 0.713138
0.550000 0.270821 0.713138
0.747097 0.270821 0.713138
0.899332 0.270821 0.713138
0.995116 0.270821 0.713138
1.000000 0.270821 0.713138
0.052168 0.450000 0.713138
0.104884 0.450000 0.713138
0.200668 0.450000 0.713138
0.352903 0.450000 0.713138
0.550000 0.450000 0.713138
0.747097 0.450000 0.713138
0.899332 0.450000 0.713138
0.995116 0.450000 0.713138
1.000000 0.450000 0.713138
0.052168 0.629179 0.713138
0.104884 0.629179 0.713138
0.200668 0.629179 0.713138
0.352903 0.629179 0.713138
0.550000 0.629179 0.713138
0.747097 0.629179 0.713138
0.899332 0.629179 0.713138
0.995116 0.629179 0.713138
1.000000 0.629179 0.713138
0.052168 0.767574 0.713138
0.104884 0.767574 0.713138
0.200668 0.767574 0.713138
0.352903 0.767574 0.713138
0.550000 0.767574 0.713138
0.747097 0.767574 0.713138
0.899332 0.767574 0.713138
0.995116 0.767574 0.713138
1.000000 0.767574 0.713138
0.052168 0.854651 0.713138
0.104884 0.854651 0.713138
0.200668 0.854651 0.713138
0.352903 0.854651 0.713138
0.550000 0.854651 0.713138
0.747097 0.854651 0.713138
0.899332 0.854651 0.713138
0.995116 0.854651 0.713138
1.000000 0.854651 0.713138
0.052168 0.902574 0.713138
0.104884 0.902574 0.713138
0.200668 0.902574 0.713138
0.352903 0.902574 0.713138
0.550000 0.902574 0.713138
0.747097 0.902574 0.713138
0.899332 0.902574 0.713138
0.995116 0.902574 0.713138
1.000000 0.902574 0.713138
0.052168 0.000000 0.858453
0.104884 0.000000 0.858453
0.200668 0.000000 0.858453
0.352903 0.000000 0.858453
0.550000 0.000000 0.858453
0.747097 0.000000 0.858453
0.899332 0.000000 0.858453
0.995116 0.000000 0.858453
1.000000 0.000000 0.858453
0.052168 0.045349 0.858453
0.104884 0.045349 0.858453
0.200668 0.045349 0.858453
0.352903 0.045349 0.858453
0.550000 0.045349 0.858453
0.747097 0.045349 0.858453
0.899332 0.045349 0.858453
0.995116 0.045349 0.858453
1.000000 0.045349 0.858453
0.052168 0.132426 0.858453
0.104884 0.132426 0.858453
0.200668 0.132426 0.858453
0.352903 0.132426 0.858453
0.550000 0.132426 0.858453
0.747097 0.132426 0.858453
0.899332 0.132426 0.858453
0.995116 0.132426 0.858453
1.000000 0.132426 0.858453
0.052168 0.270821 0.858453
0.104884 0.270821 0.858453
0.200668 0.270821 0.858453
0.352903 0.270821 0.858453
0.550000 0.270821 0.858453
0.747097 0.270821 0.858453
0.899332 0.270821 0.858453
0.995116 0.270821 0.858453
1.000000 0.270821 0.858453
0.052168 0.450000 0.858453
0.104884 0.450000 0.858453
0.200668 0.450000 0.858453
0.352903 0.450000 0.858453
0.550000 0.450000 0.858453
0.747097 0.450000 0.858453
0.899332 0.450000 0.858453
0.995116 0.450000 0.858453
1.000000 0.450000 0.858453
0.052168 0.629179 0.858453
0.104884 0.629179 0.858453
0.200668 0.629179 0.858453
0.352903 0.629179 0.858453
0.550000 0.629179 0.858453
0.747097 0.629179 0.858453
0.899332 0.629179 0.858453
0.995116 0.629179 0.858453
1.000000 0.629179 0.858453
0.052168 0.767574 0.858453
0.104884 0.767574 0.858453
0.200668 0.767574 0.858453
0.352903 0.767574 0.858453
0.550000 0.767574 0.858453
0.747097 0.767574 0.858453
0.899332 0.767574 0.858453
0.995116 0.767574 0.858453
1.000000 0.767574 0.858453
0.052168 0.854651 0.858453
0.104884 0.854651 0.858453
0.200668 0.854651 0.858453
0.352903 0.854651 0.858453
0.550000 0.854651 0.858453
0.747097 0.854651 0.858453
0.899332 0.854651 0.858453
0.995116 0.854651 0.858453
1.000000 0.854651 0.858453
0.052168 0.902574 0.858453
0.104884 0.902574 0.858453
0.200668 0.902574 0.858453
0.352903 0.902574 0.858453
0.550000 0.902574 0.858453
0.747097 0.902574 0.858453
0.899332 0.902574 0.858453
0.995116 0.902574 0.858453
1.000000 0.902574 0.858453
0.052168 0.000000 0.949883
0.104884 0.000000 0.949883
0.200668 0.000000 0.949883
0.352903 0.000000 0.949883
0.550000 0.000000 0.949883
0.747097 0.000000 0.949883
0.899332 0.000000 0.949883
0.995116 0.000000 0.949883
1.000000 0.000000 0.949883
0.052168 0.045349 0.949883
0.104884 0.045349 0.949883
0.200668 0.045349 0.949883
0.352903 0.045349 0.949883
0.550000 0.045349 0.949883
0.747097 0.045349 0.949883
0.899332 0.045349 0.949883
0.995116 0.045349 0.949883
1.000000 0.045349 0.949883
0.052168 0.132426 0.949883
0.104884 0.132426 0.949883
0.200668 0.132426 0.949883
0.352903 0.132426 0.949883
0.550000 0.132426 0.949883
0.747097 0.132426 0.949883
0.899332 0.132426 0.949883
0.995116 0.132426 0.949883
1.000000 0.132426 0.949883
0.052168 0.270821 0.949883
0.104884 0.270821 0.949883
0.200668 0.270821 0.949883
0.352903 0.270821 0.949883
0.550000 0.270821 0.949883
0.747097 0.270821 0.949883
0.899332 0.270821 0.949883
0.995116 0.270821 0.949883
1.000000 0.270821 0.949883
0.052168 0.450000 0.949883
0.104884 0.450000 0.949883
0.200668 0.450000 0.949883
0.352903 0.450000 0.949883
0.550000 0.450000 0.949883
0.747097 0.450000 0.949883
0.899332 0.450000 0.949883
0.995116 0.450000 0.949883
1.000000 0.450000 0.949883
0.052168 0.629179 0.949883
0.104884 0.629179 0.949883
0.200668 0.629179 0.949883
0.352903 0.629179 0.949883
0.550000 0.629179 0.949883
0.747097 0.629179 0.949883
0.899332 0.629179 0.949883
0.995116 0.629179 0.949883
1.000000 0.629179 0.949883
0.052168 0.767574 0.949883
0.104884 0.767574 0.949883
0.200668 0.767574 0.949883
0.352903 0.767574 0.949883
0.550000 0.767574 0.949883
0.747097 0.767574 0.949883
0.899332 0.767574 0.949883
0.995116 0.767574 0.949883
1.000000 0.767574 0.949883
0.052168 0.854651 0.949883
0.104884 0.854651 0.949883
0.200668 0.854651 0.949883
0.352903 0.854651 0.949883
0.550000 0.854651 0.949883
0.747097 0.854651 0.949883
0.899332 0.854651 0.949883
0.995116 0.854651 0.949883
1.000000 0.854651 0.949883
0.052168 0.902574 0.949883
0.104884 0.902574 0.949883
0.200668 0.902574 0.949883
0.352903 0.902574 0.949883
0.550000 0.902574 0.949883
0.747097 0.902574 0.949883
0.899332 0.902574 0.949883
0.995116 0.902574 0.949883
1.000000 0.902574 0.949883
0.052168 0.000000 1.000000
0.104884 0.000000 1.000000
0.200668 0.000000 1.000000
0.352903 0.000000 1.000000
0.550000 0.000000 1.000000
0.747097 0.000000 1.000000
0.899332 0.000000 1.000000
0.995116 0.000000 1.000000
1.000000 0.000000 1.000000
0.052168 0.045349 1.000000
0.104884 0.045349 1.000000
0.200668 0.045349 1.000000
0.352903 0.045349 1.000000
0.550000 0.045349 1.000000
0.747097 0.045349 1.000000
0.899332 0.045349 1.000000
0.995116 0.045349 1.000000
1.000000 0.045349 1.000000
0.052168 0.132426 1.000000
0.104884 0.132426 1.000000
0.200668 0.132426 1.000000
0.352903 0.132426 1.000000
0.550000 0.132426 1.000000
0.747097 0.132426 1.000000
0.899332 0.132426 1.000000
0.995116 0.132426 1.000000
1.000000 0.132426 1.000000
0.052168 0.270821 1.000000
0.104884 0.270821 1.000000
0.200668 0.270821 1.000000
0.352903 0.270821 1.000000
0.550000 0.270821 1.000000
0.747097 0.270821 1.000000
0.899332 0.270821 1.000000
0.995116 0.270821 1.000000
1.000000 0.270821 1.000000
0.052168 0.450000 1.000000
0.104884 0.450000 1.000000
0.200668 0.450000 1.000000
0.352903 0.450000 1.000000
0.550000 0.450000 1.000000
0.747097 0.450000 1.000000
0.899332 0.450000 1.000000
0.995116 0.450000 1.000000
1.000000 0.450000 1.000000
0.052168 0.629179 1.000000
0.104884 0.629179 1.000000
0.200668 0.629179 1.000000
0.352903 0.629179 1.000000
0.550000 0.629179 1.000000
0.747097 0.629179 1.000000
0.899332 0.629179 1.000000
0.995116 0.629179 1.000000
1.000000 0.629179 1.000000
0.052168 0.767574 1.000000
0.104884 0.767574 1.000000
0.200668 0.767574 1.000000
0.352903 0.767574 1.000000
0.550000 0.767574 1.000000
0.747097 0.767574 1.000000
0.899332 0.767574 1.000000
0.995116 0.767574 1.000000
1.000000 0.767574 1.000000
0.052168 0.854651 1.000000
0.104884 0.854651 1.000000
0.200668 0.854651 1.000000
0.352903 0.854651 1.000000
0.550000 0.854651 1.000000
0.747097 0.854651 1.000000
0.899332 0.854651 1.000000
0.995116 0.854651 1.000000
1.000000 0.854651 1.000000
0.052168 0.902574 1.000000
0.104884 0.902574 1.000000
0.200668 0.902574 1.000000
0.352903 0.902574 1.000000
0.550000 0.902574 1.000000
0.747097 0.902574 1.000000
0.899332 0.902574 1.000000
0.995116 0.902574 1.000000
1.000000 0.902574 1.000000
