assets/luts/cross_process.cube
# cross_process - 反差冲印（高对比鲜艳）
# Generated for video-dedup, size=17
TITLE "cross_process"
LUT_3D_SIZE 17
DOMAIN_MIN 0.0 0.0 0.0
DOMAIN_MAX 1.0 1.0 1.0
0.052168 0.000000 0.049797
0.074301 0.000000 0.049797
0.104884 0.000000 0.049797
0.146261 0.000000 0.049797
0.200668 0.000000 0.049797
0.269594 0.000000 0.049797
0.352903 0.000000 0.049797
0.448067 0.000000 0.049797
0.550000 0.000000 0.049797
0.651933 0.000000 0.049797
0.747097 0.000000 0.049797
0.830406 0.000000 0.049797
0.899332 0.000000 0.049797
0.953739 0.000000 0.049797
0.995116 0.000000 0.049797
1.000000 0.000000 0.049797
1.000000 0.000000 0.049797
0.052168 0.017547 0.049797
0.074301 0.017547 0.049797
0.104884 0.017547 0.049797
0.146261 0.017547 0.049797
0.200668 0.017547 0.049797
0.269594 0.017547 0.049797
0.352903 0.017547 0.049797
0.448067 0.017547 0.049797
0.550000 0.017547 0.049797
0.651933 0.017547 0.049797
0.747097 0.017547 0.049797
0.830406 0.017547 0.049797
0.899332 0.017547 0.049797
0.953739 0.017547 0.049797
0.995116 0.017547 0.049797
1.000000 0.017547 0.049797
1.000000 0.017547 0.049797
0.052168 0.045349 0.049797
0.074301 0.045349 0.049797
0.104884 0.045349 0.049797
0.146261 0.045349 0.049797
0.200668 0.045349 0.049797
0.269594 0.045349 0.049797
0.352903 0.045349 0.049797
0.448067 0.045349 0.049797
0.550000 0.045349 0.049797
0.651933 0.045349 0.049797
0.747097 0.045349 0.049797
0.830406 0.045349 0.049797
0.899332 0.045349 0.049797
0.953739 0.045349 0.049797
0.995116 0.045349 0.049797
1.000000 0.045349 0.049797
1.000000 0.045349 0.049797
0.052168 0.082964 0.049797
0.074301 0.082964 0.049797
0.104884 0.082964 0.049797
0.146261 0.082964 0.049797
0.200668 0.082964 0.049797
0.269594 0.082964 0.049797
0.352903 0.082964 0.049797
0.448067 0.082964 0.049797
0.550000 0.082964 0.049797
0.651933 0.082964 0.049797
0.747097 0.082964 0.049797
0.830406 0.082964 0.049797
0.899332 0.082964 0.049797
0.953739 0.082964 0.049797
0.995116 0.082964 0.049797
1.000000 0.082964 0.049797
1.000000 0.082964 0.049797
0.052168 0.132426 0.049797
0.074301 0.132426 0.049797
0.104884 0.132426 0.049797
0.146261 0.132426 0.049797
0.200668 0.132426 0.049797
0.269594 0.132426 0.049797
0.352903 0.132426 0.049797
0.448067 0.132426 0.049797
0.550000 0.132426 0.049797
0.651933 0.132426 0.049797
0.747097 0.132426 0.049797
0.830406 0.132426 0.049797
0.899332 0.132426 0.049797
0.953739 0.132426 0.049797
0.995116 0.132426 0.049797
1.000000 0.132426 0.049797
1.000000 0.132426 0.049797
0.052168 0.195085 0.049797
0.074301 0.195085 0.049797
0.104884 0.195085 0.049797
0.146261 0.195085 0.049797
0.200668 0.195085 0.049797
0.269594 0.195085 0.049797
0.352903 0.195085 0.049797
0.448067 0.195085 0.049797
0.550000 0.195085 0.049797
0.651933 0.195085 0.049797
0.747097 0.195085 0.049797
0.830406 0.195085 0.049797
0.899332 0.195085 0.049797
0.953739 0.195085 0.049797
0.995116 0.195085 0.049797
1.000000 0.195085 0.049797
1.000000 0.195085 0.049797
0.052168 0.270821 0.049797
0.074301 0.270821 0.049797
0.104884 0.270821 0.049797
0.146261 0.270821 0.049797
0.200668 0.270821 0.049797
0.269594 0.270821 0.049797
0.352903 0.270821 0.049797
0.448067 0.270821 0.049797
0.550000 0.270821 0.049797
0.651933 0.270821 0.049797
0.747097 0.270821 0.049797
0.830406 0.270821 0.049797
0.899332 0.270821 0.049797
0.953739 0.270821 0.049797
0.995116 0.270821 0.049797
1.000000 0.270821 0.049797
1.000000 0.270821 0.049797
0.052168 0.357333 0.049797
0.074301 0.357333 0.049797
0.104884 0.357333 0.049797
0.146261 0.357333 0.049797
0.200668 0.357333 0.049797
0.269594 0.357333 0.049797
0.352903 0.357333 0.049797
0.448067 0.357333 0.049797
0.550000 0.357333 0.049797
0.651933 0.357333 0.049797
0.747097 0.357333 0.049797
0.830406 0.357333 0.049797
0.899332 0.357333 0.049797
0.953739 0.357333 0.049797
0.995116 0.357333 0.049797
1.000000 0.357333 0.049797
1.000000 0.357333 0.049797
0.052168 0.450000 0.049797
0.074301 0.450000 0.049797
0.104884 0.450000 0.049797
0.146261 0.450000 0.049797
0.200668 0.450000 0.049797
0.269594 0.450000 0.049797
0.352903 0.450000 0.049797
0.448067 0.450000 0.049797
0.550000 0.450000 0.049797
0.651933 0.450000 0.049797
0.747097 0.450000 0.049797
0.830406 0.450000 0.049797
0.899332 0.450000 0.049797
0.953739 0.450000 0.049797
0.995116 0.450000 0.049797
1.000000 0.450000 0.049797
1.000000 0.450000 0.049797
0.052168 0.542667 0.049797
0.074301 0.542667 0.049797
0.104884 0.542667 0.049797
0.146261 0.542667 0.049797
0.200668 0.542667 0.049797
0.269594 0.542667 0.049797
0.352903 0.542667 0.049797
0.448067 0.542667 0.049797
0.550000 0.542667 0.049797
0.651933 0.542667 0.049797
0.747097 0.542667 0.049797
0.830406 0.542667 0.049797
0.899332 0.542667 0.049797
0.953739 0.542667 0.049797
0.995116 0.542667 0.049797
1.000000 0.542667 0.049797
1.000000 0.542667 0.049797
0.052168 0.629179 0.049797
0.074301 0.629179 0.049797
0.104884 0.629179 0.049797
0.146261 0.629179 0.049797
0.200668 0.629179 0.049797
0.269594 0.629179 0.049797
0.352903 0.629179 0.049797
0.448067 0.629179 0.049797
0.550000 0.629179 0.049797
0.651933 0.629179 0.049797
0.747097 0.629179 0.049797
0.830406 0.629179 0.049797
0.899332 0.629179 0.049797
0.953739 0.629179 0.049797
0.995116 0.629179 0.049797
1.000000 0.629179 0.049797
1.000000 0.629179 0.049797
0.052168 0.704915 0.049797
0.074301 0.704915 0.049797
0.104884 0.704915 0.049797
0.146261 0.704915 0.049797
0.200668 0.704915 0.049797
0.269594 0.704915 0.049797
0.352903 0.704915 0.049797
0.448067 0.704915 0.049797
0.550000 0.704915 0.049797
0.651933 0.704915 0.049797
0.747097 0.704915 0.049797
0.830406 0.704915 0.049797
0.899332 0.704915 0.049797
0.953739 0.704915 0.049797
0.995116 0.704915 0.049797
1.000000 0.704915 0.049797
1.000000 0.704915 0.049797
0.052168 0.767574 0.049797
0.074301 0.767574 0.049797
0.104884 0.767574 0.049797
0.146261 0.767574 0.049797
0.200668 0.767574 0.049797
0.269594 0.767574 0.049797
0.352903 0.767574 0.049797
0.448067 0.767574 0.049797
0.550000 0.767574 0.049797
0.651933 0.767574 0.049797
0.747097 0.767574 0.049797
0.830406 0.767574 0.049797
0.899332 0.767574 0.049797
0.953739 0.767574 0.049797
0.995116 0.767574 0.049797
1.000000 0.767574 0.049797
1.000000 0.767574 0.049797
0.052168 0.817036 0.049797
0.074301 0.817036 0.049797
0.104884 0.817036 0.049797
0.146261 0.817036 0.049797
0.200668 0.817036 0.049797
0.269594 0.817036 0.049797
0.352903 0.817036 0.049797
0.448067 0.817036 0.049797
0.550000 0.817036 0.049797
0.651933 0.817036 0.049797
0.747097 0.817036 0.049797
0.830406 0.817036 0.049797
0.899332 0.817036 0.049797
0.953739 0.817036 0.049797
0.995116 0.817036 0.049797
1.000000 0.817036 0.049797
1.000000 0.817036 0.049797
0.052168 0.854651 0.049797
0.074301 0.854651 0.049797
0.104884 0.854651 0.049797
0.146261 0.854651 0.049797
0.200668 0.854651 0.049797
0.269594 0.854651 0.049797
0.352903 0.854651 0.049797
0.448067 0.854651 0.049797
0.550000 0.854651 0.049797
0.651933 0.854651 0.049797
0.747097 0.854651 0.049797
0.830406 0.854651 0.049797
0.899332 0.854651 0.049797
0.953739 0.854651 0.049797
0.995116 0.854651 0.049797
1.000000 0.854651 0.049797
1.000000 0.854651 0.049797
0.052168 0.882453 0.049797
0.074301 0.882453 0.049797
0.104884 0.882453 0.049797
0.146261 0.882453 0.049797
0.200668 0.882453 0.049797
0.269594 0.882453 0.049797
0.352903 0.882453 0.049797
0.448067 0.882453 0.049797
0.550000 0.882453 0.049797
0.651933 0.882453 0.049797
0.747097 0.882453 0.049797
0.830406 0.882453 0.049797
0.899332 0.882453 0.049797
0.953739 0.882453 0.049797
0.995116 0.882453 0.049797
1.000000 0.882453 0.049797
1.000000 0.882453 0.049797
0.052168 0.902574 0.049797
0.074301 0.902574 0.049797
0.104884 0.902574 0.049797
0.146261 0.902574 0.049797
0.200668 0.902574 0.049797
0.269594 0.902574 0.049797
0.352903 0.902574 0.049797
0.448067 0.902574 0.049797
0.550000 0.902574 0.049797
0.651933 0.902574 0.049797
0.747097 0.902574 0.049797
0.830406 0.902574 0.049797
0.899332 0.902574 0.049797
0.953739 0.902574 0.049797
0.995116 0.902574 0.049797
1.000000 0.902574 0.049797
1.000000 0.902574 0.049797
0.052168 0.000000 0.070924
0.074301 0.000000 0.070924
0.104884 0.000000 0.070924
0.146261 0.000000 0.070924
0.200668 0.000000 0.070924
0.269594 0.000000 0.070924
0.352903 0.000000 0.070924
0.448067 0.000000 0.070924
0.550000 0.000000 0.070924
0.651933 0.000000 0.070924
0.747097 0.000000 0.070924
0.830406 0.000000 0.070924
0.899332 0.000000 0.070924
0.953739 0.000000 0.070924
0.995116 0.000000 0.070924
1.000000 0.000000 0.070924
1.000000 0.000000 0.070924
0.052168 0.017547 0.070924
0.074301 0.017547 0.070924
0.104884 0.017547 0.070924
0.146261 0.017547 0.070924
0.200668 0.017547 0.070924
0.269594 0.017547 0.070924
0.352903 0.017547 0.070924
0.448067 0.017547 0.070924
0.550000 0.017547 0.070924
0.651933 0.017547 0.070924
0.747097 0.017547 0.070924
0.830406 0.017547 0.070924
0.899332 0.017547 0.070924
0.953739 0.017547 0.070924
0.995116 0.017547 0.070924
1.000000 0.017547 0.070924
1.000000 0.017547 0.070924
0.052168 0.045349 0.070924
0.074301 0.045349 0.070924
0.104884 0.045349 0.070924
0.146261 0.045349 0.070924
0.200668 0.045349 0.070924
0.269594 0.045349 0.070924
0.352903 0.045349 0.070924
0.448067 0.045349 0.070924
0.550000 0.045349 0.070924
0.651933 0.045349 0.070924
0.747097 0.045349 0.070924
0.830406 0.045349 0.070924
0.899332 0.045349 0.070924
0.953739 0.045349 0.070924
0.995116 0.045349 0.070924
1.000000 0.045349 0.070924
1.000000 0.045349 0.070924
0.052168 0.082964 0.070924
0.074301 0.082964 0.070924
0.104884 0.082964 0.070924
0.146261 0.082964 0.070924
0.200668 0.082964 0.070924
0.269594 0.082964 0.070924
0.352903 0.082964 0.070924
0.448067 0.082964 0.070924
0.550000 0.082964 0.070924
0.651933 0.082964 0.070924
0.747097 0.082964 0.070924
0.830406 0.082964 0.070924
0.899332 0.082964 0.070924
0.953739 0.082964 0.070924
0.995116 0.082964 0.070924
1.000000 0.082964 0.070924
1.000000 0.082964 0.070924
0.052168 0.132426 0.070924
0.074301 0.132426 0.070924
0.104884 0.132426 0.070924
0.146261 0.132426 0.070924
0.200668 0.132426 0.070924
0.269594 0.132426 0.070924
0.352903 0.132426 0.070924
0.448067 0.132426 0.070924
0.550000 0.132426 0.070924
0.651933 0.132426 0.070924
0.747097 0.132426 0.070924
0.830406 0.132426 0.070924
0.899332 0.132426 0.070924
0.953739 0.132426 0.070924
0.995116 0.132426 0.070924
1.000000 0.132426 0.070924
1.000000 0.132426 0.070924
0.052168 0.195085 0.070924
0.074301 0.195085 0.070924
0.104884 0.195085 0.070924
0.146261 0.195085 0.070924
0.200668 0.195085 0.070924
0.269594 0.195085 0.070924
0.352903 0.195085 0.070924
0.448067 0.195085 0.070924
0.550000 0.195085 0.070924
0.651933 0.195085 0.070924
0.747097 0.195085 0.070924
0.830406 0.195085 0.070924
0.899332 0.195085 0.070924
0.953739 0.195085 0.070924
0.995116 0.195085 0.070924
1.000000 0.195085 0.070924
1.000000 0.195085 0.070924
0.052168 0.270821 0.070924
0.074301 0.270821 0.070924
0.104884 0.270821 0.070924
0.146261 0.270821 0.070924
0.200668 0.270821 0.070924
0.269594 0.270821 0.070924
0.352903 0.270821 0.070924
0.448067 0.270821 0.070924
0.550000 0.270821 0.070924
0.651933 0.270821 0.070924
0.747097 0.270821 0.070924
0.830406 0.270821 0.070924
0.899332 0.270821 0.070924
0.953739 0.270821 0.070924
0.995116 0.270821 0.070924
1.000000 0.270821 0.070924
1.000000 0.270821 0.070924
0.052168 0.357333 0.070924
0.074301 0.357333 0.070924
0.104884 0.357333 0.070924
0.146261 0.357333 0.070924
0.200668 0.357333 0.070924
0.269594 0.357333 0.070924
0.352903 0.357333 0.070924
0.448067 0.357333 0.070924
0.550000 0.357333 0.070924
0.651933 0.357333 0.070924
0.747097 0.357333 0.070924
0.830406 0.357333 0.070924
0.899332 0.357333 0.070924
0.953739 0.357333 0.070924
0.995116 0.357333 0.070924
1.000000 0.357333 0.070924
1.000000 0.357333 0.070924
0.052168 0.450000 0.070924
0.074301 0.450000 0.070924
0.104884 0.450000 0.070924
0.146261 0.450000 0.070924
0.200668 0.450000 0.070924
0.269594 0.450000 0.070924
0.352903 0.450000 0.070924
0.448067 0.450000 0.070924
0.550000 0.450000 0.070924
0.651933 0.450000 0.070924
0.747097 0.450000 0.070924
0.830406 0.450000 0.070924
0.899332 0.450000 0.070924
0.953739 0.450000 0.070924
0.995116 0.450000 0.070924
1.000000 0.450000 0.070924
1.000000 0.450000 0.070924
0.052168 0.542667 0.070924
0.074301 0.542667 0.070924
0.104884 0.542667 0.070924
0.146261 0.542667 0.070924
0.200668 0.542667 0.070924
0.269594 0.542667 0.070924
0.352903 0.542667 0.070924
0.448067 0.542667 0.070924
0.550000 0.542667 0.070924
0.651933 0.542667 0.070924
0.747097 0.542667 0.070924
0.830406 0.542667 0.070924
0.899332 0.542667 0.070924
0.953739 0.542667 0.070924
0.995116 0.542667 0.070924
1.000000 0.542667 0.070924
1.000000 0.542667 0.070924
0.052168 0.629179 0.070924
0.074301 0.629179 0.070924
0.104884 0.629179 0.070924
0.146261 0.629179 0.070924
0.200668 0.629179 0.070924
0.269594 0.629179 0.070924
0.352903 0.629179 0.070924
0.448067 0.629179 0.070924
0.550000 0.629179 0.070924
0.651933 0.629179 0.070924
0.747097 0.629179 0.070924
0.830406 0.629179 0.070924
0.899332 0.629179 0.070924
0.953739 0.629179 0.070924
0.995116 0.629179 0.070924
1.000000 0.629179 0.070924
1.000000 0.629179 0.070924
0.052168 0.704915 0.070924
0.074301 0.704915 0.070924
0.104884 0.704915 0.070924
0.146261 0.704915 0.070924
0.200668 0.704915 0.070924
0.269594 0.704915 0.070924
0.352903 0.704915 0.070924
0.448067 0.704915 0.070924
0.550000 0.704915 0.070924
0.651933 0.704915 0.070924
0.747097 0.704915 0.070924
0.830406 0.704915 0.070924
0.899332 0.704915 0.070924
0.953739 0.704915 0.070924
0.995116 0.704915 0.070924
1.000000 0.704915 0.070924
1.000000 0.704915 0.070924
0.052168 0.767574 0.070924
0.074301 0.767574 0.070924
0.104884 0.767574 0.070924
0.146261 0.767574 0.070924
0.200668 0.767574 0.070924
0.269594 0.767574 0.070924
0.352903 0.767574 0.070924
0.448067 0.767574 0.070924
0.550000 0.767574 0.070924
0.651933 0.767574 0.070924
0.747097 0.767574 0.070924
0.830406 0.767574 0.070924
0.899332 0.767574 0.070924
0.953739 0.767574 0.070924
0.995116 0.767574 0.070924
1.000000 0.767574 0.070924
1.000000 0.767574 0.070924
0.052168 0.817036 0.070924
0.074301 0.817036 0.070924
0.104884 0.817036 0.070924
0.146261 0.817036 0.070924
0.200668 0.817036 0.070924
0.269594 0.817036 0.070924
0.352903 0.817036 0.070924
0.448067 0.817036 0.070924
0.550000 0.817036 0.070924
0.651933 0.817036 0.070924
0.747097 0.817036 0.070924
0.830406 0.817036 0.070924
0.899332 0.817036 0.070924
0.953739 0.817036 0.070924
0.995116 0.817036 0.070924
1.000000 0.817036 0.070924
1.000000 0.817036 0.070924
0.052168 0.854651 0.070924
0.074301 0.854651 0.070924
0.104884 0.854651 0.070924
0.146261 0.854651 0.070924
0.200668 0.854651 0.070924
0.269594 0.854651 0.070924
0.352903 0.854651 0.070924
0.448067 0.854651 0.070924
0.550000 0.854651 0.070924
0.651933 0.854651 0.070924
0.747097 0.854651 0.070924
0.830406 0.854651 0.070924
0.899332 0.854651 0.070924
0.953739 0.854651 0.070924
0.995116 0.854651 0.070924
1.000000 0.854651 0.070924
1.000000 0.854651 0.070924
0.052168 0.882453 0.070924
0.074301 0.882453 0.070924
0.104884 0.882453 0.070924
0.146261 0.882453 0.070924
0.200668 0.882453 0.070924
0.269594 0.882453 0.070924
0.352903 0.882453 0.070924
0.448067 0.882453 0.070924
0.550000 0.882453 0.070924
0.651933 0.882453 0.070924
0.747097 0.882453 0.070924
0.830406 0.882453 0.070924
0.899332 0.882453 0.070924
0.953739 0.882453 0.070924
0.995116 0.882453 0.070924
1.000000 0.882453 0.070924
1.000000 0.882453 0.070924
0.052168 0.902574 0.070924
0.074301 0.902574 0.070924
0.104884 0.902574 0.070924
0.146261 0.902574 0.070924
0.200668 0.902574 0.070924
0.269594 0.902574 0.070924
0.352903 0.902574 0.070924
0.448067 0.902574 0.070924
0.550000 0.902574 0.070924
0.651933 0.902574 0.070924
0.747097 0.902574 0.070924
0.830406 0.902574 0.070924
0.899332 0.902574 0.070924
0.953739 0.902574 0.070924
0.995116 0.902574 0.070924
1.000000 0.902574 0.070924
1.000000 0.902574 0.070924
0.052168 0.000000 0.100117
0.074301 0.000000 0.100117
0.104884 0.000000 0.100117
0.146261 0.000000 0.100117
0.200668 0.000000 0.100117
0.269594 0.000000 0.100117
0.352903 0.000000 0.100117
0.448067 0.000000 0.100117
0.550000 0.000000 0.100117
0.651933 0.000000 0.100117
0.747097 0.000000 0.100117
0.830406 0.000000 0.100117
0.899332 0.000000 0.100117
0.953739 0.000000 0.100117
0.995116 0.000000 0.100117
1.000000 0.000000 0.100117
1.000000 0.000000 0.100117
0.052168 0.017547 0.100117
0.074301 0.017547 0.100117
0.104884 0.017547 0.100117
0.146261 0.017547 0.100117
0.200668 0.017547 0.100117
0.269594 0.017547 0.100117
0.352903 0.017547 0.100117
0.448067 0.017547 0.100117
0.550000 0.017547 0.100117
0.651933 0.017547 0.100117
0.747097 0.017547 0.100117
0.830406 0.017547 0.100117
0.899332 0.017547 0.100117
0.953739 0.017547 0.100117
0.995116 0.017547 0.100117
1.000000 0.017547 0.100117
1.000000 0.017547 0.100117
0.052168 0.045349 0.100117
0.074301 0.045349 0.100117
0.104884 0.045349 0.100117
0.146261 0.045349 0.100117
0.200668 0.045349 0.100117
0.269594 0.045349 0.100117
0.352903 0.045349 0.100117
0.448067 0.045349 0.100117
0.550000 0.045349 0.100117
0.651933 0.045349 0.100117
0.747097 0.045349 0.100117
0.830406 0.045349 0.100117
0.899332 0.045349 0.100117
0.953739 0.045349 0.100117
0.995116 0.045349 0.100117
1.000000 0.045349 0.100117
1.000000 0.045349 0.100117
0.052168 0.082964 0.100117
0.074301 0.082964 0.100117
0.104884 0.082964 0.100117
0.146261 0.082964 0.100117
0.200668 0.082964 0.100117
0.269594 0.082964 0.100117
0.352903 0.082964 0.100117
0.448067 0.082964 0.100117
0.550000 0.082964 0.100117
0.651933 0.082964 0.100117
0.747097 0.082964 0.100117
0.830406 0.082964 0.100117
0.899332 0.082964 0.100117
0.953739 0.082964 0.100117
0.995116 0.082964 0.100117
1.000000 0.082964 0.100117
1.000000 0.082964 0.100117
0.052168 0.132426 0.100117
0.074301 0.132426 0.100117
0.104884 0.132426 0.100117
0.146261 0.132426 0.100117
0.200668 0.132426 0.100117
0.269594 0.132426 0.100117
0.352903 0.132426 0.100117
0.448067 0.132426 0.100117
0.550000 0.132426 0.100117
0.651933 0.132426 0.100117
0.747097 0.132426 0.100117
0.830406 0.132426 0.100117
0.899332 0.132426 0.100117
0.953739 0.132426 0.100117
0.995116 0.132426 0.100117
1.000000 0.132426 0.100117
1.000000 0.132426 0.100117
0.052168 0.195085 0.100117
0.074301 0.195085 0.100117
0.104884 0.195085 0.100117
0.146261 0.195085 0.100117
0.200668 0.195085 0.100117
0.269594 0.195085 0.100117
0.352903 0.195085 0.100117
0.448067 0.195085 0.100117
0.550000 0.195085 0.100117
0.651933 0.195085 0.100117
0.747097 0.195085 0.100117
0.830406 0.195085 0.100117
0.899332 0.195085 0.100117
0.953739 0.195085 0.100117
0.995116 0.195085 0.100117
1.000000 0.195085 0.100117
1.000000 0.195085 0.100117
0.052168 0.270821 0.100117
0.074301 0.270821 0.100117
0.104884 0.270821 0.100117
0.146261 0.270821 0.100117
0.200668 0.270821 0.100117
0.269594 0.270821 0.100117
0.352903 0.270821 0.100117
0.448067 0.270821 0.100117
0.550000 0.270821 0.100117
0.651933 0.270821 0.100117
0.747097 0.270821 0.100117
0.830406 0.270821 0.100117
0.899332 0.270821 0.100117
0.953739 0.270821 0.100117
0.995116 0.270821 0.100117
1.000000 0.270821 0.100117
1.000000 0.270821 0.100117
0.052168 0.357333 0.100117
0.074301 0.357333 0.100117
0.104884 0.357333 0.100117
0.146261 0.357333 0.100117
0.200668 0.357333 0.100117
0.269594 0.357333 0.100117
0.352903 0.357333 0.100117
0.448067 0.357333 0.100117
0.550000 0.357333 0.100117
0.651933 0.357333 0.100117
0.747097 0.357333 0.100117
0.830406 0.357333 0.100117
0.899332 0.357333 0.100117
0.953739 0.357333 0.100117
0.995116 0.357333 0.100117
1.000000 0.357333 0.100117
1.000000 0.357333 0.100117
0.052168 0.450000 0.100117
0.074301 0.450000 0.100117
0.104884 0.450000 0.100117
0.146261 0.450000 0.100117
0.200668 0.450000 0.100117
0.269594 0.450000 0.100117
0.352903 0.450000 0.100117
0.448067 0.450000 0.100117
0.550000 0.450000 0.100117
0.651933 0.450000 0.100117
0.747097 0.450000 0.100117
0.830406 0.450000 0.100117
0.899332 0.450000 0.100117
0.953739 0.450000 0.100117
0.995116 0.450000 0.100117
1.000000 0.450000 0.100117
1.000000 0.450000 0.100117
0.052168 0.542667 0.100117
0.074301 0.542667 0.100117
0.104884 0.542667 0.100117
0.146261 0.542667 0.100117
0.200668 0.542667 0.100117
0.269594 0.542667 0.100117
0.352903 0.542667 0.100117
0.448067 0.542667 0.100117
0.550000 0.542667 0.100117
0.651933 0.542667 0.100117
0.747097 0.542667 0.100117
0.830406 0.542667 0.100117
0.899332 0.542667 0.100117
0.953739 0.542667 0.100117
0.995116 0.542667 0.100117
1.000000 0.542667 0.100117
1.000000 0.542667 0.100117
0.052168 0.629179 0.100117
0.074301 0.629179 0.100117
0.104884 0.629179 0.100117
0.146261 0.629179 0.100117
0.200668 0.629179 0.100117
0.269594 0.629179 0.100117
0.352903 0.629179 0.100117
0.448067 0.629179 0.100117
0.550000 0.629179 0.100117
0.651933 0.629179 0.100117
0.747097 0.629179 0.100117
0.830406 0.629179 0.100117
0.899332 0.629179 0.100117
0.953739 0.629179 0.100117
0.995116 0.629179 0.100117
1.000000 0.629179 0.100117
1.000000 0.629179 0.100117
0.052168 0.704915 0.100117
0.074301 0.704915 0.100117
0.104884 0.704915 0.100117
0.146261 0.704915 0.100117
0.200668 0.704915 0.100117
0.269594 0.704915 0.100117
0.352903 0.704915 0.100117
0.448067 0.704915 0.100117
0.550000 0.704915 0.100117
0.651933 0.704915 0.100117
0.747097 0.704915 0.100117
0.830406 0.704915 0.100117
0.899332 0.704915 0.100117
0.953739 0.704915 0.100117
0.995116 0.704915 0.100117
1.000000 0.704915 0.100117
1.000000 0.704915 0.100117
0.052168 0.767574 0.100117
0.074301 0.767574 0.100117
0.104884 0.767574 0.100117
0.146261 0.767574 0.100117
0.200668 0.767574 0.100117
0.269594 0.767574 0.100117
0.352903 0.767574 0.100117
0.448067 0.767574 0.100117
0.550000 0.767574 0.100117
0.651933 0.767574 0.100117
0.747097 0.767574 0.100117
0.830406 0.767574 0.100117
0.899332 0.767574 0.100117
0.953739 0.767574 0.100117
0.995116 0.767574 0.100117
1.000000 0.767574 0.100117
1.000000 0.767574 0.100117
0.052168 0.817036 0.100117
0.074301 0.817036 0.100117
0.104884 0.817036 0.100117
0.146261 0.817036 0.100117
0.200668 0.817036 0.100117
0.269594 0.817036 0.100117
0.352903 0.817036 0.100117
0.448067 0.817036 0.100117
0.550000 0.817036 0.100117
0.651933 0.817036 0.100117
0.747097 0.817036 0.100117
0.830406 0.817036 0.100117
0.899332 0.817036 0.100117
0.953739 0.817036 0.100117
0.995116 0.817036 0.100117
1.000000 0.817036 0.100117
1.000000 0.817036 0.100117
0.052168 0.854651 0.100117
0.074301 0.854651 0.100117
0.104884 0.854651 0.100117
0.146261 0.854651 0.100117
0.200668 0.854651 0.100117
0.269594 0.854651 0.100117
0.352903 0.854651 0.100117
0.448067 0.854651 0.100117
0.550000 0.854651 0.100117
0.651933 0.854651 0.100117
0.747097 0.854651 0.100117
0.830406 0.854651 0.100117
0.899332 0.854651 0.100117
0.953739 0.854651 0.100117
0.995116 0.854651 0.100117
1.000000 0.854651 0.100117
1.000000 0.854651 0.100117
0.052168 0.882453 0.100117
0.074301 0.882453 0.100117
0.104884 0.882453 0.100117
0.146261 0.882453 0.100117
0.200668 0.882453 0.100117
0.269594 0.882453 0.100117
0.352903 0.882453 0.100117
0.448067 0.882453 0.100117
0.550000 0.882453 0.100117
0.651933 0.882453 0.100117
0.747097 0.882453 0.100117
0.830406 0.882453 0.100117
0.899332 0.882453 0.100117
0.953739 0.882453 0.100117
0.995116 0.882453 0.100117
1.000000 0.882453 0.100117
1.000000 0.882453 0.100117
0.052168 0.902574 0.100117
0.074301 0.902574 0.100117
0.104884 0.902574 0.100117
0.146261 0.902574 0.100117
0.200668 0.902574 0.100117
0.269594 0.902574 0.100117
0.352903 0.902574 0.100117
0.448067 0.902574 0.100117
0.550000 0.902574 0.100117
0.651933 0.902574 0.100117
0.747097 0.902574 0.100117
0.830406 0.902574 0.100117
0.899332 0.902574 0.100117
0.953739 0.902574 0.100117
0.995116 0.902574 0.100117
1.000000 0.902574 0.100117
1.000000 0.902574 0.100117
0.052168 0.000000 0.139612
0.074301 0.000000 0.139612
0.104884 0.000000 0.139612
0.146261 0.000000 0.139612
0.200668 0.000000 0.139612
0.269594 0.000000 0.139612
0.352903 0.000000 0.139612
0.448067 0.000000 0.139612
0.550000 0.000000 0.139612
0.651933 0.000000 0.139612
0.747097 0.000000 0.139612
0.830406 0.000000 0.139612
0.899332 0.000000 0.139612
0.953739 0.000000 0.139612
0.995116 0.000000 0.139612
1.000000 0.000000 0.139612
