assets/luts/vintage_film.cube
# vintage_film - 复古胶片
# Generated for video-dedup, size=17
TITLE "vintage_film"
LUT_3D_SIZE 5
DOMAIN_MIN 0.0 0.0 0.0
DOMAIN_MAX 1.0 1.0 1.0
0.200000 0.230000 0.050000
0.375000 0.230000 0.050000
0.550000 0.230000 0.050000
0.725000 0.230000 0.050000
0.900000 0.230000 0.050000
0.200000 0.405000 0.050000
0.375000 0.405000 0.050000
0.550000 0.405000 0.050000
0.725000 0.405000 0.050000
0.900000 0.405000 0.050000
0.200000 0.580000 0.050000
0.375000 0.580000 0.050000
0.550000 0.580000 0.050000
0.725000 0.580000 0.050000
0.900000 0.580000 0.050000
0.200000 0.755000 0.050000
0.375000 0.755000 0.050000
0.550000 0.755000 0.050000
0.725000 0.755000 0.050000
0.900000 0.755000 0.050000
0.200000 0.930000 0.050000
0.375000 0.930000 0.050000
0.550000 0.930000 0.050000
0.725000 0.930000 0.050000
0.900000 0.930000 0.050000
0.200000 0.230000 0.212500
0.375000 0.230000 0.212500
0.550000 0.230000 0.212500
0.725000 0.230000 0.212500
0.900000 0.230000 0.212500
0.200000 0.405000 0.212500
0.375000 0.405000 0.212500
0.550000 0.405000 0.212500
0.725000 0.405000 0.212500
0.900000 0.405000 0.212500
0.200000 0.580000 0.212500
0.375000 0.580000 0.212500
0.550000 0.580000 0.212500
0.725000 0.580000 0.212500
0.900000 0.580000 0.212500
0.200000 0.755000 0.212500
0.375000 0.755000 0.212500
0.550000 0.755000 0.212500
0.725000 0.755000 0.212500
0.900000 0.755000 0.212500
0.200000 0.930000 0.212500
0.375000 0.930000 0.212500
0.550000 0.930000 0.212500
0.725000 0.930000 0.212500
0.900000 0.930000 0.212500
0.200000 0.230000 0.375000
0.375000 0.230000 0.375000
0.550000 0.230000 0.375000
0.725000 0.230000 0.375000
0.900000 0.230000 0.375000
0.200000 0.405000 0.375000
0.375000 0.405000 0.375000
0.550000 0.405000 0.375000
0.725000 0.405000 0.375000
0.900000 0.405000 0.375000
0.200000 0.580000 0.375000
0.375000 0.580000 0.375000
0.550000 0.580000 0.375000
0.725000 0.580000 0.375000
0.900000 0.580000 0.375000
0.200000 0.755000 0.375000
0.375000 0.755000 0.375000
0.550000 0.755000 0.375000
0.725000 0.755000 0.375000
0.900000 0.755000 0.375000
0.200000 0.930000 0.375000
0.375000 0.930000 0.375000
0.550000 0.930000 0.375000
0.725000 0.930000 0.375000
0.900000 0.930000 0.375000
0.200000 0.230000 0.537500
0.375000 0.230000 0.537500
0.550000 0.230000 0.537500
0.725000 0.230000 0.537500
0.900000 0.230000 0.537500
0.200000 0.405000 0.537500
0.375000 0.405000 0.537500
0.550000 0.405000 0.537500
0.725000 0.405000 0.537500
0.900000 0.405000 0.537500
0.200000 0.580000 0.537500
0.375000 0.580000 0.537500
0.550000 0.580000 0.537500
0.725000 0.580000 0.537500
0.900000 0.580000 0.537500
0.200000 0.755000 0.537500
0.375000 0.755000 0.537500
0.550000 0.755000 0.537500
0.725000 0.755000 0.537500
0.900000 0.755000 0.537500
0.200000 0.930000 0.537500
0.375000 0.930000 0.537500
0.550000 0.930000 0.537500
0.725000 0.930000 0.537500
0.900000 0.930000 0.537500
0.200000 0.230000 0.700000
0.375000 0.230000 0.700000
0.550000 0.230000 0.700000
0.725000 0.230000 0.700000
0.900000 0.230000 0.700000
0.200000 0.405000 0.700000
0.375000 0.405000 0.700000
0.550000 0.405000 0.700000
0.725000 0.405000 0.700000
0.900000 0.405000 0.700000
0.200000 0.580000 0.700000
0.375000 0.580000 0.700000
0.550000 0.580000 0.700000
0.725000 0.580000 0.700000
0.900000 0.580000 0.700000
0.200000 0.755000 0.700000
0.375000 0.755000 0.700000
0.550000 0.755000 0.700000
0.725000 0.755000 0.700000
0.900000 0.755000 0.700000
0.200000 0.930000 0.700000
0.375000 0.930000 0.700000
0.550000 0.930000 0.700000
0.725000 0.930000 0.700000
0.900000 0.930000 0.700000
