assets/luts/vintage_film.cube
# vintage_film - 复古胶片
# Generated for video-dedup, size=17
TITLE "vintage_film"
LUT_3D_SIZE 9
DOMAIN_MIN 0.0 0.0 0.0
DOMAIN_MAX 1.0 1.0 1.0
0.200000 0.230000 0.050000
0.287500 0.230000 0.050000
0.375000 0.230000 0.050000
0.462500 0.230000 0.050000
0.550000 0.230000 0.050000
0.637500 0.230000 0.050000
0.725000 0.230000 0.050000
0.812500 0.230000 0.050000
0.900000 0.230000 0.050000
0.200000 0.317500 0.050000
0.287500 0.317500 0.050000
0.375000 0.317500 0.050000
0.462500 0.317500 0.050000
0.550000 0.317500 0.050000
0.637500 0.317500 0.050000
0.725000 0.317500 0.050000
0.812500 0.317500 0.050000
0.900000 0.317500 0.050000
0.200000 0.405000 0.050000
0.287500 0.405000 0.050000
0.375000 0.405000 0.050000
0.462500 0.405000 0.050000
0.550000 0.405000 0.050000
0.637500 0.405000 0.050000
0.725000 0.405000 0.050000
0.812500 0.405000 0.050000
0.900000 0.405000 0.050000
0.200000 0.492500 0.050000
0.287500 0.492500 0.050000
0.375000 0.492500 0.050000
0.462500 0.492500 0.050000
0.550000 0.492500 0.050000
0.637500 0.492500 0.050000
0.725000 0.492500 0.050000
0.812500 0.492500 0.050000
0.900000 0.492500 0.050000
0.200000 0.580000 0.050000
0.287500 0.580000 0.050000
0.375000 0.580000 0.050000
0.462500 0.580000 0.050000
0.550000 0.580000 0.050000
0.637500 0.580000 0.050000
0.725000 0.580000 0.050000
0.812500 0.580000 0.050000
0.900000 0.580000 0.050000
0.200000 0.667500 0.050000
0.287500 0.667500 0.050000
0.375000 0.667500 0.050000
0.462500 0.667500 0.050000
0.550000 0.667500 0.050000
0.637500 0.667500 0.050000
0.725000 0.667500 0.050000
0.812500 0.667500 0.050000
0.900000 0.667500 0.050000
0.200000 0.755000 0.050000
0.287500 0.755000 0.050000
0.375000 0.755000 0.050000
0.462500 0.755000 0.050000
0.550000 0.755000 0.050000
0.637500 0.755000 0.050000
0.725000 0.755000 0.050000
0.812500 0.755000 0.050000
0.900000 0.755000 0.050000
0.200000 0.842500 0.050000
0.287500 0.842500 0.050000
0.375000 0.842500 0.050000
0.462500 0.842500 0.050000
0.550000 0.842500 0.050000
0.637500 0.842500 0.050000
0.725000 0.842500 0.050000
0.812500 0.842500 0.050000
0.900000 0.842500 0.050000
0.200000 0.930000 0.050000
0.287500 0.930000 0.050000
0.375000 0.930000 0.050000
0.462500 0.930000 0.050000
0.550000 0.930000 0.050000
0.637500 0.930000 0.050000
0.725000 0.930000 0.050000
0.812500 0.930000 0.050000
0.900000 0.930000 0.050000
0.200000 0.230000 0.131250
0.287500 0.230000 0.131250
0.375000 0.230000 0.131250
0.462500 0.230000 0.131250
0.550000 0.230000 0.131250
0.637500 0.230000 0.131250
0.725000 0.230000 0.131250
0.812500 0.230000 0.131250
0.900000 0.230000 0.131250
0.200000 0.317500 0.131250
0.287500 0.317500 0.131250
0.375000 0.317500 0.131250
0.462500 0.317500 0.131250
0.550000 0.317500 0.131250
0.637500 0.317500 0.131250
0.725000 0.317500 0.131250
0.812500 0.317500 0.131250
0.900000 0.317500 0.131250
0.200000 0.405000 0.131250
0.287500 0.405000 0.131250
0.375000 0.405000 0.131250
0.462500 0.405000 0.131250
0.550000 0.405000 0.131250
0.637500 0.405000 0.131250
0.725000 0.405000 0.131250
0.812500 0.405000 0.131250
0.900000 0.405000 0.131250
0.200000 0.492500 0.131250
0.287500 0.492500 0.131250
0.375000 0.492500 0.131250
0.462500 0.492500 0.131250
0.550000 0.492500 0.131250
0.637500 0.492500 0.131250
0.725000 0.492500 0.131250
0.812500 0.492500 0.131250
0.900000 0.492500 0.131250
0.200000 0.580000 0.131250
0.287500 0.580000 0.131250
0.375000 0.580000 0.131250
0.462500 0.580000 0.131250
0.550000 0.580000 0.131250
0.637500 0.580000 0.131250
0.725000 0.580000 0.131250
0.812500 0.580000 0.131250
0.900000 0.580000 0.131250
0.200000 0.667500 0.131250
0.287500 0.667500 0.131250
0.375000 0.667500 0.131250
0.462500 0.667500 0.131250
0.550000 0.667500 0.131250
0.637500 0.667500 0.131250
0.725000 0.667500 0.131250
0.812500 0.667500 0.131250
0.900000 0.667500 0.131250
0.200000 0.755000 0.131250
0.287500 0.755000 0.131250
0.375000 0.755000 0.131250
0.462500 0.755000 0.131250
0.550000 0.755000 0.131250
0.637500 0.755000 0.131250
0.725000 0.755000 0.131250
0.812500 0.755000 0.131250
0.900000 0.755000 0.131250
0.200000 0.842500 0.131250
0.287500 0.842500 0.131250
0.375000 0.842500 0.131250
0.462500 0.842500 0.131250
0.550000 0.842500 0.131250
0.637500 0.842500 0.131250
0.725000 0.842500 0.131250
0.812500 0.842500 0.131250
0.900000 0.842500 0.131250
0.200000 0.930000 0.131250
0.287500 0.930000 0.131250
0.375000 0.930000 0.131250
0.462500 0.930000 0.131250
0.550000 0.930000 0.131250
0.637500 0.930000 0.131250
0.725000 0.930000 0.131250
0.812500 0.930000 0.131250
0.900000 0.930000 0.131250
0.200000 0.230000 0.212500
0.287500 0.230000 0.212500
0.375000 0.230000 0.212500
0.462500 0.230000 0.212500
0.550000 0.230000 0.212500
0.637500 0.230000 0.212500
0.725000 0.230000 0.212500
0.812500 0.230000 0.212500
0.900000 0.230000 0.212500
0.200000 0.317500 0.212500
0.287500 0.317500 0.212500
0.375000 0.317500 0.212500
0.462500 0.317500 0.212500
0.550000 0.317500 0.212500
0.637500 0.317500 0.212500
0.725000 0.317500 0.212500
0.812500 0.317500 0.212500
0.900000 0.317500 0.212500
0.200000 0.405000 0.212500
0.287500 0.405000 0.212500
0.375000 0.405000 0.212500
0.462500 0.405000 0.212500
0.550000 0.405000 0.212500
0.637500 0.405000 0.212500
0.725000 0.405000 0.212500
0.812500 0.405000 0.212500
0.900000 0.405000 0.212500
0.200000 0.492500 0.212500
0.287500 0.492500 0.212500
0.375000 0.492500 0.212500
0.462500 0.492500 0.212500
0.550000 0.492500 0.212500
0.637500 0.492500 0.212500
0.725000 0.492500 0.212500
0.812500 0.492500 0.212500
0.900000 0.492500 0.212500
0.200000 0.580000 0.212500
0.287500 0.580000 0.212500
0.375000 0.580000 0.212500
0.462500 0.580000 0.212500
0.550000 0.580000 0.212500
0.637500 0.580000 0.212500
0.725000 0.580000 0.212500
0.812500 0.580000 0.212500
0.900000 0.580000 0.212500
0.200000 0.667500 0.212500
0.287500 0.667500 0.212500
0.375000 0.667500 0.212500
0.462500 0.667500 0.212500
0.550000 0.667500 0.212500
0.637500 0.667500 0.212500
0.725000 0.667500 0.212500
0.812500 0.667500 0.212500
0.900000 0.667500 0.212500
0.200000 0.755000 0.212500
0.287500 0.755000 0.212500
0.375000 0.755000 0.212500
0.462500 0.755000 0.212500
0.550000 0.755000 0.212500
0.637500 0.755000 0.212500
0.725000 0.755000 0.212500
0.812500 0.755000 0.212500
0.900000 0.755000 0.212500
0.200000 0.842500 0.212500
0.287500 0.842500 0.212500
0.375000 0.842500 0.212500
0.462500 0.842500 0.212500
0.550000 0.842500 0.212500
0.637500 0.842500 0.212500
0.725000 0.842500 0.212500
0.812500 0.842500 0.212500
0.900000 0.842500 0.212500
0.200000 0.930000 0.212500
0.287500 0.930000 0.212500
0.375000 0.930000 0.212500
0.462500 0.930000 0.212500
0.550000 0.930000 0.212500
0.637500 0.930000 0.212500
0.725000 0.930000 0.212500
0.812500 0.930000 0.212500
0.900000 0.930000 0.212500
0.200000 0.230000 0.293750
0.287500 0.230000 0.293750
0.375000 0.230000 0.293750
0.462500 0.230000 0.293750
0.550000 0.230000 0.293750
0.637500 0.230000 0.293750
0.725000 0.230000 0.293750
0.812500 0.230000 0.293750
0.900000 0.230000 0.293750
0.200000 0.317500 0.293750
0.287500 0.317500 0.293750
0.375000 0.317500 0.293750
0.462500 0.317500 0.293750
0.550000 0.317500 0.293750
0.637500 0.317500 0.293750
0.725000 0.317500 0.293750
0.812500 0.317500 0.293750
0.900000 0.317500 0.293750
0.200000 0.405000 0.293750
0.287500 0.405000 0.293750
0.375000 0.405000 0.293750
0.462500 0.405000 0.293750
0.550000 0.405000 0.293750
0.637500 0.405000 0.293750
0.725000 0.405000 0.293750
0.812500 0.405000 0.293750
0.900000 0.405000 0.293750
0.200000 0.492500 0.293750
0.287500 0.492500 0.293750
0.375000 0.492500 0.293750
0.462500 0.492500 0.293750
0.550000 0.492500 0.293750
0.637500 0.492500 0.293750
0.725000 0.492500 0.293750
0.812500 0.492500 0.293750
0.900000 0.492500 0.293750
0.200000 0.580000 0.293750
0.287500 0.580000 0.293750
0.375000 0.580000 0.293750
0.462500 0.580000 0.293750
0.550000 0.580000 0.293750
0.637500 0.580000 0.293750
0.725000 0.580000 0.293750
0.812500 0.580000 0.293750
0.900000 0.580000 0.293750
0.200000 0.667500 0.293750
0.287500 0.667500 0.293750
0.375000 0.667500 0.293750
0.462500 0.667500 0.293750
0.550000 0.667500 0.293750
0.637500 0.667500 0.293750
0.725000 0.667500 0.293750
0.812500 0.667500 0.293750
0.900000 0.667500 0.293750
0.200000 0.755000 0.293750
0.287500 0.755000 0.293750
0.375000 0.755000 0.293750
0.462500 0.755000 0.293750
0.550000 0.755000 0.293750
0.637500 0.755000 0.293750
0.725000 0.755000 0.293750
0.812500 0.755000 0.293750
0.900000 0.755000 0.293750
0.200000 0.842500 0.293750
0.287500 0.842500 0.293750
0.375000 0.842500 0.293750
0.462500 0.842500 0.293750
0.550000 0.842500 0.293750
0.637500 0.842500 0.293750
0.725000 0.842500 0.293750
0.812500 0.842500 0.293750
0.900000 0.842500 0.293750
0.200000 0.930000 0.293750
0.287500 0.930000 0.293750
0.375000 0.930000 0.293750
0.462500 0.930000 0.293750
0.550000 0.930000 0.293750
0.637500 0.930000 0.293750
0.725000 0.930000 0.293750
0.812500 0.930000 0.293750
0.900000 0.930000 0.293750
0.200000 0.230000 0.375000
0.287500 0.230000 0.375000
0.375000 0.230000 0.375000
0.462500 0.230000 0.375000
0.550000 0.230000 0.375000
0.637500 0.230000 0.375000
0.725000 0.230000 0.375000
0.812500 0.230000 0.375000
0.900000 0.230000 0.375000
0.200000 0.317500 0.375000
0.287500 0.317500 0.375000
0.375000 0.317500 0.375000
0.462500 0.317500 0.375000
0.550000 0.317500 0.375000
0.637500 0.317500 0.375000
0.725000 0.317500 0.375000
0.812500 0.317500 0.375000
0.900000 0.317500 0.375000
0.200000 0.405000 0.375000
0.287500 0.405000 0.375000
0.375000 0.405000 0.375000
0.462500 0.405000 0.375000
0.550000 0.405000 0.375000
0.637500 0.405000 0.375000
0.725000 0.405000 0.375000
0.812500 0.405000 0.375000
0.900000 0.405000 0.375000
0.200000 0.492500 0.375000
0.287500 0.492500 0.375000
0.375000 0.492500 0.375000
0.462500 0.492500 0.375000
0.550000 0.492500 0.375000
0.637500 0.492500 0.375000
0.725000 0.492500 0.375000
0.812500 0.492500 0.375000
0.900000 0.492500 0.375000
0.200000 0.580000 0.375000
0.287500 0.580000 0.375000
0.375000 0.580000 0.375000
0.462500 0.580000 0.375000
0.550000 0.580000 0.375000
0.637500 0.580000 0.375000
0.725000 0.580000 0.375000
0.812500 0.580000 0.375000
0.900000 0.580000 0.375000
0.200000 0.667500 0.375000
0.287500 0.667500 0.375000
0.375000 0.667500 0.375000
0.462500 0.667500 0.375000
0.550000 0.667500 0.375000
0.637500 0.667500 0.375000
0.725000 0.667500 0.375000
0.812500 0.667500 0.375000
0.900000 0.667500 0.375000
0.200000 0.755000 0.375000
0.287500 0.755000 0.375000
0.375000 0.755000 0.375000
0.462500 0.755000 0.375000
0.550000 0.755000 0.375000
0.637500 0.755000 0.375000
0.725000 0.755000 0.375000
0.812500 0.755000 0.375000
0.900000 0.755000 0.375000
0.200000 0.842500 0.375000
0.287500 0.842500 0.375000
0.375000 0.842500 0.375000
0.462500 0.842500 0.375000
0.550000 0.842500 0.375000
0.637500 0.842500 0.375000
0.725000 0.842500 0.375000
0.812500 0.842500 0.375000
0.900000 0.842500 0.375000
0.200000 0.930000 0.375000
0.287500 0.930000 0.375000
0.375000 0.930000 0.375000
0.462500 0.930000 0.375000
0.550000 0.930000 0.375000
0.637500 0.930000 0.375000
0.725000 0.930000 0.375000
0.812500 0.930000 0.375000
0.900000 0.930000 0.375000
0.200000 0.230000 0.456250
0.287500 0.230000 0.456250
0.375000 0.230000 0.456250
0.462500 0.230000 0.456250
0.550000 0.230000 0.456250
0.637500 0.230000 0.456250
0.725000 0.230000 0.456250
0.812500 0.230000 0.456250
0.900000 0.230000 0.456250
0.200000 0.317500 0.456250
0.287500 0.317500 0.456250
0.375000 0.317500 0.456250
0.462500 0.317500 0.456250
0.550000 0.317500 0.456250
0.637500 0.317500 0.456250
0.725000 0.317500 0.456250
0.812500 0.317500 0.456250
0.900000 0.317500 0.456250
0.200000 0.405000 0.456250
0.287500 0.405000 0.456250
0.375000 0.405000 0.456250
0.462500 0.405000 0.456250
0.550000 0.405000 0.456250
0.637500 0.405000 0.456250
0.725000 0.405000 0.456250
0.812500 0.405000 0.456250
0.900000 0.405000 0.456250
0.200000 0.492500 0.456250
0.287500 0.492500 0.456250
0.375000 0.492500 0.456250
0.462500 0.492500 0.456250
0.550000 0.492500 0.456250
0.637500 0.492500 0.456250
0.725000 0.492500 0.456250
0.812500 0.492500 0.456250
0.900000 0.492500 0.456250
0.200000 0.580000 0.456250
0.287500 0.580000 0.456250
0.375000 0.580000 0.456250
0.462500 0.580000 0.456250
0.550000 0.580000 0.456250
0.637500 0.580000 0.456250
0.725000 0.580000 0.456250
0.812500 0.580000 0.456250
0.900000 0.580000 0.456250
0.200000 0.667500 0.456250
0.287500 0.667500 0.456250
0.375000 0.667500 0.456250
0.462500 0.667500 0.456250
0.550000 0.667500 0.456250
0.637500 0.667500 0.456250
0.725000 0.667500 0.456250
0.812500 0.667500 0.456250
0.900000 0.667500 0.456250
0.200000 0.755000 0.456250
0.287500 0.755000 0.456250
0.375000 0.755000 0.456250
0.462500 0.755000 0.456250
0.550000 0.755000 0.456250
0.637500 0.755000 0.456250
0.725000 0.755000 0.456250
0.812500 0.755000 0.456250
0.900000 0.755000 0.456250
0.200000 0.842500 0.456250
0.287500 0.842500 0.456250
0.375000 0.842500 0.456250
0.462500 0.842500 0.456250
0.550000 0.842500 0.456250
0.637500 0.842500 0.456250
0.725000 0.842500 0.456250
0.812500 0.842500 0.456250
0.900000 0.842500 0.456250
0.200000 0.930000 0.456250
0.287500 0.930000 0.456250
0.375000 0.930000 0.456250
0.462500 0.930000 0.456250
0.550000 0.930000 0.456250
0.637500 0.930000 0.456250
0.725000 0.930000 0.456250
0.812500 0.930000 0.456250
0.900000 0.930000 0.456250
0.200000 0.230000 0.537500
0.287500 0.230000 0.537500
0.375000 0.230000 0.537500
0.462500 0.230000 0.537500
0.550000 0.230000 0.537500
0.637500 0.230000 0.537500
0.725000 0.230000 0.537500
0.812500 0.230000 0.537500
0.900000 0.230000 0.537500
0.200000 0.317500 0.537500
0.287500 0.317500 0.537500
0.375000 0.317500 0.537500
0.462500 0.317500 0.537500
0.550000 0.317500 0.537500
0.637500 0.317500 0.537500
0.725000 0.317500 0.537500
0.812500 0.317500 0.537500
0.900000 0.317500 0.537500
0.200000 0.405000 0.537500
0.287500 0.405000 0.537500
0.375000 0.405000 0.537500
0.462500 0.405000 0.537500
0.550000 0.405000 0.537500
0.637500 0.405000 0.537500
0.725000 0.405000 0.537500
0.812500 0.405000 0.537500
0.900000 0.405000 0.537500
0.200000 0.492500 0.537500
0.287500 0.492500 0.537500
0.375000 0.492500 0.537500
0.462500 0.492500 0.537500
0.550000 0.492500 0.537500
0.637500 0.492500 0.537500
0.725000 0.492500 0.537500
0.812500 0.492500 0.537500
0.900000 0.492500 0.537500
0.200000 0.580000 0.537500
0.287500 0.580000 0.537500
0.375000 0.580000 0.537500
0.462500 0.580000 0.537500
0.550000 0.580000 0.537500
0.637500 0.580000 0.537500
0.725000 0.580000 0.537500
0.812500 0.580000 0.537500
0.900000 0.580000 0.537500
0.200000 0.667500 0.537500
0.287500 0.667500 0.537500
0.375000 0.667500 0.537500
0.462500 0.667500 0.537500
0.550000 0.667500 0.537500
0.637500 0.667500 0.537500
0.725000 0.667500 0.537500
0.812500 0.667500 0.537500
0.900000 0.667500 0.537500
0.200000 0.755000 0.537500
0.287500 0.755000 0.537500
0.375000 0.755000 0.537500
0.462500 0.755000 0.537500
0.550000 0.755000 0.537500
0.637500 0.755000 0.537500
0.725000 0.755000 0.537500
0.812500 0.755000 0.537500
0.900000 0.755000 0.537500
0.200000 0.842500 0.537500
0.287500 0.842500 0.537500
0.375000 0.842500 0.537500
0.462500 0.842500 0.537500
0.550000 0.842500 0.537500
0.637500 0.842500 0.537500
0.725000 0.842500 0.537500
0.812500 0.842500 0.537500
0.900000 0.842500 0.537500
0.200000 0.930000 0.537500
0.287500 0.930000 0.537500
0.375000 0.930000 0.537500
0.462500 0.930000 0.537500
0.550000 0.930000 0.537500
0.637500 0.930000 0.537500
0.725000 0.930000 0.537500
0.812500 0.930000 0.537500
0.900000 0.930000 0.537500
0.200000 0.230000 0.618750
0.287500 0.230000 0.618750
0.375000 0.230000 0.618750
0.462500 0.230000 0.618750
0.550000 0.230000 0.618750
0.637500 0.230000 0.618750
0.725000 0.230000 0.618750
0.812500 0.230000 0.618750
0.900000 0.230000 0.618750
0.200000 0.317500 0.618750
0.287500 0.317500 0.618750
0.375000 0.317500 0.618750
0.462500 0.317500 0.618750
0.550000 0.317500 0.618750
0.637500 0.317500 0.618750
0.725000 0.317500 0.618750
0.812500 0.317500 0.618750
0.900000 0.317500 0.618750
0.200000 0.405000 0.618750
0.287500 0.405000 0.618750
0.375000 0.405000 0.618750
0.462500 0.405000 0.618750
0.550000 0.405000 0.618750
0.637500 0.405000 0.618750
0.725000 0.405000 0.618750
0.812500 0.405000 0.618750
0.900000 0.405000 0.618750
0.200000 0.492500 0.618750
0.287500 0.492500 0.618750
0.375000 0.492500 0.618750
0.462500 0.492500 0.618750
0.550000 0.492500 0.618750
0.637500 0.492500 0.618750
0.725000 0.492500 0.618750
0.812500 0.492500 0.618750
0.900000 0.492500 0.618750
0.200000 0.580000 0.618750
0.287500 0.580000 0.618750
0.375000 0.580000 0.618750
0.462500 0.580000 0.618750
0.550000 0.580000 0.618750
0.637500 0.580000 0.618750
0.725000 0.580000 0.618750
0.812500 0.580000 0.618750
0.900000 0.580000 0.618750
0.200000 0.667500 0.618750
0.287500 0.667500 0.618750
0.375000 0.667500 0.618750
0.462500 0.667500 0.618750
0.550000 0.667500 0.618750
0.637500 0.667500 0.618750
0.725000 0.667500 0.618750
0.812500 0.667500 0.618750
0.900000 0.667500 0.618750
0.200000 0.755000 0.618750
0.287500 0.755000 0.618750
0.375000 0.755000 0.618750
0.462500 0.755000 0.618750
0.550000 0.755000 0.618750
0.637500 0.755000 0.618750
0.725000 0.755000 0.618750
0.812500 0.755000 0.618750
0.900000 0.755000 0.618750
0.200000 0.842500 0.618750
0.287500 0.842500 0.618750
0.375000 0.842500 0.618750
0.462500 0.842500 0.618750
0.550000 0.842500 0.618750
0.637500 0.842500 0.618750
0.725000 0.842500 0.618750
0.812500 0.842500 0.618750
0.900000 0.842500 0.618750
0.200000 0.930000 0.618750
0.287500 0.930000 0.618750
0.375000 0.930000 0.618750
0.462500 0.930000 0.618750
0.550000 0.930000 0.618750
0.637500 0.930000 0.618750
0.725000 0.930000 0.618750
0.812500 0.930000 0.618750
0.900000 0.930000 0.618750
0.200000 0.230000 0.700000
0.287500 0.230000 0.700000
0.375000 0.230000 0.700000
0.462500 0.230000 0.700000
0.550000 0.230000 0.700000
0.637500 0.230000 0.700000
0.725000 0.230000 0.700000
0.812500 0.230000 0.700000
0.900000 0.230000 0.700000
0.200000 0.317500 0.700000
0.287500 0.317500 0.700000
0.375000 0.317500 0.700000
0.462500 0.317500 0.700000
0.550000 0.317500 0.700000
0.637500 0.317500 0.700000
0.725000 0.317500 0.700000
0.812500 0.317500 0.700000
0.900000 0.317500 0.700000
0.200000 0.405000 0.700000
0.287500 0.405000 0.700000
0.375000 0.405000 0.700000
0.462500 0.405000 0.700000
0.550000 0.405000 0.700000
0.637500 0.405000 0.700000
0.725000 0.405000 0.700000
0.812500 0.405000 0.700000
0.900000 0.405000 0.700000
0.200000 0.492500 0.700000
0.287500 0.492500 0.700000
0.375000 0.492500 0.700000
0.462500 0.492500 0.700000
0.550000 0.492500 0.700000
0.637500 0.492500 0.700000
0.725000 0.492500 0.700000
0.812500 0.492500 0.700000
0.900000 0.492500 0.700000
0.200000 0.580000 0.700000
0.287500 0.580000 0.700000
0.375000 0.580000 0.700000
0.462500 0.580000 0.700000
0.550000 0.580000 0.700000
0.637500 0.580000 0.700000
0.725000 0.580000 0.700000
0.812500 0.580000 0.700000
0.900000 0.580000 0.700000
0.200000 0.667500 0.700000
0.287500 0.667500 0.700000
0.375000 0.667500 0.700000
0.462500 0.667500 0.700000
0.550000 0.667500 0.700000
0.637500 0.667500 0.700000
0.725000 0.667500 0.700000
0.812500 0.667500 0.700000
0.900000 0.667500 0.700000
0.200000 0.755000 0.700000
0.287500 0.755000 0.700000
0.375000 0.755000 0.700000
0.462500 0.755000 0.700000
0.550000 0.755000 0.700000
0.637500 0.755000 0.700000
0.725000 0.755000 0.700000
0.812500 0.755000 0.700000
0.900000 0.755000 0.700000
0.200000 0.842500 0.700000
0.287500 0.842500 0.700000
0.375000 0.842500 0.700000
0.462500 0.842500 0.700000
0.550000 0.842500 0.700000
0.637500 0.842500 0.700000
0.725000 0.842500 0.700000
0.812500 0.842500 0.700000
0.900000 0.842500 0.700000
0.200000 0.930000 0.700000
0.287500 0.930000 0.700000
0.375000 0.930000 0.700000
0.462500 0.930000 0.700000
0.550000 0.930000 0.700000
0.637500 0.930000 0.700000
0.725000 0.930000 0.700000
0.812500 0.930000 0.700000
0.900000 0.930000 0.700000
