assets/luts/vintage_film.cube
# vintage_film - 复古胶片
# Generated for video-dedup, size=17
TITLE "vintage_film"
LUT_3D_SIZE 17
DOMAIN_MIN 0.0 0.0 0.0
DOMAIN_MAX 1.0 1.0 1.0
0.200000 0.230000 0.050000
0.243750 0.230000 0.050000
0.287500 0.230000 0.050000
0.331250 0.230000 0.050000
0.375000 0.230000 0.050000
0.418750 0.230000 0.050000
0.462500 0.230000 0.050000
0.506250 0.230000 0.050000
0.550000 0.230000 0.050000
0.593750 0.230000 0.050000
0.637500 0.230000 0.050000
0.681250 0.230000 0.050000
0.725000 0.230000 0.050000
0.768750 0.230000 0.050000
0.812500 0.230000 0.050000
0.856250 0.230000 0.050000
0.900000 0.230000 0.050000
0.200000 0.273750 0.050000
0.243750 0.273750 0.050000
0.287500 0.273750 0.050000
0.331250 0.273750 0.050000
0.375000 0.273750 0.050000
0.418750 0.273750 0.050000
0.462500 0.273750 0.050000
0.506250 0.273750 0.050000
0.550000 0.273750 0.050000
0.593750 0.273750 0.050000
0.637500 0.273750 0.050000
0.681250 0.273750 0.050000
0.725000 0.273750 0.050000
0.768750 0.273750 0.050000
0.812500 0.273750 0.050000
0.856250 0.273750 0.050000
0.900000 0.273750 0.050000
0.200000 0.317500 0.050000
0.243750 0.317500 0.050000
0.287500 0.317500 0.050000
0.331250 0.317500 0.050000
0.375000 0.317500 0.050000
0.418750 0.317500 0.050000
0.462500 0.317500 0.050000
0.506250 0.317500 0.050000
0.550000 0.317500 0.050000
0.593750 0.317500 0.050000
0.637500 0.317500 0.050000
0.681250 0.317500 0.050000
0.725000 0.317500 0.050000
0.768750 0.317500 0.050000
0.812500 0.317500 0.050000
0.856250 0.317500 0.050000
0.900000 0.317500 0.050000
0.200000 0.361250 0.050000
0.243750 0.361250 0.050000
0.287500 0.361250 0.050000
0.331250 0.361250 0.050000
0.375000 0.361250 0.050000
0.418750 0.361250 0.050000
0.462500 0.361250 0.050000
0.506250 0.361250 0.050000
0.550000 0.361250 0.050000
0.593750 0.361250 0.050000
0.637500 0.361250 0.050000
0.681250 0.361250 0.050000
0.725000 0.361250 0.050000
0.768750 0.361250 0.050000
0.812500 0.361250 0.050000
0.856250 0.361250 0.050000
0.900000 0.361250 0.050000
0.200000 0.405000 0.050000
0.243750 0.405000 0.050000
0.287500 0.405000 0.050000
0.331250 0.405000 0.050000
0.375000 0.405000 0.050000
0.418750 0.405000 0.050000
0.462500 0.405000 0.050000
0.506250 0.405000 0.050000
0.550000 0.405000 0.050000
0.593750 0.405000 0.050000
0.637500 0.405000 0.050000
0.681250 0.405000 0.050000
0.725000 0.405000 0.050000
0.768750 0.405000 0.050000
0.812500 0.405000 0.050000
0.856250 0.405000 0.050000
0.900000 0.405000 0.050000
0.200000 0.448750 0.050000
0.243750 0.448750 0.050000
0.287500 0.448750 0.050000
0.331250 0.448750 0.050000
0.375000 0.448750 0.050000
0.418750 0.448750 0.050000
0.462500 0.448750 0.050000
0.506250 0.448750 0.050000
0.550000 0.448750 0.050000
0.593750 0.448750 0.050000
0.637500 0.448750 0.050000
0.681250 0.448750 0.050000
0.725000 0.448750 0.050000
0.768750 0.448750 0.050000
0.812500 0.448750 0.050000
0.856250 0.448750 0.050000
0.900000 0.448750 0.050000
0.200000 0.492500 0.050000
0.243750 0.492500 0.050000
0.287500 0.492500 0.050000
0.331250 0.492500 0.050000
0.375000 0.492500 0.050000
0.418750 0.492500 0.050000
0.462500 0.492500 0.050000
0.506250 0.492500 0.050000
0.550000 0.492500 0.050000
0.593750 0.492500 0.050000
0.637500 0.492500 0.050000
0.681250 0.492500 0.050000
0.725000 0.492500 0.050000
0.768750 0.492500 0.050000
0.812500 0.492500 0.050000
0.856250 0.492500 0.050000
0.900000 0.492500 0.050000
0.200000 0.536250 0.050000
0.243750 0.536250 0.050000
0.287500 0.536250 0.050000
0.331250 0.536250 0.050000
0.375000 0.536250 0.050000
0.418750 0.536250 0.050000
0.462500 0.536250 0.050000
0.506250 0.536250 0.050000
0.550000 0.536250 0.050000
0.593750 0.536250 0.050000
0.637500 0.536250 0.050000
0.681250 0.536250 0.050000
0.725000 0.536250 0.050000
0.768750 0.536250 0.050000
0.812500 0.536250 0.050000
0.856250 0.536250 0.050000
0.900000 0.536250 0.050000
0.200000 0.580000 0.050000
0.243750 0.580000 0.050000
0.287500 0.580000 0.050000
0.331250 0.580000 0.050000
0.375000 0.580000 0.050000
0.418750 0.580000 0.050000
0.462500 0.580000 0.050000
0.506250 0.580000 0.050000
0.550000 0.580000 0.050000
0.593750 0.580000 0.050000
0.637500 0.580000 0.050000
0.681250 0.580000 0.050000
0.725000 0.580000 0.050000
0.768750 0.580000 0.050000
0.812500 0.580000 0.050000
0.856250 0.580000 0.050000
0.900000 0.580000 0.050000
0.200000 0.623750 0.050000
0.243750 0.623750 0.050000
0.287500 0.623750 0.050000
0.331250 0.623750 0.050000
0.375000 0.623750 0.050000
0.418750 0.623750 0.050000
0.462500 0.623750 0.050000
0.506250 0.623750 0.050000
0.550000 0.623750 0.050000
0.593750 0.623750 0.050000
0.637500 0.623750 0.050000
0.681250 0.623750 0.050000
0.725000 0.623750 0.050000
0.768750 0.623750 0.050000
0.812500 0.623750 0.050000
0.856250 0.623750 0.050000
0.900000 0.623750 0.050000
0.200000 0.667500 0.050000
0.243750 0.667500 0.050000
0.287500 0.667500 0.050000
0.331250 0.667500 0.050000
0.375000 0.667500 0.050000
0.418750 0.667500 0.050000
0.462500 0.667500 0.050000
0.506250 0.667500 0.050000
0.550000 0.667500 0.050000
0.593750 0.667500 0.050000
0.637500 0.667500 0.050000
0.681250 0.667500 0.050000
0.725000 0.667500 0.050000
0.768750 0.667500 0.050000
0.812500 0.667500 0.050000
0.856250 0.667500 0.050000
0.900000 0.667500 0.050000
0.200000 0.711250 0.050000
0.243750 0.711250 0.050000
0.287500 0.711250 0.050000
0.331250 0.711250 0.050000
0.375000 0.711250 0.050000
0.418750 0.711250 0.050000
0.462500 0.711250 0.050000
0.506250 0.711250 0.050000
0.550000 0.711250 0.050000
0.593750 0.711250 0.050000
0.637500 0.711250 0.050000
0.681250 0.711250 0.050000
0.725000 0.711250 0.050000
0.768750 0.711250 0.050000
0.812500 0.711250 0.050000
0.856250 0.711250 0.050000
0.900000 0.711250 0.050000
0.200000 0.755000 0.050000
0.243750 0.755000 0.050000
0.287500 0.755000 0.050000
0.331250 0.755000 0.050000
0.375000 0.755000 0.050000
0.418750 0.755000 0.050000
0.462500 0.755000 0.050000
0.506250 0.755000 0.050000
0.550000 0.755000 0.050000
0.593750 0.755000 0.050000
0.637500 0.755000 0.050000
0.681250 0.755000 0.050000
0.725000 0.755000 0.050000
0.768750 0.755000 0.050000
0.812500 0.755000 0.050000
0.856250 0.755000 0.050000
0.900000 0.755000 0.050000
0.200000 0.798750 0.050000
0.243750 0.798750 0.050000
0.287500 0.798750 0.050000
0.331250 0.798750 0.050000
0.375000 0.798750 0.050000
0.418750 0.798750 0.050000
0.462500 0.798750 0.050000
0.506250 0.798750 0.050000
0.550000 0.798750 0.050000
0.593750 0.798750 0.050000
0.637500 0.798750 0.050000
0.681250 0.798750 0.050000
0.725000 0.798750 0.050000
0.768750 0.798750 0.050000
0.812500 0.798750 0.050000
0.856250 0.798750 0.050000
0.900000 0.798750 0.050000
0.200000 0.842500 0.050000
0.243750 0.842500 0.050000
0.287500 0.842500 0.050000
0.331250 0.842500 0.050000
0.375000 0.842500 0.050000
0.418750 0.842500 0.050000
0.462500 0.842500 0.050000
0.506250 0.842500 0.050000
0.550000 0.842500 0.050000
0.593750 0.842500 0.050000
0.637500 0.842500 0.050000
0.681250 0.842500 0.050000
0.725000 0.842500 0.050000
0.768750 0.842500 0.050000
0.812500 0.842500 0.050000
0.856250 0.842500 0.050000
0.900000 0.842500 0.050000
0.200000 0.886250 0.050000
0.243750 0.886250 0.050000
0.287500 0.886250 0.050000
0.331250 0.886250 0.050000
0.375000 0.886250 0.050000
0.418750 0.886250 0.050000
0.462500 0.886250 0.050000
0.506250 0.886250 0.050000
0.550000 0.886250 0.050000
0.593750 0.886250 0.050000
0.637500 0.886250 0.050000
0.681250 0.886250 0.050000
0.725000 0.886250 0.050000
0.768750 0.886250 0.050000
0.812500 0.886250 0.050000
0.856250 0.886250 0.050000
0.900000 0.886250 0.050000
0.200000 0.930000 0.050000
0.243750 0.930000 0.050000
0.287500 0.930000 0.050000
0.331250 0.930000 0.050000
0.375000 0.930000 0.050000
0.418750 0.930000 0.050000
0.462500 0.930000 0.050000
0.506250 0.930000 0.050000
0.550000 0.930000 0.050000
0.593750 0.930000 0.050000
0.637500 0.930000 0.050000
0.681250 0.930000 0.050000
0.725000 0.930000 0.050000
0.768750 0.930000 0.050000
0.812500 0.930000 0.050000
0.856250 0.930000 0.050000
0.900000 0.930000 0.050000
0.200000 0.230000 0.090625
0.243750 0.230000 0.090625
0.287500 0.230000 0.090625
0.331250 0.230000 0.090625
0.375000 0.230000 0.090625
0.418750 0.230000 0.090625
0.462500 0.230000 0.090625
0.506250 0.230000 0.090625
0.550000 0.230000 0.090625
0.593750 0.230000 0.090625
0.637500 0.230000 0.090625
0.681250 0.230000 0.090625
0.725000 0.230000 0.090625
0.768750 0.230000 0.090625
0.812500 0.230000 0.090625
0.856250 0.230000 0.090625
0.900000 0.230000 0.090625
0.200000 0.273750 0.090625
0.243750 0.273750 0.090625
0.287500 0.273750 0.090625
0.331250 0.273750 0.090625
0.375000 0.273750 0.090625
0.418750 0.273750 0.090625
0.462500 0.273750 0.090625
0.506250 0.273750 0.090625
0.550000 0.273750 0.090625
0.593750 0.273750 0.090625
0.637500 0.273750 0.090625
0.681250 0.273750 0.090625
0.725000 0.273750 0.090625
0.768750 0.273750 0.090625
0.812500 0.273750 0.090625
0.856250 0.273750 0.090625
0.900000 0.273750 0.090625
0.200000 0.317500 0.090625
0.243750 0.317500 0.090625
0.287500 0.317500 0.090625
0.331250 0.317500 0.090625
0.375000 0.317500 0.090625
0.418750 0.317500 0.090625
0.462500 0.317500 0.090625
0.506250 0.317500 0.090625
0.550000 0.317500 0.090625
0.593750 0.317500 0.090625
0.637500 0.317500 0.090625
0.681250 0.317500 0.090625
0.725000 0.317500 0.090625
0.768750 0.317500 0.090625
0.812500 0.317500 0.090625
0.856250 0.317500 0.090625
0.900000 0.317500 0.090625
0.200000 0.361250 0.090625
0.243750 0.361250 0.090625
0.287500 0.361250 0.090625
0.331250 0.361250 0.090625
0.375000 0.361250 0.090625
0.418750 0.361250 0.090625
0.462500 0.361250 0.090625
0.506250 0.361250 0.090625
0.550000 0.361250 0.090625
0.593750 0.361250 0.090625
0.637500 0.361250 0.090625
0.681250 0.361250 0.090625
0.725000 0.361250 0.090625
0.768750 0.361250 0.090625
0.812500 0.361250 0.090625
0.856250 0.361250 0.090625
0.900000 0.361250 0.090625
0.200000 0.405000 0.090625
0.243750 0.405000 0.090625
0.287500 0.405000 0.090625
0.331250 0.405000 0.090625
0.375000 0.405000 0.090625
0.418750 0.405000 0.090625
0.462500 0.405000 0.090625
0.506250 0.405000 0.090625
0.550000 0.405000 0.090625
0.593750 0.405000 0.090625
0.637500 0.405000 0.090625
0.681250 0.405000 0.090625
0.725000 0.405000 0.090625
0.768750 0.405000 0.090625
0.812500 0.405000 0.090625
0.856250 0.405000 0.090625
0.900000 0.405000 0.090625
0.200000 0.448750 0.090625
0.243750 0.448750 0.090625
0.287500 0.448750 0.090625
0.331250 0.448750 0.090625
0.375000 0.448750 0.090625
0.418750 0.448750 0.090625
0.462500 0.448750 0.090625
0.506250 0.448750 0.090625
0.550000 0.448750 0.090625
0.593750 0.448750 0.090625
0.637500 0.448750 0.090625
0.681250 0.448750 0.090625
0.725000 0.448750 0.090625
0.768750 0.448750 0.090625
0.812500 0.448750 0.090625
0.856250 0.448750 0.090625
0.900000 0.448750 0.090625
0.200000 0.492500 0.090625
0.243750 0.492500 0.090625
0.287500 0.492500 0.090625
0.331250 0.492500 0.090625
0.375000 0.492500 0.090625
0.418750 0.492500 0.090625
0.462500 0.492500 0.090625
0.506250 0.492500 0.090625
0.550000 0.492500 0.090625
0.593750 0.492500 0.090625
0.637500 0.492500 0.090625
0.681250 0.492500 0.090625
0.725000 0.492500 0.090625
0.768750 0.492500 0.090625
0.812500 0.492500 0.090625
0.856250 0.492500 0.090625
0.900000 0.492500 0.090625
0.200000 0.536250 0.090625
0.243750 0.536250 0.090625
0.287500 0.536250 0.090625
0.331250 0.536250 0.090625
0.375000 0.536250 0.090625
0.418750 0.536250 0.090625
0.462500 0.536250 0.090625
0.506250 0.536250 0.090625
0.550000 0.536250 0.090625
0.593750 0.536250 0.090625
0.637500 0.536250 0.090625
0.681250 0.536250 0.090625
0.725000 0.536250 0.090625
0.768750 0.536250 0.090625
0.812500 0.536250 0.090625
0.856250 0.536250 0.090625
0.900000 0.536250 0.090625
0.200000 0.580000 0.090625
0.243750 0.580000 0.090625
0.287500 0.580000 0.090625
0.331250 0.580000 0.090625
0.375000 0.580000 0.090625
0.418750 0.580000 0.090625
0.462500 0.580000 0.090625
0.506250 0.580000 0.090625
0.550000 0.580000 0.090625
0.593750 0.580000 0.090625
0.637500 0.580000 0.090625
0.681250 0.580000 0.090625
0.725000 0.580000 0.090625
0.768750 0.580000 0.090625
0.812500 0.580000 0.090625
0.856250 0.580000 0.090625
0.900000 0.580000 0.090625
0.200000 0.623750 0.090625
0.243750 0.623750 0.090625
0.287500 0.623750 0.090625
0.331250 0.623750 0.090625
0.375000 0.623750 0.090625
0.418750 0.623750 0.090625
0.462500 0.623750 0.090625
0.506250 0.623750 0.090625
0.550000 0.623750 0.090625
0.593750 0.623750 0.090625
0.637500 0.623750 0.090625
0.681250 0.623750 0.090625
0.725000 0.623750 0.090625
0.768750 0.623750 0.090625
0.812500 0.623750 0.090625
0.856250 0.623750 0.090625
0.900000 0.623750 0.090625
0.200000 0.667500 0.090625
0.243750 0.667500 0.090625
0.287500 0.667500 0.090625
0.331250 0.667500 0.090625
0.375000 0.667500 0.090625
0.418750 0.667500 0.090625
0.462500 0.667500 0.090625
0.506250 0.667500 0.090625
0.550000 0.667500 0.090625
0.593750 0.667500 0.090625
0.637500 0.667500 0.090625
0.681250 0.667500 0.090625
0.725000 0.667500 0.090625
0.768750 0.667500 0.090625
0.812500 0.667500 0.090625
0.856250 0.667500 0.090625
0.900000 0.667500 0.090625
0.200000 0.711250 0.090625
0.243750 0.711250 0.090625
0.287500 0.711250 0.090625
0.331250 0.711250 0.090625
0.375000 0.711250 0.090625
0.418750 0.711250 0.090625
0.462500 0.711250 0.090625
0.506250 0.711250 0.090625
0.550000 0.711250 0.090625
0.593750 0.711250 0.090625
0.637500 0.711250 0.090625
0.681250 0.711250 0.090625
0.725000 0.711250 0.090625
0.768750 0.711250 0.090625
0.812500 0.711250 0.090625
0.856250 0.711250 0.090625
0.900000 0.711250 0.090625
0.200000 0.755000 0.090625
0.243750 0.755000 0.090625
0.287500 0.755000 0.090625
0.331250 0.755000 0.090625
0.375000 0.755000 0.090625
0.418750 0.755000 0.090625
0.462500 0.755000 0.090625
0.506250 0.755000 0.090625
0.550000 0.755000 0.090625
0.593750 0.755000 0.090625
0.637500 0.755000 0.090625
0.681250 0.755000 0.090625
0.725000 0.755000 0.090625
0.768750 0.755000 0.090625
0.812500 0.755000 0.090625
0.856250 0.755000 0.090625
0.900000 0.755000 0.090625
0.200000 0.798750 0.090625
0.243750 0.798750 0.090625
0.287500 0.798750 0.090625
0.331250 0.798750 0.090625
0.375000 0.798750 0.090625
0.418750 0.798750 0.090625
0.462500 0.798750 0.090625
0.506250 0.798750 0.090625
0.550000 0.798750 0.090625
0.593750 0.798750 0.090625
0.637500 0.798750 0.090625
0.681250 0.798750 0.090625
0.725000 0.798750 0.090625
0.768750 0.798750 0.090625
0.812500 0.798750 0.090625
0.856250 0.798750 0.090625
0.900000 0.798750 0.090625
0.200000 0.842500 0.090625
0.243750 0.842500 0.090625
0.287500 0.842500 0.090625
0.331250 0.842500 0.090625
0.375000 0.842500 0.090625
0.418750 0.842500 0.090625
0.462500 0.842500 0.090625
0.506250 0.842500 0.090625
0.550000 0.842500 0.090625
0.593750 0.842500 0.090625
0.637500 0.842500 0.090625
0.681250 0.842500 0.090625
0.725000 0.842500 0.090625
0.768750 0.842500 0.090625
0.812500 0.842500 0.090625
0.856250 0.842500 0.090625
0.900000 0.842500 0.090625
0.200000 0.886250 0.090625
0.243750 0.886250 0.090625
0.287500 0.886250 0.090625
0.331250 0.886250 0.090625
0.375000 0.886250 0.090625
0.418750 0.886250 0.090625
0.462500 0.886250 0.090625
0.506250 0.886250 0.090625
0.550000 0.886250 0.090625
0.593750 0.886250 0.090625
0.637500 0.886250 0.090625
0.681250 0.886250 0.090625
0.725000 0.886250 0.090625
0.768750 0.886250 0.090625
0.812500 0.886250 0.090625
0.856250 0.886250 0.090625
0.900000 0.886250 0.090625
0.200000 0.930000 0.090625
0.243750 0.930000 0.090625
0.287500 0.930000 0.090625
0.331250 0.930000 0.090625
0.375000 0.930000 0.090625
0.418750 0.930000 0.090625
0.462500 0.930000 0.090625
0.506250 0.930000 0.090625
0.550000 0.930000 0.090625
0.593750 0.930000 0.090625
0.637500 0.930000 0.090625
0.681250 0.930000 0.090625
0.725000 0.930000 0.090625
0.768750 0.930000 0.090625
0.812500 0.930000 0.090625
0.856250 0.930000 0.090625
0.900000 0.930000 0.090625
0.200000 0.230000 0.131250
0.243750 0.230000 0.131250
0.287500 0.230000 0.131250
0.331250 0.230000 0.131250
0.375000 0.230000 0.131250
0.418750 0.230000 0.131250
0.462500 0.230000 0.131250
0.506250 0.230000 0.131250
0.550000 0.230000 0.131250
0.593750 0.230000 0.131250
0.637500 0.230000 0.131250
0.681250 0.230000 0.131250
0.725000 0.230000 0.131250
0.768750 0.230000 0.131250
0.812500 0.230000 0.131250
0.856250 0.230000 0.131250
0.900000 0.230000 0.131250
0.200000 0.273750 0.131250
0.243750 0.273750 0.131250
0.287500 0.273750 0.131250
0.331250 0.273750 0.131250
0.375000 0.273750 0.131250
0.418750 0.273750 0.131250
0.462500 0.273750 0.131250
0.506250 0.273750 0.131250
0.550000 0.273750 0.131250
0.593750 0.273750 0.131250
0.637500 0.273750 0.131250
0.681250 0.273750 0.131250
0.725000 0.273750 0.131250
0.768750 0.273750 0.131250
0.812500 0.273750 0.131250
0.856250 0.273750 0.131250
0.900000 0.273750 0.131250
0.200000 0.317500 0.131250
0.243750 0.317500 0.131250
0.287500 0.317500 0.131250
0.331250 0.317500 0.131250
0.375000 0.317500 0.131250
0.418750 0.317500 0.131250
0.462500 0.317500 0.131250
0.506250 0.317500 0.131250
0.550000 0.317500 0.131250
0.593750 0.317500 0.131250
0.637500 0.317500 0.131250
0.681250 0.317500 0.131250
0.725000 0.317500 0.131250
0.768750 0.317500 0.131250
0.812500 0.317500 0.131250
0.856250 0.317500 0.131250
0.900000 0.317500 0.131250
0.200000 0.361250 0.131250
0.243750 0.361250 0.131250
0.287500 0.361250 0.131250
0.331250 0.361250 0.131250
0.375000 0.361250 0.131250
0.418750 0.361250 0.131250
0.462500 0.361250 0.131250
0.506250 0.361250 0.131250
0.550000 0.361250 0.131250
0.593750 0.361250 0.131250
0.637500 0.361250 0.131250
0.681250 0.361250 0.131250
0.725000 0.361250 0.131250
0.768750 0.361250 0.131250
0.812500 0.361250 0.131250
0.856250 0.361250 0.131250
0.900000 0.361250 0.131250
0.200000 0.405000 0.131250
0.243750 0.405000 0.131250
0.287500 0.405000 0.131250
0.331250 0.405000 0.131250
0.375000 0.405000 0.131250
0.418750 0.405000 0.131250
0.462500 0.405000 0.131250
0.506250 0.405000 0.131250
0.550000 0.405000 0.131250
0.593750 0.405000 0.131250
0.637500 0.405000 0.131250
0.681250 0.405000 0.131250
0.725000 0.405000 0.131250
0.768750 0.405000 0.131250
0.812500 0.405000 0.131250
0.856250 0.405000 0.131250
0.900000 0.405000 0.131250
0.200000 0.448750 0.131250
0.243750 0.448750 0.131250
0.287500 0.448750 0.131250
0.331250 0.448750 0.131250
0.375000 0.448750 0.131250
0.418750 0.448750 0.131250
0.462500 0.448750 0.131250
0.506250 0.448750 0.131250
0.550000 0.448750 0.131250
0.593750 0.448750 0.131250
0.637500 0.448750 0.131250
0.681250 0.448750 0.131250
0.725000 0.448750 0.131250
0.768750 0.448750 0.131250
0.812500 0.448750 0.131250
0.856250 0.448750 0.131250
0.900000 0.448750 0.131250
0.200000 0.492500 0.131250
0.243750 0.492500 0.131250
0.287500 0.492500 0.131250
0.331250 0.492500 0.131250
0.375000 0.492500 0.131250
0.418750 0.492500 0.131250
0.462500 0.492500 0.131250
0.506250 0.492500 0.131250
0.550000 0.492500 0.131250
0.593750 0.492500 0.131250
0.637500 0.492500 0.131250
0.681250 0.492500 0.131250
0.725000 0.492500 0.131250
0.768750 0.492500 0.131250
0.812500 0.492500 0.131250
0.856250 0.492500 0.131250
0.900000 0.492500 0.131250
0.200000 0.536250 0.131250
0.243750 0.536250 0.131250
0.287500 0.536250 0.131250
0.331250 0.536250 0.131250
0.375000 0.536250 0.131250
0.418750 0.536250 0.131250
0.462500 0.536250 0.131250
0.506250 0.536250 0.131250
0.550000 0.536250 0.131250
0.593750 0.536250 0.131250
0.637500 0.536250 0.131250
0.681250 0.536250 0.131250
0.725000 0.536250 0.131250
0.768750 0.536250 0.131250
0.812500 0.536250 0.131250
0.856250 0.536250 0.131250
0.900000 0.536250 0.131250
0.200000 0.580000 0.131250
0.243750 0.580000 0.131250
0.287500 0.580000 0.131250
0.331250 0.580000 0.131250
0.375000 0.580000 0.131250
0.418750 0.580000 0.131250
0.462500 0.580000 0.131250
0.506250 0.580000 0.131250
0.550000 0.580000 0.131250
0.593750 0.580000 0.131250
0.637500 0.580000 0.131250
0.681250 0.580000 0.131250
0.725000 0.580000 0.131250
0.768750 0.580000 0.131250
0.812500 0.580000 0.131250
0.856250 0.580000 0.131250
0.900000 0.580000 0.131250
0.200000 0.623750 0.131250
0.243750 0.623750 0.131250
0.287500 0.623750 0.131250
0.331250 0.623750 0.131250
0.375000 0.623750 0.131250
0.418750 0.623750 0.131250
0.462500 0.623750 0.131250
0.506250 0.623750 0.131250
0.550000 0.623750 0.131250
0.593750 0.623750 0.131250
0.637500 0.623750 0.131250
0.681250 0.623750 0.131250
0.725000 0.623750 0.131250
0.768750 0.623750 0.131250
0.812500 0.623750 0.131250
0.856250 0.623750 0.131250
0.900000 0.623750 0.131250
0.200000 0.667500 0.131250
0.243750 0.667500 0.131250
0.287500 0.667500 0.131250
0.331250 0.667500 0.131250
0.375000 0.667500 0.131250
0.418750 0.667500 0.131250
0.462500 0.667500 0.131250
0.506250 0.667500 0.131250
0.550000 0.667500 0.131250
0.593750 0.667500 0.131250
0.637500 0.667500 0.131250
0.681250 0.667500 0.131250
0.725000 0.667500 0.131250
0.768750 0.667500 0.131250
0.812500 0.667500 0.131250
0.856250 0.667500 0.131250
0.900000 0.667500 0.131250
0.200000 0.711250 0.131250
0.243750 0.711250 0.131250
0.287500 0.711250 0.131250
0.331250 0.711250 0.131250
0.375000 0.711250 0.131250
0.418750 0.711250 0.131250
0.462500 0.711250 0.131250
0.506250 0.711250 0.131250
0.550000 0.711250 0.131250
0.593750 0.711250 0.131250
0.637500 0.711250 0.131250
0.681250 0.711250 0.131250
0.725000 0.711250 0.131250
0.768750 0.711250 0.131250
0.812500 0.711250 0.131250
0.856250 0.711250 0.131250
0.900000 0.711250 0.131250
0.200000 0.755000 0.131250
0.243750 0.755000 0.131250
0.287500 0.755000 0.131250
0.331250 0.755000 0.131250
0.375000 0.755000 0.131250
0.418750 0.755000 0.131250
0.462500 0.755000 0.131250
0.506250 0.755000 0.131250
0.550000 0.755000 0.131250
0.593750 0.755000 0.131250
0.637500 0.755000 0.131250
0.681250 0.755000 0.131250
0.725000 0.755000 0.131250
0.768750 0.755000 0.131250
0.812500 0.755000 0.131250
0.856250 0.755000 0.131250
0.900000 0.755000 0.131250
0.200000 0.798750 0.131250
0.243750 0.798750 0.131250
0.287500 0.798750 0.131250
0.331250 0.798750 0.131250
0.375000 0.798750 0.131250
0.418750 0.798750 0.131250
0.462500 0.798750 0.131250
0.506250 0.798750 0.131250
0.550000 0.798750 0.131250
0.593750 0.798750 0.131250
0.637500 0.798750 0.131250
0.681250 0.798750 0.131250
0.725000 0.798750 0.131250
0.768750 0.798750 0.131250
0.812500 0.798750 0.131250
0.856250 0.798750 0.131250
0.900000 0.798750 0.131250
0.200000 0.842500 0.131250
0.243750 0.842500 0.131250
0.287500 0.842500 0.131250
0.331250 0.842500 0.131250
0.375000 0.842500 0.131250
0.418750 0.842500 0.131250
0.462500 0.842500 0.131250
0.506250 0.842500 0.131250
0.550000 0.842500 0.131250
0.593750 0.842500 0.131250
0.637500 0.842500 0.131250
0.681250 0.842500 0.131250
0.725000 0.842500 0.131250
0.768750 0.842500 0.131250
0.812500 0.842500 0.131250
0.856250 0.842500 0.131250
0.900000 0.842500 0.131250
0.200000 0.886250 0.131250
0.243750 0.886250 0.131250
0.287500 0.886250 0.131250
0.331250 0.886250 0.131250
0.375000 0.886250 0.131250
0.418750 0.886250 0.131250
0.462500 0.886250 0.131250
0.506250 0.886250 0.131250
0.550000 0.886250 0.131250
0.593750 0.886250 0.131250
0.637500 0.886250 0.131250
0.681250 0.886250 0.131250
0.725000 0.886250 0.131250
0.768750 0.886250 0.131250
0.812500 0.886250 0.131250
0.856250 0.886250 0.131250
0.900000 0.886250 0.131250
0.200000 0.930000 0.131250
0.243750 0.930000 0.131250
0.287500 0.930000 0.131250
0.331250 0.930000 0.131250
0.375000 0.930000 0.131250
0.418750 0.930000 0.131250
0.462500 0.930000 0.131250
0.506250 0.930000 0.131250
0.550000 0.930000 0.131250
0.593750 0.930000 0.131250
0.637500 0.930000 0.131250
0.681250 0.930000 0.131250
0.725000 0.930000 0.131250
0.768750 0.930000 0.131250
0.812500 0.930000 0.131250
0.856250 0.930000 0.131250
0.900000 0.930000 0.131250
0.200000 0.230000 0.171875
0.243750 0.230000 0.171875
0.287500 0.230000 0.171875
0.331250 0.230000 0.171875
0.375000 0.230000 0.171875
0.418750 0.230000 0.171875
0.462500 0.230000 0.171875
0.506250 0.230000 0.171875
0.550000 0.230000 0.171875
0.593750 0.230000 0.171875
0.637500 0.230000 0.171875
0.681250 0.230000 0.171875
0.725000 0.230000 0.171875
0.768750 0.230000 0.171875
0.812500 0.230000 0.171875
0.856250 0.230000 0.171875
